DECL E6POS Xp5={X 243.83,Y -1356.26,Z 10592.77,A 0.865,B 1.503,C 34.86,S 2,T 10,E1 300,E2 0,E3 0,E4 0,E5 0,E6 0}
DECL E6POS XVorpos_Unten={X 1346.04,Y -22631.2207,Z 8055.8,A -108.465,B 12.337,C -86.613,S 2,T 42,E1 -20000,E2 0,E3 0,E4 0,E5 0,E6 0}
DECL E6POS Xp10={X 962.01,Y -21909.1797,Z 10582.47,A -128.296,B -49.508,C -36.22,S 2,T 42,E1 -21000,E2 0,E3 0,E4 0,E5 0,E6 0}
DECL E6POS Xp20={X 894.83,Y -21156.7695,Z 10617.82,A -51.892,B 45.221,C -37.658,S 6,T 27,E1 -22000,E2 0,E3 0,E4 0,E5 0,E6 0}
DECL E6POS XVorpos_Oben={X 1260.92,Y -21842.8,Z 8189.73,A -67.874,B -14.118,C -86.589,S 6,T 27,E1 -24500,E2 0,E3 0,E4 0,E5 0,E6 0}
DECL E6POS Xp30={X 894.83,Y -21156.7695,Z 10617.82,A -51.892,B 45.221,C -37.658,S 6,T 27,E1 -22000,E2 0,E3 0,E4 0,E5 0,E6 0}
DECL E6POS Xp40={X 962.01,Y -21909.1797,Z 10582.47,A -128.296,B -49.508,C -36.22,S 2,T 42,E1 -21000,E2 0,E3 0,E4 0,E5 0,E6 0}
DECL E6POS Xp50={X 243.83,Y -1356.26,Z 10592.77,A 0.865,B 1.503,C 34.86,S 2,T 10,E1 300,E2 0,E3 0,E4 0,E5 0,E6 0}
DECL E6POS Xp10_s06r14u={X -10971.6504,Y 10416.5498,Z 5322.91,A -17.628,B -2.31,C 2.881,S 2,T 42,E1 -18000,E2 0,E3 0,E4 0,E5 0,E6 0}
DECL E6POS XD_s06r14u_5={X -10977.0098,Y 10412.9805,Z 5422.71,A -17.628,B -2.31,C 2.881,S 2,T 42,E1 -18000,E2 0,E3 0,E4 0,E5 0,E6 0}
DECL E6POS XD_s06r14u_10={X -10958.29,Y 10408.3604,Z 5423.16,A -9.63,B -2.689,C 2.532,S 2,T 42,E1 -18000,E2 0,E3 0,E4 0,E5 0,E6 0}
DECL E6POS XD_s06r14u_15={X -10945.96,Y 10405.7197,Z 5423.47,A -15.129,B -2.434,C 2.778,S 2,T 42,E1 -18000,E2 0,E3 0,E4 0,E5 0,E6 0}
DECL E6POS XD_s06r14u_20={X -10932.6299,Y 10400.1602,Z 5423.73,A -29.119,B -1.69,C 3.283,S 2,T 42,E1 -18000,E2 0,E3 0,E4 0,E5 0,E6 0}
DECL E6POS XD_s06r14u_25={X -10890.7197,Y 10375.9902,Z 5424.4,A -31.116,B -1.574,C 3.34,S 2,T 42,E1 -18000,E2 0,E3 0,E4 0,E5 0,E6 0}
DECL E6POS XD_s06r14u_30={X -10878.6396,Y 10366.6396,Z 5424.53,A -44.946,B -0.223,C 4.255,S 2,T 42,E1 -18000,E2 0,E3 0,E4 0,E5 0,E6 0}
DECL E6POS XD_s06r14u_35={X -10870.2305,Y 10357.2305,Z 5424.55,A -49.433,B 0.111,C 4.259,S 2,T 42,E1 -18000,E2 0,E3 0,E4 0,E5 0,E6 0}
DECL E6POS XD_s06r14u_40={X -10858.8398,Y 10345.3,Z 5424.6,A -42.453,B -0.408,C 4.241,S 2,T 42,E1 -18000,E2 0,E3 0,E4 0,E5 0,E6 0}
DECL E6POS Xp20_s06r14u={X -10853.3203,Y 10350.2803,Z 5324.87,A -42.453,B -0.408,C 4.241,S 2,T 42,E1 -18000,E2 0,E3 0,E4 0,E5 0,E6 0}
DECL E6POS Xp10_s06r14o={X -11036.9297,Y 10299.5898,Z 5317.44,A -44.095,B -0.783,C 3.608,S 6,T 27,E1 -22000,E2 0,E3 0,E4 0,E5 0,E6 0}
DECL E6POS XD_s06r14o_5={X -11042.29,Y 10296.0195,Z 5417.24,A -44.095,B -0.783,C 3.608,S 6,T 27,E1 -22000,E2 0,E3 0,E4 0,E5 0,E6 0}
DECL E6POS XD_s06r14o_10={X -11030.5703,Y 10282.9297,Z 5417.24,A -51.081,B -0.338,C 3.677,S 6,T 27,E1 -22000,E2 0,E3 0,E4 0,E5 0,E6 0}
DECL E6POS XD_s06r14o_15={X -11020.0195,Y 10270.4902,Z 5417.23,A -46.59,B -0.625,C 3.639,S 6,T 27,E1 -22000,E2 0,E3 0,E4 0,E5 0,E6 0}
DECL E6POS XD_s06r14o_20={X -11008.5098,Y 10261.7,Z 5417.35,A -30.117,B -1.632,C 3.312,S 6,T 27,E1 -22000,E2 0,E3 0,E4 0,E5 0,E6 0}
DECL E6POS XD_s06r14o_25={X -10964.75,Y 10236.4502,Z 5418.1,A -28.619,B -1.719,C 3.269,S 6,T 27,E1 -22000,E2 0,E3 0,E4 0,E5 0,E6 0}
DECL E6POS XD_s06r14o_30={X -10951.9199,Y 10231.0098,Z 5418.39,A -16.13,B -2.357,C 2.938,S 6,T 27,E1 -22000,E2 0,E3 0,E4 0,E5 0,E6 0}
DECL E6POS XD_s06r14o_35={X -10936.1699,Y 10228.1299,Z 5418.84,A -8.086,B -1.744,C 2.58,S 6,T 27,E1 -22000,E2 0,E3 0,E4 0,E5 0,E6 0}
DECL E6POS XD_s06r14o_40={X -10920.75,Y 10225.0498,Z 5419.28,A -13.631,B -2.483,C 2.833,S 6,T 27,E1 -22000,E2 0,E3 0,E4 0,E5 0,E6 0}
DECL E6POS Xp20_s06r14o={X -10915.3799,Y 10228.8398,Z 5319.5,A -13.631,B -2.483,C 2.833,S 6,T 27,E1 -22000,E2 0,E3 0,E4 0,E5 0,E6 0}
DECL E6POS Xp10_s06r13u={X -10185.2197,Y 9962.71,Z 5335.12,A -15.129,B -2.434,C 2.778,S 2,T 42,E1 -19000,E2 0,E3 0,E4 0,E5 0,E6 0}
DECL E6POS XD_s06r13u_5={X -10190.5801,Y 9959.14,Z 5434.92,A -15.129,B -2.434,C 2.778,S 2,T 42,E1 -19000,E2 0,E3 0,E4 0,E5 0,E6 0}
DECL E6POS XD_s06r13u_10={X -10173.7695,Y 9954.75,Z 5435.27,A -11.13,B -2.622,C 2.601,S 2,T 42,E1 -19000,E2 0,E3 0,E4 0,E5 0,E6 0}
DECL E6POS XD_s06r13u_15={X -10158.6,Y 9951.69,Z 5435.61,A -15.129,B -2.434,C 2.778,S 2,T 42,E1 -19000,E2 0,E3 0,E4 0,E5 0,E6 0}
DECL E6POS XD_s06r13u_20={X -10144.6797,Y 9945.97,Z 5435.86,A -30.117,B -1.632,C 3.312,S 2,T 42,E1 -19000,E2 0,E3 0,E4 0,E5 0,E6 0}
DECL E6POS XD_s06r13u_25={X -10101.3896,Y 9920.99,Z 5436.5,A -30.617,B -1.603,C 3.326,S 2,T 42,E1 -19000,E2 0,E3 0,E4 0,E5 0,E6 0}
DECL E6POS XD_s06r13u_30={X -10092.2197,Y 9914.49,Z 5436.62,A -41.455,B -0.482,C 4.233,S 2,T 42,E1 -19000,E2 0,E3 0,E4 0,E5 0,E6 0}
DECL E6POS XD_s06r13u_35={X -10080.71,Y 9901.97,Z 5436.68,A -49.433,B 0.111,C 4.259,S 2,T 42,E1 -19000,E2 0,E3 0,E4 0,E5 0,E6 0}
DECL E6POS XD_s06r13u_40={X -10069.3203,Y 9889.97,Z 5436.74,A -43.45,B -0.334,C 4.247,S 2,T 42,E1 -19000,E2 0,E3 0,E4 0,E5 0,E6 0}
DECL E6POS Xp20_s06r13u={X -10063.8,Y 9894.95,Z 5337.01,A -43.45,B -0.334,C 4.247,S 2,T 42,E1 -19000,E2 0,E3 0,E4 0,E5 0,E6 0}
DECL E6POS Xp10_s06r13o={X -10250.9805,Y 9846.94,Z 5330.59,A -44.594,B -0.752,C 3.615,S 6,T 27,E1 -23000,E2 0,E3 0,E4 0,E5 0,E6 0}
DECL E6POS XD_s06r13o_5={X -10256.3398,Y 9843.37,Z 5430.39,A -44.594,B -0.752,C 3.615,S 6,T 27,E1 -23000,E2 0,E3 0,E4 0,E5 0,E6 0}
DECL E6POS XD_s06r13o_10={X -10243.6396,Y 9829.92,Z 5430.44,A -48.586,B -0.498,C 3.659,S 6,T 27,E1 -23000,E2 0,E3 0,E4 0,E5 0,E6 0}
DECL E6POS XD_s06r13o_15={X -10234.4102,Y 9819.19,Z 5430.45,A -44.594,B -0.752,C 3.615,S 6,T 27,E1 -23000,E2 0,E3 0,E4 0,E5 0,E6 0}
DECL E6POS XD_s06r13o_20={X -10222.3604,Y 9809.84,Z 5430.59,A -30.617,B -1.603,C 3.326,S 6,T 27,E1 -23000,E2 0,E3 0,E4 0,E5 0,E6 0}
DECL E6POS XD_s06r13o_25={X -10179.7598,Y 9785.26,Z 5431.27,A -30.117,B -1.632,C 3.312,S 6,T 27,E1 -23000,E2 0,E3 0,E4 0,E5 0,E6 0}
DECL E6POS XD_s06r13o_30={X -10167.6299,Y 9780.01,Z 5431.52,A -15.63,B -2.382,C 2.918,S 6,T 27,E1 -23000,E2 0,E3 0,E4 0,E5 0,E6 0}
DECL E6POS XD_s06r13o_35={X -10150.6504,Y 9776.65,Z 5431.95,A -8.631,B -2.72,C 2.606,S 6,T 27,E1 -23000,E2 0,E3 0,E4 0,E5 0,E6 0}
DECL E6POS XD_s06r13o_40={X -10135.0303,Y 9773.13,Z 5432.33,A -15.13,B -2.408,C 2.897,S 6,T 27,E1 -23000,E2 0,E3 0,E4 0,E5 0,E6 0}
DECL E6POS Xp20_s06r13o={X -10129.6699,Y 9776.91,Z 5332.55,A -15.13,B -2.408,C 2.897,S 6,T 27,E1 -23000,E2 0,E3 0,E4 0,E5 0,E6 0}
DECL E6POS Xp10_s06r12u={X -9449.31,Y 9537.35,Z 5345.61,A -16.129,B -2.385,C 2.82,S 2,T 42,E1 -20000,E2 0,E3 0,E4 0,E5 0,E6 0}
DECL E6POS XD_s06r12u_5={X -9454.67,Y 9533.78,Z 5445.4,A -16.129,B -2.385,C 2.82,S 2,T 42,E1 -20000,E2 0,E3 0,E4 0,E5 0,E6 0}
DECL E6POS XD_s06r12u_10={X -9441.15,Y 9529.87,Z 5445.65,A -14.129,B -2.482,C 2.735,S 2,T 42,E1 -20000,E2 0,E3 0,E4 0,E5 0,E6 0}
DECL E6POS XD_s06r12u_15={X -9427.53,Y 9527.12,Z 5445.91,A -10.13,B -2.667,C 2.555,S 2,T 42,E1 -20000,E2 0,E3 0,E4 0,E5 0,E6 0}
DECL E6POS XD_s06r12u_20={X -9416.72,Y 9524.47,Z 5446.1,A -19.127,B -2.234,C 2.94,S 2,T 42,E1 -20000,E2 0,E3 0,E4 0,E5 0,E6 0}
DECL E6POS XD_s06r12u_25={X -9406.35,Y 9519.74,Z 5446.26,A -30.617,B -1.603,C 3.326,S 2,T 42,E1 -20000,E2 0,E3 0,E4 0,E5 0,E6 0}
DECL E6POS XD_s06r12u_30={X -9367.4,Y 9497.26,Z 5446.78,A -30.617,B -1.603,C 3.326,S 2,T 42,E1 -20000,E2 0,E3 0,E4 0,E5 0,E6 0}
DECL E6POS XD_s06r12u_35={X -9357.47,Y 9489.88,Z 5446.88,A -43.45,B -0.334,C 4.247,S 2,T 42,E1 -20000,E2 0,E3 0,E4 0,E5 0,E6 0}
DECL E6POS XD_s06r12u_40={X -9350.44,Y 9482.65,Z 5446.93,A -48.935,B 0.074,C 4.26,S 2,T 42,E1 -20000,E2 0,E3 0,E4 0,E5 0,E6 0}
DECL E6POS XD_s06r12u_45={X -9342.62,Y 9473.68,Z 5446.96,A -45.943,B -0.149,C 4.258,S 2,T 42,E1 -20000,E2 0,E3 0,E4 0,E5 0,E6 0}
DECL E6POS XD_s06r12u_50={X -9332.57,Y 9463.86,Z 5447.04,A -42.453,B -0.408,C 4.241,S 2,T 42,E1 -20000,E2 0,E3 0,E4 0,E5 0,E6 0}
DECL E6POS Xp20_s06r12u={X -9327.06,Y 9468.84,Z 5347.31,A -42.453,B -0.408,C 4.241,S 2,T 42,E1 -20000,E2 0,E3 0,E4 0,E5 0,E6 0}
DECL E6POS Xp10_s06r12o={X -9513.59,Y 9421.21,Z 5341.95,A -43.097,B -0.846,C 3.594,S 6,T 27,E1 -24000,E2 0,E3 0,E4 0,E5 0,E6 0}
DECL E6POS XD_s06r12o_5={X -9518.94,Y 9417.64,Z 5441.74,A -43.097,B -0.846,C 3.594,S 6,T 27,E1 -24000,E2 0,E3 0,E4 0,E5 0,E6 0}
DECL E6POS XD_s06r12o_10={X -9512.06,Y 9410.68,Z 5441.78,A -45.936,B 1.835,C 3.504,S 6,T 27,E1 -24000,E2 0,E3 0,E4 0,E5 0,E6 0}
DECL E6POS XD_s06r12o_15={X -9504.38,Y 9401.57,Z 5441.8,A -50.93,B 2.133,C 3.331,S 6,T 27,E1 -24000,E2 0,E3 0,E4 0,E5 0,E6 0}
DECL E6POS XD_s06r12o_20={X -9496.14,Y 9392.76,Z 5441.83,A -40.601,B -1.002,C 3.554,S 6,T 27,E1 -24000,E2 0,E3 0,E4 0,E5 0,E6 0}
DECL E6POS XD_s06r12o_25={X -9486.66,Y 9385.98,Z 5441.94,A -30.117,B -1.632,C 3.312,S 6,T 27,E1 -24000,E2 0,E3 0,E4 0,E5 0,E6 0}
DECL E6POS XD_s06r12o_30={X -9442.24,Y 9360.35,Z 5442.58,A -27.62,B -1.775,C 3.238,S 6,T 27,E1 -24000,E2 0,E3 0,E4 0,E5 0,E6 0}
DECL E6POS XD_s06r12o_35={X -9431.36,Y 9355.44,Z 5442.76,A -17.629,B -2.279,C 2.999,S 6,T 27,E1 -24000,E2 0,E3 0,E4 0,E5 0,E6 0}
DECL E6POS XD_s06r12o_40={X -9420.01,Y 9352.82,Z 5443,A -9.631,B -2.674,C 2.653,S 6,T 27,E1 -24000,E2 0,E3 0,E4 0,E5 0,E6 0}
DECL E6POS XD_s06r12o_45={X -9408.59,Y 9350.83,Z 5443.26,A -12.631,B -2.532,C 2.789,S 6,T 27,E1 -24000,E2 0,E3 0,E4 0,E5 0,E6 0}
DECL E6POS XD_s06r12o_50={X -9398.26,Y 9348.25,Z 5443.47,A -14.13,B -2.458,C 2.855,S 6,T 27,E1 -24000,E2 0,E3 0,E4 0,E5 0,E6 0}
DECL E6POS Xp20_s06r12o={X -9392.89,Y 9352.04,Z 5343.69,A -14.13,B -2.458,C 2.855,S 6,T 27,E1 -24000,E2 0,E3 0,E4 0,E5 0,E6 0}
DECL E6POS Xp10_s06r11u={X -8713.91,Y 9113.11,Z 5354.82,A -17.628,B -2.31,C 2.881,S 2,T 42,E1 -20500,E2 0,E3 0,E4 0,E5 0,E6 0}
DECL E6POS XD_s06r11u_5={X -8719.27,Y 9109.54,Z 5454.62,A -17.628,B -2.31,C 2.881,S 2,T 42,E1 -20500,E2 0,E3 0,E4 0,E5 0,E6 0}
DECL E6POS XD_s06r11u_10={X -8705.33,Y 9105.55,Z 5454.83,A -13.63,B -2.506,C 2.713,S 2,T 42,E1 -20500,E2 0,E3 0,E4 0,E5 0,E6 0}
DECL E6POS XD_s06r11u_15={X -8691.91,Y 9102.9,Z 5455.05,A -9.63,B -2.689,C 2.532,S 2,T 42,E1 -20500,E2 0,E3 0,E4 0,E5 0,E6 0}
DECL E6POS XD_s06r11u_20={X -8680.92,Y 9100.24,Z 5455.22,A -18.628,B -2.26,C 2.921,S 2,T 42,E1 -20500,E2 0,E3 0,E4 0,E5 0,E6 0}
DECL E6POS XD_s06r11u_25={X -8670.45,Y 9095.47,Z 5455.35,A -27.62,B -1.775,C 3.238,S 2,T 42,E1 -20500,E2 0,E3 0,E4 0,E5 0,E6 0}
DECL E6POS XD_s06r11u_30={X -8630.31,Y 9072.31,Z 5455.82,A -27.62,B -1.775,C 3.238,S 2,T 42,E1 -20500,E2 0,E3 0,E4 0,E5 0,E6 0}
DECL E6POS XD_s06r11u_35={X -8621.14,Y 9065.79,Z 5455.91,A -40.601,B -1.002,C 3.554,S 2,T 42,E1 -20500,E2 0,E3 0,E4 0,E5 0,E6 0}
DECL E6POS XD_s06r11u_40={X -8613.12,Y 9057.42,Z 5455.96,A -48.586,B -0.498,C 3.659,S 2,T 42,E1 -20500,E2 0,E3 0,E4 0,E5 0,E6 0}
DECL E6POS XD_s06r11u_45={X -8605.66,Y 9048.75,Z 5456,A -45.943,B -0.149,C 4.258,S 2,T 42,E1 -20500,E2 0,E3 0,E4 0,E5 0,E6 0}
DECL E6POS XD_s06r11u_50={X -8596.01,Y 9039.22,Z 5456.06,A -42.951,B -0.371,C 4.244,S 2,T 42,E1 -20500,E2 0,E3 0,E4 0,E5 0,E6 0}
DECL E6POS Xp20_s06r11u={X -8590.49,Y 9044.19,Z 5356.34,A -42.951,B -0.371,C 4.244,S 2,T 42,E1 -20500,E2 0,E3 0,E4 0,E5 0,E6 0}
DECL E6POS Xp10_s06r11o={X -8776.13,Y 8996.46,Z 5351.86,A -43.596,B -0.815,C 3.601,S 6,T 27,E1 -24500,E2 0,E3 0,E4 0,E5 0,E6 0}
DECL E6POS XD_s06r11o_5={X -8781.49,Y 8992.89,Z 5451.65,A -43.596,B -0.815,C 3.602,S 6,T 27,E1 -24500,E2 0,E3 0,E4 0,E5 0,E6 0}
DECL E6POS XD_s06r11o_10={X -8773.61,Y 8984.92,Z 5451.7,A -47.588,B -0.562,C 3.649,S 6,T 27,E1 -24500,E2 0,E3 0,E4 0,E5 0,E6 0}
DECL E6POS XD_s06r11o_15={X -8766.63,Y 8976.74,Z 5451.71,A -47.588,B -0.562,C 3.649,S 6,T 27,E1 -24500,E2 0,E3 0,E4 0,E5 0,E6 0}
DECL E6POS XD_s06r11o_20={X -8758.5,Y 8968.2,Z 5451.75,A -40.102,B -1.033,C 3.545,S 6,T 27,E1 -24500,E2 0,E3 0,E4 0,E5 0,E6 0}
DECL E6POS XD_s06r11o_25={X -8749.28,Y 8961.64,Z 5451.84,A -30.117,B -1.632,C 3.312,S 6,T 27,E1 -24500,E2 0,E3 0,E4 0,E5 0,E6 0}
DECL E6POS XD_s06r11o_30={X -8705.09,Y 8936.14,Z 5452.39,A -28.619,B -1.719,C 3.269,S 6,T 27,E1 -24500,E2 0,E3 0,E4 0,E5 0,E6 0}
DECL E6POS XD_s06r11o_35={X -8694.56,Y 8931.35,Z 5452.54,A -17.129,B -2.305,C 2.979,S 6,T 27,E1 -24500,E2 0,E3 0,E4 0,E5 0,E6 0}
DECL E6POS XD_s06r11o_40={X -8683.58,Y 8928.71,Z 5452.74,A -10.131,B -2.651,C 2.676,S 6,T 27,E1 -24500,E2 0,E3 0,E4 0,E5 0,E6 0}
DECL E6POS XD_s06r11o_45={X -8672.32,Y 8926.61,Z 5452.95,A -13.131,B -2.507,C 2.811,S 6,T 27,E1 -24500,E2 0,E3 0,E4 0,E5 0,E6 0}
DECL E6POS XD_s06r11o_50={X -8661.74,Y 8923.84,Z 5453.14,A -15.13,B -2.408,C 2.897,S 6,T 27,E1 -24500,E2 0,E3 0,E4 0,E5 0,E6 0}
DECL E6POS Xp20_s06r11o={X -8656.37,Y 8927.62,Z 5353.35,A -15.13,B -2.408,C 2.897,S 6,T 27,E1 -24500,E2 0,E3 0,E4 0,E5 0,E6 0}
DECL E6POS Xp10_s06r10u={X -8018.57,Y 8723.34,Z 5363.01,A -0.125,B -3.07,C 2.053,S 2,T 42,E1 -21700,E2 0,E3 0,E4 0,E5 0,E6 0}
DECL E6POS XD_s06r10u_5={X -8023.12,Y 8721.52,Z 5462.61,A -0.125,B -3.07,C 2.053,S 2,T 42,E1 -21700,E2 0,E3 0,E4 0,E5 0,E6 0}
DECL E6POS XD_s06r10u_10={X -8008.56,Y 8720.94,Z 5462.84,A -0.125,B -3.07,C 2.053,S 2,T 42,E1 -21700,E2 0,E3 0,E4 0,E5 0,E6 0}
DECL E6POS XD_s06r10u_15={X -7991.87,Y 8719.22,Z 5463.09,A -14.129,B -2.482,C 2.735,S 2,T 42,E1 -21700,E2 0,E3 0,E4 0,E5 0,E6 0}
DECL E6POS XD_s06r10u_20={X -7975.94,Y 8712.89,Z 5463.28,A -33.113,B -1.457,C 3.393,S 2,T 42,E1 -21700,E2 0,E3 0,E4 0,E5 0,E6 0}
DECL E6POS XD_s06r10u_25={X -7908.08,Y 8673.73,Z 5464.02,A -33.113,B -1.457,C 3.393,S 2,T 42,E1 -21700,E2 0,E3 0,E4 0,E5 0,E6 0}
DECL E6POS XD_s06r10u_30={X -7895.06,Y 8663.51,Z 5464.14,A -46.442,B -0.112,C 4.259,S 2,T 42,E1 -21700,E2 0,E3 0,E4 0,E5 0,E6 0}
DECL E6POS XD_s06r10u_35={X -7884.9,Y 8649.69,Z 5464.19,A -58.409,B 0.776,C 4.189,S 2,T 42,E1 -21700,E2 0,E3 0,E4 0,E5 0,E6 0}
DECL E6POS XD_s06r10u_40={X -7877.05,Y 8637.33,Z 5464.21,A -58.409,B 0.776,C 4.189,S 2,T 42,E1 -21700,E2 0,E3 0,E4 0,E5 0,E6 0}
DECL E6POS Xp20_s06r10u={X -7873.59,Y 8642.21,Z 5364.68,A -58.409,B 0.776,C 4.189,S 2,T 42,E1 -21700,E2 0,E3 0,E4 0,E5 0,E6 0}
DECL E6POS Xp10_s06r10o={X -8095.6,Y 8587.56,Z 5359.89,A -61.559,B 0.337,C 3.677,S 6,T 27,E1 -25500,E2 0,E3 0,E4 0,E5 0,E6 0}
DECL E6POS XD_s06r10o_5={X -8099.88,Y 8585.45,Z 5459.66,A -61.559,B 0.337,C 3.677,S 6,T 27,E1 -25500,E2 0,E3 0,E4 0,E5 0,E6 0}
DECL E6POS XD_s06r10o_10={X -8091.39,Y 8571.26,Z 5459.63,A -57.568,B 0.08,C 3.691,S 6,T 27,E1 -25500,E2 0,E3 0,E4 0,E5 0,E6 0}
DECL E6POS XD_s06r10o_15={X -8081.61,Y 8558.58,Z 5459.64,A -43.596,B -0.815,C 3.602,S 6,T 27,E1 -25500,E2 0,E3 0,E4 0,E5 0,E6 0}
DECL E6POS XD_s06r10o_20={X -8069.4,Y 8549.25,Z 5459.76,A -30.117,B -1.632,C 3.312,S 6,T 27,E1 -25500,E2 0,E3 0,E4 0,E5 0,E6 0}
DECL E6POS XD_s06r10o_25={X -8001.86,Y 8510.27,Z 5460.57,A -30.117,B -1.632,C 3.312,S 6,T 27,E1 -25500,E2 0,E3 0,E4 0,E5 0,E6 0}
DECL E6POS XD_s06r10o_30={X -7987.91,Y 8504.47,Z 5460.77,A -15.63,B -2.382,C 2.918,S 6,T 27,E1 -25500,E2 0,E3 0,E4 0,E5 0,E6 0}
DECL E6POS XD_s06r10o_35={X -7971.78,Y 8502.22,Z 5461.06,A -1.629,B -3.017,C 2.255,S 6,T 27,E1 -25500,E2 0,E3 0,E4 0,E5 0,E6 0}
DECL E6POS XD_s06r10o_40={X -7957.22,Y 8502.1,Z 5461.35,A -1.629,B -3.017,C 2.255,S 6,T 27,E1 -25500,E2 0,E3 0,E4 0,E5 0,E6 0}
DECL E6POS Xp20_s06r10o={X -7952.19,Y 8504.1,Z 5361.59,A -1.629,B -3.017,C 2.255,S 6,T 27,E1 -25500,E2 0,E3 0,E4 0,E5 0,E6 0}
DECL E6POS Xp10_s05r14u={X -11080.7305,Y 10199.4297,Z 5312.49,A -19.127,B -2.234,C 2.94,S 2,T 42,E1 -18000,E2 0,E3 0,E4 0,E5 0,E6 0}
DECL E6POS XD_s05r14u_5={X -11086.0801,Y 10195.8604,Z 5412.29,A -19.127,B -2.234,C 2.94,S 2,T 42,E1 -18000,E2 0,E3 0,E4 0,E5 0,E6 0}
DECL E6POS XD_s05r14u_10={X -11074.1299,Y 10192.0801,Z 5412.62,A -14.629,B -2.458,C 2.756,S 2,T 42,E1 -18000,E2 0,E3 0,E4 0,E5 0,E6 0}
DECL E6POS XD_s05r14u_15={X -11061.79,Y 10189.1602,Z 5412.98,A -14.629,B -2.458,C 2.756,S 2,T 42,E1 -18000,E2 0,E3 0,E4 0,E5 0,E6 0}
DECL E6POS XD_s05r14u_20={X -11052.1299,Y 10186.5,Z 5413.26,A -20.627,B -2.157,C 2.998,S 2,T 42,E1 -18000,E2 0,E3 0,E4 0,E5 0,E6 0}
DECL E6POS XD_s05r14u_25={X -11042.8301,Y 10182.1504,Z 5413.46,A -28.619,B -1.719,C 3.269,S 2,T 42,E1 -18000,E2 0,E3 0,E4 0,E5 0,E6 0}
DECL E6POS XD_s05r14u_30={X -11000.25,Y 10157.5898,Z 5414.23,A -31.116,B -1.574,C 3.34,S 2,T 42,E1 -18000,E2 0,E3 0,E4 0,E5 0,E6 0}
DECL E6POS XD_s05r14u_35={X -10992,Y 10151.8604,Z 5414.34,A -39.461,B -0.629,C 4.214,S 2,T 42,E1 -18000,E2 0,E3 0,E4 0,E5 0,E6 0}
DECL E6POS XD_s05r14u_40={X -10984.7,Y 10144.7,Z 5414.37,A -46.442,B -0.112,C 4.259,S 2,T 42,E1 -18000,E2 0,E3 0,E4 0,E5 0,E6 0}
DECL E6POS XD_s05r14u_45={X -10976.4199,Y 10135.9,Z 5414.38,A -45.444,B -0.186,C 4.256,S 2,T 42,E1 -18000,E2 0,E3 0,E4 0,E5 0,E6 0}
DECL E6POS XD_s05r14u_50={X -10966.5303,Y 10126.8604,Z 5414.44,A -39.461,B -0.629,C 4.214,S 2,T 42,E1 -18000,E2 0,E3 0,E4 0,E5 0,E6 0}
DECL E6POS Xp20_s05r14u={X -10961.0195,Y 10131.8398,Z 5314.72,A -39.461,B -0.629,C 4.214,S 2,T 42,E1 -18000,E2 0,E3 0,E4 0,E5 0,E6 0}
DECL E6POS Xp10_s05r14o={X -11144.71,Y 10083.8203,Z 5305.43,A -45.093,B -0.72,C 3.622,S 6,T 27,E1 -22000,E2 0,E3 0,E4 0,E5 0,E6 0}
DECL E6POS XD_s05r14o_5={X -11150.0703,Y 10080.25,Z 5405.22,A -45.093,B -0.72,C 3.622,S 6,T 27,E1 -22000,E2 0,E3 0,E4 0,E5 0,E6 0}
DECL E6POS XD_s05r14o_10={X -11141.2598,Y 10071.2402,Z 5405.24,A -49.085,B -0.466,C 3.663,S 6,T 27,E1 -22000,E2 0,E3 0,E4 0,E5 0,E6 0}
DECL E6POS XD_s05r14o_15={X -11133.6201,Y 10061.9805,Z 5405.18,A -51.081,B -0.338,C 3.677,S 6,T 27,E1 -22000,E2 0,E3 0,E4 0,E5 0,E6 0}
DECL E6POS XD_s05r14o_20={X -11125.9697,Y 10053.6797,Z 5405.17,A -46.59,B -0.625,C 3.639,S 6,T 27,E1 -22000,E2 0,E3 0,E4 0,E5 0,E6 0}
DECL E6POS XD_s05r14o_25={X -11115.6797,Y 10046.1104,Z 5405.3,A -30.117,B -1.632,C 3.312,S 6,T 27,E1 -22000,E2 0,E3 0,E4 0,E5 0,E6 0}
DECL E6POS XD_s05r14o_30={X -11072.4297,Y 10021.1602,Z 5406.14,A -30.117,B -1.632,C 3.312,S 6,T 27,E1 -22000,E2 0,E3 0,E4 0,E5 0,E6 0}
DECL E6POS XD_s05r14o_35={X -11061.2197,Y 10016.1504,Z 5406.41,A -17.629,B -2.279,C 2.999,S 6,T 27,E1 -22000,E2 0,E3 0,E4 0,E5 0,E6 0}
DECL E6POS XD_s05r14o_40={X -11049.5596,Y 10013.5596,Z 5406.81,A -9.131,B -2.697,C 2.63,S 6,T 27,E1 -22000,E2 0,E3 0,E4 0,E5 0,E6 0}
DECL E6POS XD_s05r14o_45={X -11039.25,Y 10011.9297,Z 5407.19,A -11.131,B -2.604,C 2.722,S 6,T 27,E1 -22000,E2 0,E3 0,E4 0,E5 0,E6 0}
DECL E6POS XD_s05r14o_50={X -11025.1299,Y 10008.54,Z 5407.65,A -15.63,B -2.382,C 2.918,S 6,T 27,E1 -22000,E2 0,E3 0,E4 0,E5 0,E6 0}
DECL E6POS Xp20_s05r14o={X -11019.7598,Y 10012.3301,Z 5307.86,A -15.63,B -2.382,C 2.918,S 6,T 27,E1 -22000,E2 0,E3 0,E4 0,E5 0,E6 0}
DECL E6POS Xp10_s05r13u={X -10306.9502,Y 9753.9,Z 5326.23,A -18.628,B -2.26,C 2.921,S 2,T 42,E1 -19000,E2 0,E3 0,E4 0,E5 0,E6 0}
DECL E6POS XD_s05r13u_5={X -10312.3096,Y 9750.33,Z 5426.02,A -18.628,B -2.26,C 2.921,S 2,T 42,E1 -19000,E2 0,E3 0,E4 0,E5 0,E6 0}
DECL E6POS XD_s05r13u_10={X -10299.5098,Y 9746.63,Z 5426.35,A -14.629,B -2.458,C 2.756,S 2,T 42,E1 -19000,E2 0,E3 0,E4 0,E5 0,E6 0}
DECL E6POS XD_s05r13u_15={X -10285.6201,Y 9743.82,Z 5426.74,A -10.63,B -2.644,C 2.578,S 2,T 42,E1 -19000,E2 0,E3 0,E4 0,E5 0,E6 0}
DECL E6POS XD_s05r13u_20={X -10274.5195,Y 9741.09,Z 5427.03,A -19.127,B -2.234,C 2.94,S 2,T 42,E1 -19000,E2 0,E3 0,E4 0,E5 0,E6 0}
DECL E6POS XD_s05r13u_25={X -10264.1602,Y 9736.34,Z 5427.25,A -25.123,B -1.915,C 3.158,S 2,T 42,E1 -19000,E2 0,E3 0,E4 0,E5 0,E6 0}
DECL E6POS XD_s05r13u_30={X -10221.54,Y 9711.76,Z 5427.96,A -30.117,B -1.632,C 3.312,S 2,T 42,E1 -19000,E2 0,E3 0,E4 0,E5 0,E6 0}
DECL E6POS XD_s05r13u_35={X -10212.4297,Y 9705.3,Z 5428.09,A -41.455,B -0.482,C 4.233,S 2,T 42,E1 -19000,E2 0,E3 0,E4 0,E5 0,E6 0}
DECL E6POS XD_s05r13u_40={X -10204.5303,Y 9697.09,Z 5428.11,A -49.932,B 0.148,C 4.258,S 2,T 42,E1 -19000,E2 0,E3 0,E4 0,E5 0,E6 0}
DECL E6POS XD_s05r13u_45={X -10198.6797,Y 9690.2,Z 5428.12,A -48.935,B 0.074,C 4.26,S 2,T 42,E1 -19000,E2 0,E3 0,E4 0,E5 0,E6 0}
DECL E6POS XD_s05r13u_50={X -10190.7598,Y 9682.05,Z 5428.15,A -43.45,B -0.334,C 4.247,S 2,T 42,E1 -19000,E2 0,E3 0,E4 0,E5 0,E6 0}
DECL E6POS Xp20_s05r13u={X -10185.25,Y 9687.03,Z 5328.43,A -43.45,B -0.334,C 4.247,S 2,T 42,E1 -19000,E2 0,E3 0,E4 0,E5 0,E6 0}
DECL E6POS Xp10_s05r13o={X -10370.9,Y 9637.65,Z 5320.13,A -44.594,B -0.752,C 3.615,S 6,T 27,E1 -23000,E2 0,E3 0,E4 0,E5 0,E6 0}
DECL E6POS XD_s05r13o_5={X -10376.2598,Y 9634.07,Z 5419.92,A -44.594,B -0.752,C 3.615,S 6,T 27,E1 -23000,E2 0,E3 0,E4 0,E5 0,E6 0}
DECL E6POS XD_s05r13o_10={X -10367.8896,Y 9625.58,Z 5419.95,A -50.083,B -0.402,C 3.67,S 6,T 27,E1 -23000,E2 0,E3 0,E4 0,E5 0,E6 0}
DECL E6POS XD_s05r13o_15={X -10360.0098,Y 9616.09,Z 5419.92,A -52.075,B -0.181,C 3.762,S 6,T 27,E1 -23000,E2 0,E3 0,E4 0,E5 0,E6 0}
DECL E6POS XD_s05r13o_20={X -10352.0498,Y 9607.45,Z 5419.92,A -41.599,B -0.94,C 3.571,S 6,T 27,E1 -23000,E2 0,E3 0,E4 0,E5 0,E6 0}
DECL E6POS XD_s05r13o_25={X -10341.9697,Y 9600.1,Z 5420.05,A -30.117,B -1.632,C 3.312,S 6,T 27,E1 -23000,E2 0,E3 0,E4 0,E5 0,E6 0}
DECL E6POS XD_s05r13o_30={X -10299.3301,Y 9575.5,Z 5420.85,A -24.124,B -1.97,C 3.124,S 6,T 27,E1 -23000,E2 0,E3 0,E4 0,E5 0,E6 0}
DECL E6POS XD_s05r13o_35={X -10288.2305,Y 9570.52,Z 5421.1,A -18.628,B -2.227,C 3.038,S 6,T 27,E1 -23000,E2 0,E3 0,E4 0,E5 0,E6 0}
DECL E6POS XD_s05r13o_40={X -10276.46,Y 9567.91,Z 5421.46,A -9.131,B -2.697,C 2.63,S 6,T 27,E1 -23000,E2 0,E3 0,E4 0,E5 0,E6 0}
DECL E6POS XD_s05r13o_45={X -10265.3203,Y 9566.06,Z 5421.82,A -12.131,B -2.556,C 2.767,S 6,T 27,E1 -23000,E2 0,E3 0,E4 0,E5 0,E6 0}
DECL E6POS XD_s05r13o_50={X -10252.2598,Y 9562.9,Z 5422.21,A -13.631,B -2.483,C 2.833,S 6,T 27,E1 -23000,E2 0,E3 0,E4 0,E5 0,E6 0}
DECL E6POS Xp20_s05r13o={X -10246.8896,Y 9566.69,Z 5322.43,A -13.631,B -2.483,C 2.833,S 6,T 27,E1 -23000,E2 0,E3 0,E4 0,E5 0,E6 0}
DECL E6POS Xp10_s05r12u={X -9567.01,Y 9327.24,Z 5338.86,A -18.128,B -2.285,C 2.901,S 2,T 42,E1 -20000,E2 0,E3 0,E4 0,E5 0,E6 0}
DECL E6POS XD_s05r12u_5={X -9572.37,Y 9323.67,Z 5438.65,A -18.128,B -2.285,C 2.901,S 2,T 42,E1 -20000,E2 0,E3 0,E4 0,E5 0,E6 0}
DECL E6POS XD_s05r12u_10={X -9560.31,Y 9320.15,Z 5438.92,A -14.629,B -2.458,C 2.756,S 2,T 42,E1 -20000,E2 0,E3 0,E4 0,E5 0,E6 0}
DECL E6POS XD_s05r12u_15={X -9547.16,Y 9317.42,Z 5439.24,A -11.63,B -2.599,C 2.624,S 2,T 42,E1 -20000,E2 0,E3 0,E4 0,E5 0,E6 0}
DECL E6POS XD_s05r12u_20={X -9537.71,Y 9315.13,Z 5439.46,A -17.128,B -2.335,C 2.861,S 2,T 42,E1 -20000,E2 0,E3 0,E4 0,E5 0,E6 0}
DECL E6POS XD_s05r12u_25={X -9526.05,Y 9310.04,Z 5439.68,A -30.617,B -1.603,C 3.326,S 2,T 42,E1 -20000,E2 0,E3 0,E4 0,E5 0,E6 0}
DECL E6POS XD_s05r12u_30={X -9486.97,Y 9287.49,Z 5440.27,A -30.617,B -1.603,C 3.326,S 2,T 42,E1 -20000,E2 0,E3 0,E4 0,E5 0,E6 0}
DECL E6POS XD_s05r12u_35={X -9478.01,Y 9281.17,Z 5440.37,A -39.959,B -0.593,C 4.219,S 2,T 42,E1 -20000,E2 0,E3 0,E4 0,E5 0,E6 0}
DECL E6POS XD_s05r12u_40={X -9470.21,Y 9273.15,Z 5440.41,A -48.935,B 0.074,C 4.26,S 2,T 42,E1 -20000,E2 0,E3 0,E4 0,E5 0,E6 0}
DECL E6POS XD_s05r12u_45={X -9462.73,Y 9264.62,Z 5440.42,A -45.943,B -0.149,C 4.258,S 2,T 42,E1 -20000,E2 0,E3 0,E4 0,E5 0,E6 0}
DECL E6POS XD_s05r12u_50={X -9450.8,Y 9253.17,Z 5440.49,A -39.959,B -0.593,C 4.219,S 2,T 42,E1 -20000,E2 0,E3 0,E4 0,E5 0,E6 0}
DECL E6POS Xp20_s05r12u={X -9445.29,Y 9258.15,Z 5340.77,A -39.959,B -0.592,C 4.219,S 2,T 42,E1 -20000,E2 0,E3 0,E4 0,E5 0,E6 0}
DECL E6POS Xp10_s05r12o={X -9633.34,Y 9212.28,Z 5333.64,A -43.097,B -0.846,C 3.594,S 6,T 27,E1 -24000,E2 0,E3 0,E4 0,E5 0,E6 0}
DECL E6POS XD_s05r12o_5={X -9638.7,Y 9208.71,Z 5433.44,A -43.097,B -0.846,C 3.594,S 6,T 27,E1 -24000,E2 0,E3 0,E4 0,E5 0,E6 0}
DECL E6POS XD_s05r12o_10={X -9630.62,Y 9200.49,Z 5433.47,A -48.586,B -0.498,C 3.659,S 6,T 27,E1 -24000,E2 0,E3 0,E4 0,E5 0,E6 0}
DECL E6POS XD_s05r12o_15={X -9623.51,Y 9192.06,Z 5433.46,A -51.58,B -0.306,C 3.68,S 6,T 27,E1 -24000,E2 0,E3 0,E4 0,E5 0,E6 0}
DECL E6POS XD_s05r12o_20={X -9615.47,Y 9183.51,Z 5433.47,A -40.601,B -1.002,C 3.554,S 6,T 27,E1 -24000,E2 0,E3 0,E4 0,E5 0,E6 0}
DECL E6POS XD_s05r12o_25={X -9605.99,Y 9176.73,Z 5433.59,A -30.117,B -1.632,C 3.312,S 6,T 27,E1 -24000,E2 0,E3 0,E4 0,E5 0,E6 0}
DECL E6POS XD_s05r12o_30={X -9561.58,Y 9151.11,Z 5434.32,A -30.117,B -1.632,C 3.312,S 6,T 27,E1 -24000,E2 0,E3 0,E4 0,E5 0,E6 0}
DECL E6POS XD_s05r12o_35={X -9550.75,Y 9146.22,Z 5434.53,A -18.628,B -2.227,C 3.038,S 6,T 27,E1 -24000,E2 0,E3 0,E4 0,E5 0,E6 0}
DECL E6POS XD_s05r12o_40={X -9539.46,Y 9143.6,Z 5434.84,A -10.131,B -2.651,C 2.676,S 6,T 27,E1 -24000,E2 0,E3 0,E4 0,E5 0,E6 0}
DECL E6POS XD_s05r12o_45={X -9527.58,Y 9141.47,Z 5435.17,A -13.131,B -2.507,C 2.811,S 6,T 27,E1 -24000,E2 0,E3 0,E4 0,E5 0,E6 0}
DECL E6POS XD_s05r12o_50={X -9516.68,Y 9138.67,Z 5435.44,A -15.13,B -2.408,C 2.897,S 6,T 27,E1 -24000,E2 0,E3 0,E4 0,E5 0,E6 0}
DECL E6POS Xp20_s05r12o={X -9511.31,Y 9142.45,Z 5335.66,A -15.13,B -2.408,C 2.897,S 6,T 27,E1 -24000,E2 0,E3 0,E4 0,E5 0,E6 0}
DECL E6POS Xp10_s05r11u={X -8829.96,Y 8902.74,Z 5348.84,A -15.629,B -2.409,C 2.799,S 2,T 42,E1 -20500,E2 0,E3 0,E4 0,E5 0,E6 0}
DECL E6POS XD_s05r11u_5={X -8835.32,Y 8899.16,Z 5448.63,A -15.629,B -2.409,C 2.799,S 2,T 42,E1 -20500,E2 0,E3 0,E4 0,E5 0,E6 0}
DECL E6POS XD_s05r11u_10={X -8823.22,Y 8895.84,Z 5448.86,A -14.629,B -2.458,C 2.756,S 2,T 42,E1 -20500,E2 0,E3 0,E4 0,E5 0,E6 0}
DECL E6POS XD_s05r11u_15={X -8811.29,Y 8893.54,Z 5449.11,A -10.63,B -2.644,C 2.578,S 2,T 42,E1 -20500,E2 0,E3 0,E4 0,E5 0,E6 0}
DECL E6POS XD_s05r11u_20={X -8800.96,Y 8890.93,Z 5449.31,A -18.128,B -2.285,C 2.901,S 2,T 42,E1 -20500,E2 0,E3 0,E4 0,E5 0,E6 0}
DECL E6POS XD_s05r11u_25={X -8789.92,Y 8886.13,Z 5449.49,A -29.119,B -1.69,C 3.283,S 2,T 42,E1 -20500,E2 0,E3 0,E4 0,E5 0,E6 0}
DECL E6POS XD_s05r11u_30={X -8749.7,Y 8862.92,Z 5450.01,A -30.617,B -1.603,C 3.326,S 2,T 42,E1 -20500,E2 0,E3 0,E4 0,E5 0,E6 0}
DECL E6POS XD_s05r11u_35={X -8740.54,Y 8856.42,Z 5450.1,A -41.954,B -0.445,C 4.237,S 2,T 42,E1 -20500,E2 0,E3 0,E4 0,E5 0,E6 0}
DECL E6POS XD_s05r11u_40={X -8732.61,Y 8848.16,Z 5450.13,A -49.433,B 0.111,C 4.259,S 2,T 42,E1 -20500,E2 0,E3 0,E4 0,E5 0,E6 0}
DECL E6POS XD_s05r11u_45={X -8724.07,Y 8838.38,Z 5450.14,A -46.442,B -0.112,C 4.259,S 2,T 42,E1 -20500,E2 0,E3 0,E4 0,E5 0,E6 0}
DECL E6POS XD_s05r11u_50={X -8715.08,Y 8829.59,Z 5450.19,A -43.948,B -0.297,C 4.25,S 2,T 42,E1 -20500,E2 0,E3 0,E4 0,E5 0,E6 0}
DECL E6POS Xp20_s05r11u={X -8709.57,Y 8834.57,Z 5350.46,A -43.948,B -0.297,C 4.25,S 2,T 42,E1 -20500,E2 0,E3 0,E4 0,E5 0,E6 0}
DECL E6POS Xp10_s05r11o={X -8897.03,Y 8787.75,Z 5344.35,A -45.093,B -0.72,C 3.622,S 6,T 27,E1 -24500,E2 0,E3 0,E4 0,E5 0,E6 0}
DECL E6POS XD_s05r11o_5={X -8902.39,Y 8784.18,Z 5444.14,A -45.093,B -0.72,C 3.622,S 6,T 27,E1 -24500,E2 0,E3 0,E4 0,E5 0,E6 0}
DECL E6POS XD_s05r11o_10={X -8894.21,Y 8775.96,Z 5444.17,A -49.584,B -0.434,C 3.667,S 6,T 27,E1 -24500,E2 0,E3 0,E4 0,E5 0,E6 0}
DECL E6POS XD_s05r11o_15={X -8886.47,Y 8766.78,Z 5444.16,A -51.077,B -0.247,C 3.758,S 6,T 27,E1 -24500,E2 0,E3 0,E4 0,E5 0,E6 0}
DECL E6POS XD_s05r11o_20={X -8878.26,Y 8758.03,Z 5444.16,A -41.599,B -0.94,C 3.571,S 6,T 27,E1 -24500,E2 0,E3 0,E4 0,E5 0,E6 0}
DECL E6POS XD_s05r11o_25={X -8868.79,Y 8751.26,Z 5444.26,A -30.117,B -1.632,C 3.312,S 6,T 27,E1 -24500,E2 0,E3 0,E4 0,E5 0,E6 0}
DECL E6POS XD_s05r11o_30={X -8824.87,Y 8725.91,Z 5444.87,A -29.618,B -1.661,C 3.298,S 6,T 27,E1 -24500,E2 0,E3 0,E4 0,E5 0,E6 0}
DECL E6POS XD_s05r11o_35={X -8814,Y 8721.01,Z 5445.05,A -19.128,B -2.2,C 3.058,S 6,T 27,E1 -24500,E2 0,E3 0,E4 0,E5 0,E6 0}
DECL E6POS XD_s05r11o_40={X -8802.7,Y 8718.4,Z 5445.31,A -9.131,B -2.697,C 2.63,S 6,T 27,E1 -24500,E2 0,E3 0,E4 0,E5 0,E6 0}
DECL E6POS XD_s05r11o_45={X -8792.85,Y 8716.77,Z 5445.55,A -11.131,B -2.604,C 2.722,S 6,T 27,E1 -24500,E2 0,E3 0,E4 0,E5 0,E6 0}
DECL E6POS XD_s05r11o_50={X -8783.57,Y 8714.62,Z 5445.75,A -15.13,B -2.408,C 2.897,S 6,T 27,E1 -24500,E2 0,E3 0,E4 0,E5 0,E6 0}
DECL E6POS Xp20_s05r11o={X -8778.2,Y 8718.41,Z 5345.97,A -15.13,B -2.408,C 2.897,S 6,T 27,E1 -24500,E2 0,E3 0,E4 0,E5 0,E6 0}
DECL E6POS Xp10_s05r10u={X -8142.45,Y 8521.34,Z 5357.02,A -0.125,B -3.07,C 2.053,S 2,T 42,E1 -21700,E2 0,E3 0,E4 0,E5 0,E6 0}
DECL E6POS XD_s05r10u_5={X -8147.31,Y 8519.61,Z 5456.59,A -0.125,B -3.07,C 2.053,S 2,T 42,E1 -21700,E2 0,E3 0,E4 0,E5 0,E6 0}
DECL E6POS XD_s05r10u_10={X -8120.14,Y 8519.53,Z 5457.19,A -1.126,B -3.033,C 2.106,S 2,T 42,E1 -21700,E2 0,E3 0,E4 0,E5 0,E6 0}
DECL E6POS XD_s05r10u_15={X -8104.27,Y 8517.34,Z 5457.5,A -15.129,B -2.434,C 2.778,S 2,T 42,E1 -21700,E2 0,E3 0,E4 0,E5 0,E6 0}
DECL E6POS XD_s05r10u_20={X -8090.31,Y 8511.57,Z 5457.71,A -33.113,B -1.457,C 3.393,S 2,T 42,E1 -21700,E2 0,E3 0,E4 0,E5 0,E6 0}
DECL E6POS XD_s05r10u_25={X -8022.27,Y 8472.33,Z 5458.54,A -33.113,B -1.457,C 3.393,S 2,T 42,E1 -21700,E2 0,E3 0,E4 0,E5 0,E6 0}
DECL E6POS XD_s05r10u_30={X -8009.45,Y 8462.43,Z 5458.66,A -44.447,B -0.26,C 4.253,S 2,T 42,E1 -21700,E2 0,E3 0,E4 0,E5 0,E6 0}
DECL E6POS XD_s05r10u_35={X -8000.1,Y 8450.21,Z 5458.66,A -56.414,B 0.629,C 4.214,S 2,T 42,E1 -21700,E2 0,E3 0,E4 0,E5 0,E6 0}
DECL E6POS XD_s05r10u_40={X -7987.47,Y 8428.41,Z 5458.58,A -58.409,B 0.776,C 4.189,S 2,T 42,E1 -21700,E2 0,E3 0,E4 0,E5 0,E6 0}
DECL E6POS Xp20_s05r10u={X -7983.38,Y 8432.62,Z 5359.07,A -58.409,B 0.776,C 4.189,S 2,T 42,E1 -21700,E2 0,E3 0,E4 0,E5 0,E6 0}
DECL E6POS Xp10_s05r10o={X -8230.41,Y 8373.46,Z 5351.57,A -61.559,B 0.337,C 3.677,S 6,T 27,E1 -25500,E2 0,E3 0,E4 0,E5 0,E6 0}
DECL E6POS XD_s05r10o_5={X -8234.41,Y 8371.24,Z 5451.35,A -61.559,B 0.337,C 3.677,S 6,T 27,E1 -25500,E2 0,E3 0,E4 0,E5 0,E6 0}
DECL E6POS XD_s05r10o_10={X -8220.65,Y 8347.42,Z 5451.14,A -58.566,B 0.145,C 3.69,S 6,T 27,E1 -25500,E2 0,E3 0,E4 0,E5 0,E6 0}
DECL E6POS XD_s05r10o_15={X -8210.99,Y 8334.88,Z 5451.09,A -46.59,B -0.625,C 3.639,S 6,T 27,E1 -25500,E2 0,E3 0,E4 0,E5 0,E6 0}
DECL E6POS XD_s05r10o_20={X -8198.62,Y 8325.41,Z 5451.2,A -30.117,B -1.632,C 3.312,S 6,T 27,E1 -25500,E2 0,E3 0,E4 0,E5 0,E6 0}
DECL E6POS XD_s05r10o_25={X -8127.37,Y 8284.3,Z 5452.14,A -30.117,B -1.632,C 3.312,S 6,T 27,E1 -25500,E2 0,E3 0,E4 0,E5 0,E6 0}
DECL E6POS XD_s05r10o_30={X -8114.04,Y 8278.68,Z 5452.36,A -15.63,B -2.382,C 2.918,S 6,T 27,E1 -25500,E2 0,E3 0,E4 0,E5 0,E6 0}
DECL E6POS XD_s05r10o_35={X -8097.29,Y 8276.3,Z 5452.76,A -1.629,B -3.017,C 2.255,S 6,T 27,E1 -25500,E2 0,E3 0,E4 0,E5 0,E6 0}
DECL E6POS XD_s05r10o_40={X -8074.52,Y 8276.3,Z 5453.37,A -1.629,B -3.017,C 2.255,S 6,T 27,E1 -25500,E2 0,E3 0,E4 0,E5 0,E6 0}
DECL E6POS Xp20_s05r10o={X -8069.64,Y 8278.52,Z 5353.62,A -1.629,B -3.017,C 2.255,S 6,T 27,E1 -25500,E2 0,E3 0,E4 0,E5 0,E6 0}
DECL E6POS Xp10_s04r14u={X -11190.0498,Y 9984.9,Z 5299.55,A -18.128,B -2.285,C 2.901,S 2,T 42,E1 -18000,E2 0,E3 0,E4 0,E5 0,E6 0}
DECL E6POS XD_s04r14u_5={X -11195.4102,Y 9981.33,Z 5399.35,A -18.128,B -2.285,C 2.901,S 2,T 42,E1 -18000,E2 0,E3 0,E4 0,E5 0,E6 0}
DECL E6POS XD_s04r14u_10={X -11183.4805,Y 9977.81,Z 5399.74,A -15.129,B -2.434,C 2.778,S 2,T 42,E1 -18000,E2 0,E3 0,E4 0,E5 0,E6 0}
DECL E6POS XD_s04r14u_15={X -11170.29,Y 9975.01,Z 5400.23,A -10.13,B -2.667,C 2.555,S 2,T 42,E1 -18000,E2 0,E3 0,E4 0,E5 0,E6 0}
DECL E6POS XD_s04r14u_20={X -11159.7,Y 9972.33,Z 5400.6,A -20.127,B -2.183,C 2.979,S 2,T 42,E1 -18000,E2 0,E3 0,E4 0,E5 0,E6 0}
DECL E6POS XD_s04r14u_25={X -11149.6299,Y 9967.71,Z 5400.86,A -31.116,B -1.574,C 3.34,S 2,T 42,E1 -18000,E2 0,E3 0,E4 0,E5 0,E6 0}
DECL E6POS XD_s04r14u_30={X -11107.3096,Y 9943.3,Z 5401.72,A -31.116,B -1.574,C 3.34,S 2,T 42,E1 -18000,E2 0,E3 0,E4 0,E5 0,E6 0}
DECL E6POS XD_s04r14u_35={X -11098.46,Y 9937.07,Z 5401.85,A -40.458,B -0.556,C 4.224,S 2,T 42,E1 -18000,E2 0,E3 0,E4 0,E5 0,E6 0}
DECL E6POS XD_s04r14u_40={X -11090.7305,Y 9929.19,Z 5401.85,A -48.935,B 0.074,C 4.26,S 2,T 42,E1 -18000,E2 0,E3 0,E4 0,E5 0,E6 0}
DECL E6POS XD_s04r14u_45={X -11082.4102,Y 9919.89,Z 5401.82,A -46.94,B -0.074,C 4.26,S 2,T 42,E1 -18000,E2 0,E3 0,E4 0,E5 0,E6 0}
DECL E6POS XD_s04r14u_50={X -11071.5,Y 9909.55,Z 5401.85,A -38.463,B -0.703,C 4.202,S 2,T 42,E1 -18000,E2 0,E3 0,E4 0,E5 0,E6 0}
DECL E6POS Xp20_s04r14u={X -11065.9805,Y 9914.53,Z 5302.13,A -38.463,B -0.703,C 4.202,S 2,T 42,E1 -18000,E2 0,E3 0,E4 0,E5 0,E6 0}
DECL E6POS Xp10_s04r14o={X -11252.1602,Y 9863.52,Z 5290.41,A -48.586,B -0.498,C 3.659,S 6,T 27,E1 -22000,E2 0,E3 0,E4 0,E5 0,E6 0}
DECL E6POS XD_s04r14o_5={X -11257.5098,Y 9859.95,Z 5390.2,A -48.586,B -0.498,C 3.659,S 6,T 27,E1 -22000,E2 0,E3 0,E4 0,E5 0,E6 0}
DECL E6POS XD_s04r14o_10={X -11249.9199,Y 9850.65,Z 5390.11,A -52.079,B -0.274,C 3.682,S 6,T 27,E1 -22000,E2 0,E3 0,E4 0,E5 0,E6 0}
DECL E6POS XD_s04r14o_15={X -11238.29,Y 9836.63,Z 5389.97,A -44.594,B -0.752,C 3.615,S 6,T 27,E1 -22000,E2 0,E3 0,E4 0,E5 0,E6 0}
DECL E6POS XD_s04r14o_20={X -11227.2402,Y 9828.23,Z 5390.1,A -30.117,B -1.632,C 3.312,S 6,T 27,E1 -22000,E2 0,E3 0,E4 0,E5 0,E6 0}
DECL E6POS XD_s04r14o_25={X -11180.8799,Y 9801.49,Z 5391.12,A -30.117,B -1.632,C 3.312,S 6,T 27,E1 -22000,E2 0,E3 0,E4 0,E5 0,E6 0}
DECL E6POS XD_s04r14o_30={X -11168.5195,Y 9796.11,Z 5391.48,A -17.129,B -2.305,C 2.979,S 6,T 27,E1 -22000,E2 0,E3 0,E4 0,E5 0,E6 0}
DECL E6POS XD_s04r14o_35={X -11151.6797,Y 9793.25,Z 5392.21,A -7.131,B -2.787,C 2.534,S 6,T 27,E1 -22000,E2 0,E3 0,E4 0,E5 0,E6 0}
DECL E6POS XD_s04r14o_40={X -11136.3701,Y 9790.77,Z 5392.88,A -11.131,B -2.604,C 2.722,S 6,T 27,E1 -22000,E2 0,E3 0,E4 0,E5 0,E6 0}
DECL E6POS Xp20_s04r14o={X -11131,Y 9794.55,Z 5293.09,A -11.131,B -2.604,C 2.722,S 6,T 27,E1 -22000,E2 0,E3 0,E4 0,E5 0,E6 0}
DECL E6POS Xp10_s04r13u={X -10424.2598,Y 9543.8,Z 5314.94,A -15.129,B -2.434,C 2.778,S 2,T 42,E1 -19000,E2 0,E3 0,E4 0,E5 0,E6 0}
DECL E6POS XD_s04r13u_5={X -10429.6201,Y 9540.24,Z 5414.73,A -15.129,B -2.434,C 2.778,S 2,T 42,E1 -19000,E2 0,E3 0,E4 0,E5 0,E6 0}
DECL E6POS XD_s04r13u_10={X -10418.2305,Y 9536.98,Z 5415.09,A -13.13,B -2.529,C 2.691,S 2,T 42,E1 -19000,E2 0,E3 0,E4 0,E5 0,E6 0}
DECL E6POS XD_s04r13u_15={X -10405.46,Y 9534.37,Z 5415.53,A -11.13,B -2.622,C 2.601,S 2,T 42,E1 -19000,E2 0,E3 0,E4 0,E5 0,E6 0}
DECL E6POS XD_s04r13u_20={X -10394.1904,Y 9531.62,Z 5415.89,A -19.627,B -2.208,C 2.96,S 2,T 42,E1 -19000,E2 0,E3 0,E4 0,E5 0,E6 0}
DECL E6POS XD_s04r13u_25={X -10383.8896,Y 9526.91,Z 5416.14,A -30.117,B -1.632,C 3.312,S 2,T 42,E1 -19000,E2 0,E3 0,E4 0,E5 0,E6 0}
DECL E6POS XD_s04r13u_30={X -10340.9902,Y 9502.17,Z 5416.97,A -31.615,B -1.545,C 3.354,S 2,T 42,E1 -19000,E2 0,E3 0,E4 0,E5 0,E6 0}
DECL E6POS XD_s04r13u_35={X -10331.9502,Y 9495.78,Z 5417.1,A -42.453,B -0.408,C 4.241,S 2,T 42,E1 -19000,E2 0,E3 0,E4 0,E5 0,E6 0}
DECL E6POS XD_s04r13u_40={X -10324.1,Y 9487.67,Z 5417.11,A -49.433,B 0.111,C 4.259,S 2,T 42,E1 -19000,E2 0,E3 0,E4 0,E5 0,E6 0}
DECL E6POS XD_s04r13u_45={X -10317.9,Y 9480.42,Z 5417.09,A -47.439,B -0.037,C 4.26,S 2,T 42,E1 -19000,E2 0,E3 0,E4 0,E5 0,E6 0}
DECL E6POS XD_s04r13u_50={X -10307.5195,Y 9470.17,Z 5417.13,A -42.951,B -0.371,C 4.244,S 2,T 42,E1 -19000,E2 0,E3 0,E4 0,E5 0,E6 0}
DECL E6POS Xp20_s04r13u={X -10302,Y 9475.15,Z 5317.4,A -42.951,B -0.371,C 4.244,S 2,T 42,E1 -19000,E2 0,E3 0,E4 0,E5 0,E6 0}
DECL E6POS Xp10_s04r13o={X -10490.7,Y 9428.78,Z 5306.98,A -44.594,B -0.752,C 3.615,S 6,T 27,E1 -23000,E2 0,E3 0,E4 0,E5 0,E6 0}
DECL E6POS XD_s04r13o_5={X -10496.0596,Y 9425.21,Z 5406.77,A -44.594,B -0.752,C 3.615,S 6,T 27,E1 -23000,E2 0,E3 0,E4 0,E5 0,E6 0}
DECL E6POS XD_s04r13o_10={X -10486.6,Y 9415.59,Z 5406.78,A -50.083,B -0.402,C 3.67,S 6,T 27,E1 -23000,E2 0,E3 0,E4 0,E5 0,E6 0}
DECL E6POS XD_s04r13o_15={X -10478.96,Y 9406.39,Z 5406.71,A -50.083,B -0.402,C 3.67,S 6,T 27,E1 -23000,E2 0,E3 0,E4 0,E5 0,E6 0}
DECL E6POS XD_s04r13o_20={X -10471.5596,Y 9398.36,Z 5406.7,A -44.594,B -0.752,C 3.615,S 6,T 27,E1 -23000,E2 0,E3 0,E4 0,E5 0,E6 0}
DECL E6POS XD_s04r13o_25={X -10461.0801,Y 9390.6,Z 5406.83,A -30.117,B -1.632,C 3.312,S 6,T 27,E1 -23000,E2 0,E3 0,E4 0,E5 0,E6 0}
DECL E6POS XD_s04r13o_30={X -10419.2,Y 9366.45,Z 5407.71,A -28.619,B -1.719,C 3.269,S 6,T 27,E1 -23000,E2 0,E3 0,E4 0,E5 0,E6 0}
DECL E6POS XD_s04r13o_35={X -10408.0596,Y 9361.45,Z 5408.01,A -19.627,B -2.173,C 3.077,S 6,T 27,E1 -23000,E2 0,E3 0,E4 0,E5 0,E6 0}
DECL E6POS XD_s04r13o_40={X -10396.4199,Y 9358.85,Z 5408.45,A -9.131,B -2.697,C 2.63,S 6,T 27,E1 -23000,E2 0,E3 0,E4 0,E5 0,E6 0}
DECL E6POS XD_s04r13o_45={X -10386,Y 9357.17,Z 5408.86,A -12.131,B -2.556,C 2.767,S 6,T 27,E1 -23000,E2 0,E3 0,E4 0,E5 0,E6 0}
DECL E6POS XD_s04r13o_50={X -10372.1396,Y 9353.82,Z 5409.36,A -14.13,B -2.458,C 2.855,S 6,T 27,E1 -23000,E2 0,E3 0,E4 0,E5 0,E6 0}
DECL E6POS Xp20_s04r13o={X -10366.7695,Y 9357.6,Z 5309.57,A -14.13,B -2.458,C 2.854,S 6,T 27,E1 -23000,E2 0,E3 0,E4 0,E5 0,E6 0}
DECL E6POS Xp10_s04r12u={X -9688.16,Y 9118.73,Z 5328.69,A -16.129,B -2.385,C 2.82,S 2,T 42,E1 -20000,E2 0,E3 0,E4 0,E5 0,E6 0}
DECL E6POS XD_s04r12u_5={X -9693.52,Y 9115.16,Z 5428.48,A -16.129,B -2.385,C 2.82,S 2,T 42,E1 -20000,E2 0,E3 0,E4 0,E5 0,E6 0}
DECL E6POS XD_s04r12u_10={X -9681.51,Y 9111.58,Z 5428.81,A -14.629,B -2.458,C 2.756,S 2,T 42,E1 -20000,E2 0,E3 0,E4 0,E5 0,E6 0}
DECL E6POS XD_s04r12u_15={X -9666.62,Y 9108.47,Z 5429.25,A -10.63,B -2.644,C 2.578,S 2,T 42,E1 -20000,E2 0,E3 0,E4 0,E5 0,E6 0}
DECL E6POS XD_s04r12u_20={X -9656.65,Y 9106.05,Z 5429.54,A -16.629,B -2.36,C 2.84,S 2,T 42,E1 -20000,E2 0,E3 0,E4 0,E5 0,E6 0}
DECL E6POS XD_s04r12u_25={X -9645.25,Y 9101.01,Z 5429.79,A -25.622,B -1.887,C 3.174,S 2,T 42,E1 -20000,E2 0,E3 0,E4 0,E5 0,E6 0}
DECL E6POS XD_s04r12u_30={X -9606.16,Y 9078.47,Z 5430.46,A -30.617,B -1.603,C 3.326,S 2,T 42,E1 -20000,E2 0,E3 0,E4 0,E5 0,E6 0}
DECL E6POS XD_s04r12u_35={X -9597.12,Y 9072.07,Z 5430.58,A -42.951,B -0.371,C 4.244,S 2,T 42,E1 -20000,E2 0,E3 0,E4 0,E5 0,E6 0}
DECL E6POS XD_s04r12u_40={X -9589.26,Y 9063.95,Z 5430.59,A -48.935,B 0.074,C 4.26,S 2,T 42,E1 -20000,E2 0,E3 0,E4 0,E5 0,E6 0}
DECL E6POS XD_s04r12u_45={X -9580.53,Y 9054.07,Z 5430.58,A -45.943,B -0.149,C 4.258,S 2,T 42,E1 -20000,E2 0,E3 0,E4 0,E5 0,E6 0}
DECL E6POS XD_s04r12u_50={X -9569.71,Y 9043.72,Z 5430.63,A -40.458,B -0.556,C 4.224,S 2,T 42,E1 -20000,E2 0,E3 0,E4 0,E5 0,E6 0}
DECL E6POS Xp20_s04r12u={X -9564.19,Y 9048.69,Z 5330.9,A -40.458,B -0.556,C 4.224,S 2,T 42,E1 -20000,E2 0,E3 0,E4 0,E5 0,E6 0}
DECL E6POS Xp10_s04r12o={X -9752.99,Y 9002.2,Z 5321.73,A -43.097,B -0.846,C 3.594,S 6,T 27,E1 -24000,E2 0,E3 0,E4 0,E5 0,E6 0}
DECL E6POS XD_s04r12o_5={X -9758.35,Y 8998.63,Z 5421.53,A -43.097,B -0.846,C 3.594,S 6,T 27,E1 -24000,E2 0,E3 0,E4 0,E5 0,E6 0}
DECL E6POS XD_s04r12o_10={X -9751.67,Y 8991.7,Z 5421.53,A -49.085,B -0.466,C 3.663,S 6,T 27,E1 -24000,E2 0,E3 0,E4 0,E5 0,E6 0}
DECL E6POS XD_s04r12o_15={X -9744.06,Y 8982.45,Z 5421.48,A -51.081,B -0.338,C 3.677,S 6,T 27,E1 -24000,E2 0,E3 0,E4 0,E5 0,E6 0}
DECL E6POS XD_s04r12o_20={X -9736.07,Y 8973.75,Z 5421.46,A -42.598,B -0.877,C 3.587,S 6,T 27,E1 -24000,E2 0,E3 0,E4 0,E5 0,E6 0}
DECL E6POS XD_s04r12o_25={X -9725.95,Y 8966.36,Z 5421.59,A -30.117,B -1.632,C 3.312,S 6,T 27,E1 -24000,E2 0,E3 0,E4 0,E5 0,E6 0}
DECL E6POS XD_s04r12o_30={X -9681.58,Y 8940.77,Z 5422.42,A -30.117,B -1.632,C 3.312,S 6,T 27,E1 -24000,E2 0,E3 0,E4 0,E5 0,E6 0}
DECL E6POS XD_s04r12o_35={X -9670.32,Y 8935.73,Z 5422.69,A -18.129,B -2.253,C 3.019,S 6,T 27,E1 -24000,E2 0,E3 0,E4 0,E5 0,E6 0}
DECL E6POS XD_s04r12o_40={X -9658.62,Y 8933.15,Z 5423.08,A -8.631,B -2.72,C 2.606,S 6,T 27,E1 -24000,E2 0,E3 0,E4 0,E5 0,E6 0}
DECL E6POS XD_s04r12o_45={X -9647.76,Y 8931.41,Z 5423.46,A -11.631,B -2.58,C 2.745,S 6,T 27,E1 -24000,E2 0,E3 0,E4 0,E5 0,E6 0}
DECL E6POS XD_s04r12o_50={X -9637.93,Y 8929.07,Z 5423.77,A -12.631,B -2.532,C 2.789,S 6,T 27,E1 -24000,E2 0,E3 0,E4 0,E5 0,E6 0}
DECL E6POS Xp20_s04r12o={X -9632.56,Y 8932.85,Z 5323.99,A -12.631,B -2.532,C 2.789,S 6,T 27,E1 -24000,E2 0,E3 0,E4 0,E5 0,E6 0}
DECL E6POS Xp10_s04r11u={X -8950.59,Y 8693.58,Z 5340.08,A -17.628,B -2.31,C 2.881,S 2,T 42,E1 -20500,E2 0,E3 0,E4 0,E5 0,E6 0}
DECL E6POS XD_s04r11u_5={X -8955.95,Y 8690.01,Z 5439.87,A -17.628,B -2.31,C 2.881,S 2,T 42,E1 -20500,E2 0,E3 0,E4 0,E5 0,E6 0}
DECL E6POS XD_s04r11u_10={X -8942.9,Y 8686.25,Z 5440.17,A -15.129,B -2.434,C 2.778,S 2,T 42,E1 -20500,E2 0,E3 0,E4 0,E5 0,E6 0}
DECL E6POS XD_s04r11u_15={X -8930.4,Y 8683.7,Z 5440.5,A -10.514,B -2.592,C 3.382,S 2,T 42,E1 -20500,E2 0,E3 0,E4 0,E5 0,E6 0}
DECL E6POS XD_s04r11u_20={X -8920.36,Y 8681.22,Z 5440.74,A -18.628,B -2.26,C 2.921,S 2,T 42,E1 -20500,E2 0,E3 0,E4 0,E5 0,E6 0}
DECL E6POS XD_s04r11u_25={X -8909.55,Y 8676.37,Z 5440.93,A -29.618,B -1.661,C 3.298,S 2,T 42,E1 -20500,E2 0,E3 0,E4 0,E5 0,E6 0}
DECL E6POS XD_s04r11u_30={X -8869.35,Y 8653.17,Z 5441.51,A -31.116,B -1.574,C 3.34,S 2,T 42,E1 -20500,E2 0,E3 0,E4 0,E5 0,E6 0}
DECL E6POS XD_s04r11u_35={X -8860.44,Y 8646.77,Z 5441.6,A -41.455,B -0.482,C 4.233,S 2,T 42,E1 -20500,E2 0,E3 0,E4 0,E5 0,E6 0}
DECL E6POS XD_s04r11u_40={X -8852.57,Y 8638.8,Z 5441.61,A -47.937,B 0,C 4.26,S 2,T 42,E1 -20500,E2 0,E3 0,E4 0,E5 0,E6 0}
DECL E6POS XD_s04r11u_45={X -8844.04,Y 8629.19,Z 5441.6,A -45.943,B -0.149,C 4.258,S 2,T 42,E1 -20500,E2 0,E3 0,E4 0,E5 0,E6 0}
DECL E6POS XD_s04r11u_50={X -8833.14,Y 8618.78,Z 5441.63,A -41.455,B -0.482,C 4.233,S 2,T 42,E1 -20500,E2 0,E3 0,E4 0,E5 0,E6 0}
DECL E6POS Xp20_s04r11u={X -8827.62,Y 8623.76,Z 5341.91,A -41.455,B -0.482,C 4.233,S 2,T 42,E1 -20500,E2 0,E3 0,E4 0,E5 0,E6 0}
DECL E6POS Xp10_s04r11o={X -9016,Y 8576.88,Z 5333.96,A -46.091,B -0.657,C 3.634,S 6,T 27,E1 -24500,E2 0,E3 0,E4 0,E5 0,E6 0}
DECL E6POS XD_s04r11o_5={X -9021.36,Y 8573.3,Z 5433.75,A -46.091,B -0.657,C 3.634,S 6,T 27,E1 -24500,E2 0,E3 0,E4 0,E5 0,E6 0}
DECL E6POS XD_s04r11o_10={X -9014.85,Y 8566.08,Z 5433.73,A -49.085,B -0.466,C 3.663,S 6,T 27,E1 -24500,E2 0,E3 0,E4 0,E5 0,E6 0}
DECL E6POS XD_s04r11o_15={X -9007.8,Y 8557.5,Z 5433.68,A -51.081,B -0.338,C 3.677,S 6,T 27,E1 -24500,E2 0,E3 0,E4 0,E5 0,E6 0}
DECL E6POS XD_s04r11o_20={X -8999.84,Y 8548.68,Z 5433.65,A -44.594,B -0.752,C 3.615,S 6,T 27,E1 -24500,E2 0,E3 0,E4 0,E5 0,E6 0}
DECL E6POS XD_s04r11o_25={X -8989.35,Y 8540.98,Z 5433.75,A -30.117,B -1.632,C 3.312,S 6,T 27,E1 -24500,E2 0,E3 0,E4 0,E5 0,E6 0}
DECL E6POS XD_s04r11o_30={X -8944.93,Y 8515.35,Z 5434.44,A -30.117,B -1.632,C 3.312,S 6,T 27,E1 -24500,E2 0,E3 0,E4 0,E5 0,E6 0}
DECL E6POS XD_s04r11o_35={X -8933.51,Y 8510.26,Z 5434.67,A -18.129,B -2.253,C 3.019,S 6,T 27,E1 -24500,E2 0,E3 0,E4 0,E5 0,E6 0}
DECL E6POS XD_s04r11o_40={X -8921.63,Y 8507.69,Z 5435.01,A -9.131,B -2.697,C 2.63,S 6,T 27,E1 -24500,E2 0,E3 0,E4 0,E5 0,E6 0}
DECL E6POS XD_s04r11o_45={X -8911.12,Y 8506.1,Z 5435.33,A -11.131,B -2.604,C 2.722,S 6,T 27,E1 -24500,E2 0,E3 0,E4 0,E5 0,E6 0}
DECL E6POS XD_s04r11o_50={X -8901.57,Y 8503.86,Z 5435.58,A -13.631,B -2.483,C 2.833,S 6,T 27,E1 -24500,E2 0,E3 0,E4 0,E5 0,E6 0}
DECL E6POS Xp20_s04r11o={X -8896.2,Y 8507.64,Z 5335.8,A -13.631,B -2.483,C 2.833,S 6,T 27,E1 -24500,E2 0,E3 0,E4 0,E5 0,E6 0}
DECL E6POS Xp10_s04r10u={X -8257.7,Y 8328.92,Z 5349.68,A -0.125,B -3.07,C 2.053,S 2,T 42,E1 -21700,E2 0,E3 0,E4 0,E5 0,E6 0}
DECL E6POS XD_s04r10u_5={X -8263.06,Y 8325.35,Z 5449.47,A -0.125,B -3.07,C 2.053,S 2,T 42,E1 -21700,E2 0,E3 0,E4 0,E5 0,E6 0}
DECL E6POS XD_s04r10u_10={X -8242.44,Y 8325.36,Z 5449.97,A 0.375,B -3.087,C 2.026,S 2,T 42,E1 -21700,E2 0,E3 0,E4 0,E5 0,E6 0}
DECL E6POS XD_s04r10u_15={X -8226.51,Y 8323.09,Z 5450.36,A -14.129,B -2.482,C 2.735,S 2,T 42,E1 -21700,E2 0,E3 0,E4 0,E5 0,E6 0}
DECL E6POS XD_s04r10u_20={X -8212.59,Y 8317.3,Z 5450.62,A -29.618,B -1.661,C 3.298,S 2,T 42,E1 -21700,E2 0,E3 0,E4 0,E5 0,E6 0}
DECL E6POS XD_s04r10u_25={X -8125.59,Y 8267.1,Z 5451.75,A -33.113,B -1.457,C 3.393,S 2,T 42,E1 -21700,E2 0,E3 0,E4 0,E5 0,E6 0}
DECL E6POS XD_s04r10u_30={X -8113.07,Y 8257.49,Z 5451.86,A -45.444,B -0.186,C 4.256,S 2,T 42,E1 -21700,E2 0,E3 0,E4 0,E5 0,E6 0}
DECL E6POS XD_s04r10u_35={X -8103.55,Y 8245.13,Z 5451.81,A -58.409,B 0.776,C 4.189,S 2,T 42,E1 -21700,E2 0,E3 0,E4 0,E5 0,E6 0}
DECL E6POS XD_s04r10u_40={X -8096.13,Y 8232.29,Z 5451.74,A -60.903,B 0.957,C 4.152,S 2,T 42,E1 -21700,E2 0,E3 0,E4 0,E5 0,E6 0}
DECL E6POS Xp20_s04r10u={X -8090.62,Y 8237.26,Z 5352.01,A -60.903,B 0.957,C 4.152,S 2,T 42,E1 -21700,E2 0,E3 0,E4 0,E5 0,E6 0}
DECL E6POS Xp10_s04r10o={X -8352.33,Y 8168.82,Z 5341.78,A -61.559,B 0.337,C 3.677,S 6,T 27,E1 -25500,E2 0,E3 0,E4 0,E5 0,E6 0}
DECL E6POS XD_s04r10o_5={X -8357.69,Y 8165.25,Z 5441.57,A -61.559,B 0.337,C 3.677,S 6,T 27,E1 -25500,E2 0,E3 0,E4 0,E5 0,E6 0}
DECL E6POS XD_s04r10o_10={X -8344.97,Y 8143.25,Z 5441.25,A -59.064,B 0.177,C 3.688,S 6,T 27,E1 -25500,E2 0,E3 0,E4 0,E5 0,E6 0}
DECL E6POS XD_s04r10o_15={X -8335.18,Y 8130.86,Z 5441.15,A -44.095,B -0.783,C 3.608,S 6,T 27,E1 -25500,E2 0,E3 0,E4 0,E5 0,E6 0}
DECL E6POS XD_s04r10o_20={X -8323.01,Y 8121.48,Z 5441.24,A -30.117,B -1.632,C 3.312,S 6,T 27,E1 -25500,E2 0,E3 0,E4 0,E5 0,E6 0}
DECL E6POS XD_s04r10o_25={X -8237.99,Y 8072.42,Z 5442.43,A -30.117,B -1.632,C 3.312,S 6,T 27,E1 -25500,E2 0,E3 0,E4 0,E5 0,E6 0}
DECL E6POS XD_s04r10o_30={X -8224.01,Y 8066.72,Z 5442.71,A -17.129,B -2.305,C 2.979,S 6,T 27,E1 -25500,E2 0,E3 0,E4 0,E5 0,E6 0}
DECL E6POS XD_s04r10o_35={X -8207.93,Y 8064.39,Z 5443.18,A -0.128,B -3.075,C 2.175,S 6,T 27,E1 -25500,E2 0,E3 0,E4 0,E5 0,E6 0}
DECL E6POS XD_s04r10o_40={X -8186.11,Y 8064.3,Z 5443.91,A -1.629,B -3.017,C 2.255,S 6,T 27,E1 -25500,E2 0,E3 0,E4 0,E5 0,E6 0}
DECL E6POS Xp20_s04r10o={X -8180.74,Y 8068.08,Z 5344.12,A -1.629,B -3.017,C 2.255,S 6,T 27,E1 -25500,E2 0,E3 0,E4 0,E5 0,E6 0}
DECL E6POS Xp10_s03r14u={X -11300.1104,Y 9778.89,Z 5282.05,A -11.13,B -2.622,C 2.601,S 2,T 42,E1 -18000,E2 0,E3 0,E4 0,E5 0,E6 0}
DECL E6POS XD_s03r14u_5={X -11305.4697,Y 9775.32,Z 5381.84,A -11.13,B -2.622,C 2.601,S 2,T 42,E1 -18000,E2 0,E3 0,E4 0,E5 0,E6 0}
DECL E6POS XD_s03r14u_10={X -11285.7598,Y 9772.08,Z 5382.77,A -6.129,B -2.838,C 2.363,S 2,T 42,E1 -18000,E2 0,E3 0,E4 0,E5 0,E6 0}
DECL E6POS XD_s03r14u_15={X -11268.8301,Y 9769.89,Z 5383.58,A -14.129,B -2.482,C 2.735,S 2,T 42,E1 -18000,E2 0,E3 0,E4 0,E5 0,E6 0}
DECL E6POS XD_s03r14u_20={X -11253.5898,Y 9763.7,Z 5384.08,A -28.12,B -1.747,C 3.253,S 2,T 42,E1 -18000,E2 0,E3 0,E4 0,E5 0,E6 0}
DECL E6POS XD_s03r14u_25={X -11206.9199,Y 9736.8,Z 5385.14,A -31.116,B -1.574,C 3.34,S 2,T 42,E1 -18000,E2 0,E3 0,E4 0,E5 0,E6 0}
DECL E6POS XD_s03r14u_30={X -11194.3301,Y 9726.99,Z 5385.28,A -45.943,B -0.149,C 4.258,S 2,T 42,E1 -18000,E2 0,E3 0,E4 0,E5 0,E6 0}
DECL E6POS XD_s03r14u_35={X -11183.4297,Y 9713,Z 5385.08,A -53.921,B 0.445,C 4.237,S 2,T 42,E1 -18000,E2 0,E3 0,E4 0,E5 0,E6 0}
DECL E6POS XD_s03r14u_40={X -11172.6904,Y 9699.81,Z 5384.93,A -48.935,B 0.074,C 4.26,S 2,T 42,E1 -18000,E2 0,E3 0,E4 0,E5 0,E6 0}
DECL E6POS Xp20_s03r14u={X -11167.1797,Y 9704.78,Z 5285.21,A -48.935,B 0.074,C 4.26,S 2,T 42,E1 -18000,E2 0,E3 0,E4 0,E5 0,E6 0}
DECL E6POS Xp10_s03r14o={X -11367.9902,Y 9664.94,Z 5270.89,A -51.081,B -0.338,C 3.677,S 6,T 27,E1 -22000,E2 0,E3 0,E4 0,E5 0,E6 0}
DECL E6POS XD_s03r14o_5={X -11373.3496,Y 9661.37,Z 5370.68,A -51.081,B -0.338,C 3.677,S 6,T 27,E1 -22000,E2 0,E3 0,E4 0,E5 0,E6 0}
DECL E6POS XD_s03r14o_10={X -11364.1201,Y 9648.44,Z 5370.4,A -58.566,B 0.145,C 3.69,S 6,T 27,E1 -22000,E2 0,E3 0,E4 0,E5 0,E6 0}
DECL E6POS XD_s03r14o_15={X -11350.8799,Y 9629.09,Z 5369.94,A -48.087,B -0.53,C 3.654,S 6,T 27,E1 -22000,E2 0,E3 0,E4 0,E5 0,E6 0}
DECL E6POS XD_s03r14o_20={X -11336.9502,Y 9617.86,Z 5370.07,A -30.117,B -1.632,C 3.312,S 6,T 27,E1 -22000,E2 0,E3 0,E4 0,E5 0,E6 0}
DECL E6POS XD_s03r14o_25={X -11284.0596,Y 9587.35,Z 5371.36,A -27.62,B -1.775,C 3.238,S 6,T 27,E1 -22000,E2 0,E3 0,E4 0,E5 0,E6 0}
DECL E6POS XD_s03r14o_30={X -11268.1699,Y 9581.08,Z 5371.95,A -12.131,B -2.556,C 2.767,S 6,T 27,E1 -22000,E2 0,E3 0,E4 0,E5 0,E6 0}
DECL E6POS XD_s03r14o_35={X -11247.79,Y 9579.27,Z 5373.1,A -1.629,B -3.017,C 2.255,S 6,T 27,E1 -22000,E2 0,E3 0,E4 0,E5 0,E6 0}
DECL E6POS XD_s03r14o_40={X -11237.04,Y 9578.63,Z 5373.72,A -3.63,B -2.937,C 2.359,S 6,T 27,E1 -22000,E2 0,E3 0,E4 0,E5 0,E6 0}
DECL E6POS Xp20_s03r14o={X -11231.6699,Y 9582.41,Z 5273.94,A -3.63,B -2.937,C 2.359,S 6,T 27,E1 -22000,E2 0,E3 0,E4 0,E5 0,E6 0}
DECL E6POS Xp10_s03r13u={X -10544.3604,Y 9345.93,Z 5298.01,A -8.129,B -2.754,C 2.46,S 2,T 42,E1 -19000,E2 0,E3 0,E4 0,E5 0,E6 0}
DECL E6POS XD_s03r13u_5={X -10549.7305,Y 9342.37,Z 5397.8,A -8.129,B -2.754,C 2.46,S 2,T 42,E1 -19000,E2 0,E3 0,E4 0,E5 0,E6 0}
DECL E6POS XD_s03r13u_10={X -10528.54,Y 9340.08,Z 5398.9,A -3.628,B -2.939,C 2.237,S 2,T 42,E1 -19000,E2 0,E3 0,E4 0,E5 0,E6 0}
DECL E6POS XD_s03r13u_15={X -10513.2803,Y 9337.55,Z 5399.62,A -17.128,B -2.335,C 2.861,S 2,T 42,E1 -19000,E2 0,E3 0,E4 0,E5 0,E6 0}
DECL E6POS XD_s03r13u_20={X -10500.1396,Y 9332.04,Z 5400.03,A -28.619,B -1.719,C 3.269,S 2,T 42,E1 -19000,E2 0,E3 0,E4 0,E5 0,E6 0}
DECL E6POS XD_s03r13u_25={X -10449.6201,Y 9302.92,Z 5401.13,A -31.116,B -1.574,C 3.34,S 2,T 42,E1 -19000,E2 0,E3 0,E4 0,E5 0,E6 0}
DECL E6POS XD_s03r13u_30={X -10437.7,Y 9293.74,Z 5401.25,A -44.095,B -0.783,C 3.608,S 2,T 42,E1 -19000,E2 0,E3 0,E4 0,E5 0,E6 0}
DECL E6POS XD_s03r13u_35={X -10428.6396,Y 9282.68,Z 5401.09,A -56.414,B 0.629,C 4.214,S 2,T 42,E1 -19000,E2 0,E3 0,E4 0,E5 0,E6 0}
DECL E6POS XD_s03r13u_40={X -10418.7803,Y 9268.83,Z 5400.8,A -51.428,B 0.26,C 4.253,S 2,T 42,E1 -19000,E2 0,E3 0,E4 0,E5 0,E6 0}
DECL E6POS Xp20_s03r13u={X -10413.2598,Y 9273.8,Z 5301.08,A -51.428,B 0.26,C 4.253,S 2,T 42,E1 -19000,E2 0,E3 0,E4 0,E5 0,E6 0}
DECL E6POS Xp10_s03r13o={X -10611.0801,Y 9227.42,Z 5286.02,A -51.58,B -0.306,C 3.68,S 6,T 27,E1 -23000,E2 0,E3 0,E4 0,E5 0,E6 0}
DECL E6POS XD_s03r13o_5={X -10616.4404,Y 9223.85,Z 5385.81,A -51.58,B -0.306,C 3.68,S 6,T 27,E1 -23000,E2 0,E3 0,E4 0,E5 0,E6 0}
DECL E6POS XD_s03r13o_10={X -10608.1699,Y 9212.15,Z 5385.52,A -58.067,B 0.112,C 3.691,S 6,T 27,E1 -23000,E2 0,E3 0,E4 0,E5 0,E6 0}
DECL E6POS XD_s03r13o_15={X -10597.0801,Y 9196.63,Z 5385.13,A -47.089,B -0.593,C 3.644,S 6,T 27,E1 -23000,E2 0,E3 0,E4 0,E5 0,E6 0}
DECL E6POS XD_s03r13o_20={X -10583.4404,Y 9185.8,Z 5385.24,A -30.117,B -1.632,C 3.312,S 6,T 27,E1 -23000,E2 0,E3 0,E4 0,E5 0,E6 0}
DECL E6POS XD_s03r13o_25={X -10534.3896,Y 9157.51,Z 5386.4,A -28.619,B -1.719,C 3.269,S 6,T 27,E1 -23000,E2 0,E3 0,E4 0,E5 0,E6 0}
DECL E6POS XD_s03r13o_30={X -10519.3896,Y 9151.42,Z 5386.94,A -14.63,B -2.433,C 2.876,S 6,T 27,E1 -23000,E2 0,E3 0,E4 0,E5 0,E6 0}
DECL E6POS XD_s03r13o_35={X -10500.1299,Y 9149.35,Z 5388.03,A -1.629,B -3.017,C 2.255,S 6,T 27,E1 -23000,E2 0,E3 0,E4 0,E5 0,E6 0}
DECL E6POS XD_s03r13o_40={X -10485.1396,Y 9148.12,Z 5388.89,A -8.131,B -2.743,C 2.582,S 6,T 27,E1 -23000,E2 0,E3 0,E4 0,E5 0,E6 0}
DECL E6POS Xp20_s03r13o={X -10479.7695,Y 9151.91,Z 5289.11,A -8.131,B -2.743,C 2.582,S 6,T 27,E1 -23000,E2 0,E3 0,E4 0,E5 0,E6 0}
DECL E6POS Xp10_s03r12u={X -9809.99,Y 8919.92,Z 5313.4,A -11.13,B -2.622,C 2.601,S 2,T 42,E1 -20000,E2 0,E3 0,E4 0,E5 0,E6 0}
DECL E6POS XD_s03r12u_5={X -9815.35,Y 8916.35,Z 5413.2,A -11.13,B -2.622,C 2.601,S 2,T 42,E1 -20000,E2 0,E3 0,E4 0,E5 0,E6 0}
DECL E6POS XD_s03r12u_10={X -9793.04,Y 8912.95,Z 5414.18,A -4.128,B -2.919,C 2.262,S 2,T 42,E1 -20000,E2 0,E3 0,E4 0,E5 0,E6 0}
DECL E6POS XD_s03r12u_15={X -9776.94,Y 8910.71,Z 5414.89,A -12.13,B -2.576,C 2.646,S 2,T 42,E1 -20000,E2 0,E3 0,E4 0,E5 0,E6 0}
DECL E6POS XD_s03r12u_20={X -9761.93,Y 8904.7,Z 5415.33,A -29.618,B -1.661,C 3.298,S 2,T 42,E1 -20000,E2 0,E3 0,E4 0,E5 0,E6 0}
DECL E6POS XD_s03r12u_25={X -9715.92,Y 8878.17,Z 5416.23,A -30.617,B -1.603,C 3.326,S 2,T 42,E1 -20000,E2 0,E3 0,E4 0,E5 0,E6 0}
DECL E6POS XD_s03r12u_30={X -9703.61,Y 8868.64,Z 5416.34,A -45.943,B -0.149,C 4.258,S 2,T 42,E1 -20000,E2 0,E3 0,E4 0,E5 0,E6 0}
DECL E6POS XD_s03r12u_35={X -9692.18,Y 8853.88,Z 5416.11,A -53.921,B 0.445,C 4.237,S 2,T 42,E1 -20000,E2 0,E3 0,E4 0,E5 0,E6 0}
DECL E6POS XD_s03r12u_40={X -9680.6,Y 8839.5,Z 5415.91,A -47.439,B -0.037,C 4.26,S 2,T 42,E1 -20000,E2 0,E3 0,E4 0,E5 0,E6 0}
DECL E6POS Xp20_s03r12u={X -9675.08,Y 8844.48,Z 5316.18,A -47.439,B -0.037,C 4.26,S 2,T 42,E1 -20000,E2 0,E3 0,E4 0,E5 0,E6 0}
DECL E6POS Xp10_s03r12o={X -9873.71,Y 8799.53,Z 5302.56,A -52.578,B -0.242,C 3.684,S 6,T 27,E1 -24000,E2 0,E3 0,E4 0,E5 0,E6 0}
DECL E6POS XD_s03r12o_5={X -9879.07,Y 8795.96,Z 5402.36,A -52.578,B -0.242,C 3.684,S 6,T 27,E1 -24000,E2 0,E3 0,E4 0,E5 0,E6 0}
DECL E6POS XD_s03r12o_10={X -9872.05,Y 8785.02,Z 5402.06,A -59.064,B 0.177,C 3.688,S 6,T 27,E1 -24000,E2 0,E3 0,E4 0,E5 0,E6 0}
DECL E6POS XD_s03r12o_15={X -9861.81,Y 8771.24,Z 5401.77,A -46.091,B -0.657,C 3.634,S 6,T 27,E1 -24000,E2 0,E3 0,E4 0,E5 0,E6 0}
DECL E6POS XD_s03r12o_20={X -9849.08,Y 8761.4,Z 5401.88,A -30.117,B -1.632,C 3.312,S 6,T 27,E1 -24000,E2 0,E3 0,E4 0,E5 0,E6 0}
DECL E6POS XD_s03r12o_25={X -9796.67,Y 8731.16,Z 5403,A -30.117,B -1.632,C 3.312,S 6,T 27,E1 -24000,E2 0,E3 0,E4 0,E5 0,E6 0}
DECL E6POS XD_s03r12o_30={X -9782.06,Y 8725.15,Z 5403.47,A -14.13,B -2.458,C 2.855,S 6,T 27,E1 -24000,E2 0,E3 0,E4 0,E5 0,E6 0}
DECL E6POS XD_s03r12o_35={X -9764.65,Y 8723.12,Z 5404.35,A -1.128,B -3.037,C 2.229,S 6,T 27,E1 -24000,E2 0,E3 0,E4 0,E5 0,E6 0}
DECL E6POS XD_s03r12o_40={X -9748.78,Y 8722.21,Z 5405.2,A -7.131,B -2.787,C 2.534,S 6,T 27,E1 -24000,E2 0,E3 0,E4 0,E5 0,E6 0}
DECL E6POS Xp20_s03r12o={X -9743.42,Y 8726,Z 5305.42,A -7.131,B -2.787,C 2.534,S 6,T 27,E1 -24000,E2 0,E3 0,E4 0,E5 0,E6 0}
DECL E6POS Xp10_s03r11u={X -9073.72,Y 8495.65,Z 5326.89,A -11.13,B -2.622,C 2.601,S 2,T 42,E1 -20500,E2 0,E3 0,E4 0,E5 0,E6 0}
DECL E6POS XD_s03r11u_5={X -9079.08,Y 8492.08,Z 5426.69,A -11.13,B -2.622,C 2.601,S 2,T 42,E1 -20500,E2 0,E3 0,E4 0,E5 0,E6 0}
DECL E6POS XD_s03r11u_10={X -9064.67,Y 8489.69,Z 5427.23,A -6.629,B -2.817,C 2.387,S 2,T 42,E1 -20500,E2 0,E3 0,E4 0,E5 0,E6 0}
DECL E6POS XD_s03r11u_15={X -9052.62,Y 8488.56,Z 5427.73,A -4.628,B -2.899,C 2.288,S 2,T 42,E1 -20500,E2 0,E3 0,E4 0,E5 0,E6 0}
DECL E6POS XD_s03r11u_20={X -9038.01,Y 8486.21,Z 5428.27,A -16.129,B -2.385,C 2.82,S 2,T 42,E1 -20500,E2 0,E3 0,E4 0,E5 0,E6 0}
DECL E6POS XD_s03r11u_25={X -9024.7,Y 8480.55,Z 5428.59,A -27.62,B -1.775,C 3.238,S 2,T 42,E1 -20500,E2 0,E3 0,E4 0,E5 0,E6 0}
DECL E6POS XD_s03r11u_30={X -8978.47,Y 8453.88,Z 5429.33,A -29.618,B -1.661,C 3.298,S 2,T 42,E1 -20500,E2 0,E3 0,E4 0,E5 0,E6 0}
DECL E6POS XD_s03r11u_35={X -8965.78,Y 8443.94,Z 5429.4,A -47.937,B 0,C 4.26,S 2,T 42,E1 -20500,E2 0,E3 0,E4 0,E5 0,E6 0}
DECL E6POS XD_s03r11u_40={X -8957.59,Y 8433.78,Z 5429.26,A -55.417,B 0.556,C 4.224,S 2,T 42,E1 -20500,E2 0,E3 0,E4 0,E5 0,E6 0}
DECL E6POS XD_s03r11u_45={X -8951.8,Y 8425.53,Z 5429.1,A -52.425,B 0.334,C 4.247,S 2,T 42,E1 -20500,E2 0,E3 0,E4 0,E5 0,E6 0}
DECL E6POS XD_s03r11u_50={X -8943.76,Y 8415.46,Z 5428.95,A -47.439,B -0.037,C 4.26,S 2,T 42,E1 -20500,E2 0,E3 0,E4 0,E5 0,E6 0}
DECL E6POS Xp20_s03r11u={X -8938.24,Y 8420.44,Z 5329.22,A -47.439,B -0.037,C 4.26,S 2,T 42,E1 -20500,E2 0,E3 0,E4 0,E5 0,E6 0}
DECL E6POS Xp10_s03r11o={X -9138.36,Y 8377.83,Z 5317.18,A -52.079,B -0.274,C 3.682,S 6,T 27,E1 -24500,E2 0,E3 0,E4 0,E5 0,E6 0}
DECL E6POS XD_s03r11o_5={X -9143.72,Y 8374.26,Z 5416.98,A -52.079,B -0.274,C 3.682,S 6,T 27,E1 -24500,E2 0,E3 0,E4 0,E5 0,E6 0}
DECL E6POS XD_s03r11o_10={X -9137.83,Y 8366.07,Z 5416.8,A -57.069,B 0.048,C 3.692,S 6,T 27,E1 -24500,E2 0,E3 0,E4 0,E5 0,E6 0}
DECL E6POS XD_s03r11o_15={X -9133.07,Y 8358.29,Z 5416.58,A -58.067,B 0.112,C 3.691,S 6,T 27,E1 -24500,E2 0,E3 0,E4 0,E5 0,E6 0}
DECL E6POS XD_s03r11o_20={X -9122.89,Y 8345.2,Z 5416.33,A -43.596,B -0.815,C 3.602,S 6,T 27,E1 -24500,E2 0,E3 0,E4 0,E5 0,E6 0}
DECL E6POS XD_s03r11o_25={X -9110.97,Y 8336.14,Z 5416.41,A -31.116,B -1.574,C 3.34,S 6,T 27,E1 -24500,E2 0,E3 0,E4 0,E5 0,E6 0}
DECL E6POS XD_s03r11o_30={X -9059.25,Y 8306.3,Z 5417.31,A -30.117,B -1.632,C 3.312,S 6,T 27,E1 -24500,E2 0,E3 0,E4 0,E5 0,E6 0}
DECL E6POS XD_s03r11o_35={X -9045.04,Y 8300.39,Z 5417.7,A -14.63,B -2.433,C 2.876,S 6,T 27,E1 -24500,E2 0,E3 0,E4 0,E5 0,E6 0}
DECL E6POS XD_s03r11o_40={X -9029.26,Y 8298.25,Z 5418.38,A -1.629,B -3.017,C 2.255,S 6,T 27,E1 -24500,E2 0,E3 0,E4 0,E5 0,E6 0}
DECL E6POS XD_s03r11o_45={X -9020.2,Y 8298.05,Z 5418.83,A -3.63,B -2.937,C 2.359,S 6,T 27,E1 -24500,E2 0,E3 0,E4 0,E5 0,E6 0}
DECL E6POS XD_s03r11o_50={X -9012.17,Y 8297.36,Z 5419.2,A -6.131,B -2.831,C 2.485,S 6,T 27,E1 -24500,E2 0,E3 0,E4 0,E5 0,E6 0}
DECL E6POS Xp20_s03r11o={X -9006.8,Y 8301.15,Z 5319.41,A -6.131,B -2.831,C 2.485,S 6,T 27,E1 -24500,E2 0,E3 0,E4 0,E5 0,E6 0}
DECL E6POS Xp10_s03r10u={X -8377.43,Y 8120.18,Z 5338.78,A -1.126,B -3.033,C 2.106,S 2,T 42,E1 -21700,E2 0,E3 0,E4 0,E5 0,E6 0}
DECL E6POS XD_s03r10u_5={X -8382.79,Y 8116.61,Z 5438.57,A -1.126,B -3.033,C 2.106,S 2,T 42,E1 -21700,E2 0,E3 0,E4 0,E5 0,E6 0}
DECL E6POS XD_s03r10u_10={X -8358.63,Y 8116.61,Z 5439.58,A -1.126,B -3.033,C 2.106,S 2,T 42,E1 -21700,E2 0,E3 0,E4 0,E5 0,E6 0}
DECL E6POS XD_s03r10u_15={X -8342.89,Y 8114.45,Z 5440.09,A -13.63,B -2.506,C 2.713,S 2,T 42,E1 -21700,E2 0,E3 0,E4 0,E5 0,E6 0}
DECL E6POS XD_s03r10u_20={X -8328.64,Y 8108.57,Z 5440.44,A -29.618,B -1.661,C 3.298,S 2,T 42,E1 -21700,E2 0,E3 0,E4 0,E5 0,E6 0}
DECL E6POS XD_s03r10u_25={X -8244.51,Y 8060.03,Z 5441.63,A -29.618,B -1.661,C 3.298,S 2,T 42,E1 -21700,E2 0,E3 0,E4 0,E5 0,E6 0}
DECL E6POS XD_s03r10u_30={X -8232.7,Y 8051.03,Z 5441.65,A -46.94,B -0.074,C 4.26,S 2,T 42,E1 -21700,E2 0,E3 0,E4 0,E5 0,E6 0}
DECL E6POS XD_s03r10u_35={X -8222.53,Y 8038.09,Z 5441.51,A -57.412,B 0.702,C 4.202,S 2,T 42,E1 -21700,E2 0,E3 0,E4 0,E5 0,E6 0}
DECL E6POS XD_s03r10u_40={X -8213.77,Y 8023.1,Z 5441.33,A -58.908,B 0.812,C 4.182,S 2,T 42,E1 -21700,E2 0,E3 0,E4 0,E5 0,E6 0}
DECL E6POS Xp20_s03r10u={X -8208.25,Y 8028.07,Z 5341.61,A -58.908,B 0.812,C 4.182,S 2,T 42,E1 -21700,E2 0,E3 0,E4 0,E5 0,E6 0}
DECL E6POS Xp10_s03r10o={X -8461.98,Y 7962.11,Z 5326.68,A -59.064,B 0.177,C 3.688,S 6,T 27,E1 -25500,E2 0,E3 0,E4 0,E5 0,E6 0}
DECL E6POS XD_s03r10o_5={X -8467.34,Y 7958.54,Z 5426.47,A -59.064,B 0.177,C 3.688,S 6,T 27,E1 -25500,E2 0,E3 0,E4 0,E5 0,E6 0}
DECL E6POS XD_s03r10o_10={X -8458.58,Y 7943.51,Z 5426.13,A -59.064,B 0.177,C 3.688,S 6,T 27,E1 -25500,E2 0,E3 0,E4 0,E5 0,E6 0}
DECL E6POS XD_s03r10o_15={X -8449.32,Y 7931.39,Z 5425.84,A -46.091,B -0.657,C 3.634,S 6,T 27,E1 -25500,E2 0,E3 0,E4 0,E5 0,E6 0}
DECL E6POS XD_s03r10o_20={X -8436.63,Y 7921.57,Z 5425.87,A -30.117,B -1.632,C 3.312,S 6,T 27,E1 -25500,E2 0,E3 0,E4 0,E5 0,E6 0}
DECL E6POS XD_s03r10o_25={X -8350.78,Y 7872.02,Z 5427.16,A -24.623,B -1.942,C 3.141,S 6,T 27,E1 -25500,E2 0,E3 0,E4 0,E5 0,E6 0}
DECL E6POS XD_s03r10o_30={X -8336.81,Y 7866.17,Z 5427.51,A -16.629,B -2.331,C 2.959,S 6,T 27,E1 -25500,E2 0,E3 0,E4 0,E5 0,E6 0}
DECL E6POS XD_s03r10o_35={X -8320.8,Y 7863.98,Z 5428.2,A -0.628,B -3.056,C 2.202,S 6,T 27,E1 -25500,E2 0,E3 0,E4 0,E5 0,E6 0}
DECL E6POS XD_s03r10o_40={X -8302.08,Y 7863.91,Z 5428.98,A -0.628,B -3.056,C 2.202,S 6,T 27,E1 -25500,E2 0,E3 0,E4 0,E5 0,E6 0}
DECL E6POS Xp20_s03r10o={X -8296.71,Y 7867.7,Z 5329.2,A -0.628,B -3.056,C 2.202,S 6,T 27,E1 -25500,E2 0,E3 0,E4 0,E5 0,E6 0}
DECL E6POS Xp10_s02r11u={X -9180.77,Y 8305.53,Z 5310.77,A -7.629,B -2.775,C 2.436,S 2,T 42,E1 -20500,E2 0,E3 0,E4 0,E5 0,E6 0}
DECL E6POS XD_s02r11u_5={X -9186.13,Y 8301.96,Z 5410.56,A -7.629,B -2.775,C 2.436,S 2,T 42,E1 -20500,E2 0,E3 0,E4 0,E5 0,E6 0}
DECL E6POS XD_s02r11u_10={X -9170.25,Y 8300.11,Z 5411.23,A -4.128,B -2.919,C 2.262,S 2,T 42,E1 -20500,E2 0,E3 0,E4 0,E5 0,E6 0}
DECL E6POS XD_s02r11u_15={X -9152.03,Y 8298.43,Z 5412.02,A -11.63,B -2.599,C 2.624,S 2,T 42,E1 -20500,E2 0,E3 0,E4 0,E5 0,E6 0}
DECL E6POS XD_s02r11u_20={X -9135.11,Y 8291.85,Z 5412.49,A -29.618,B -1.661,C 3.298,S 2,T 42,E1 -20500,E2 0,E3 0,E4 0,E5 0,E6 0}
DECL E6POS XD_s02r11u_25={X -9084.68,Y 8262.76,Z 5413.4,A -30.617,B -1.603,C 3.326,S 2,T 42,E1 -20500,E2 0,E3 0,E4 0,E5 0,E6 0}
DECL E6POS XD_s02r11u_30={X -9071.33,Y 8252.1,Z 5413.49,A -47.937,B 0,C 4.26,S 2,T 42,E1 -20500,E2 0,E3 0,E4 0,E5 0,E6 0}
DECL E6POS XD_s02r11u_35={X -9060.31,Y 8237.12,Z 5413.24,A -56.414,B 0.629,C 4.214,S 2,T 42,E1 -20500,E2 0,E3 0,E4 0,E5 0,E6 0}
DECL E6POS XD_s02r11u_40={X -9049.23,Y 8222.32,Z 5413.01,A -47.439,B -0.037,C 4.26,S 2,T 42,E1 -20500,E2 0,E3 0,E4 0,E5 0,E6 0}
DECL E6POS Xp20_s02r11u={X -9043.72,Y 8227.3,Z 5313.28,A -47.439,B -0.037,C 4.26,S 2,T 42,E1 -20500,E2 0,E3 0,E4 0,E5 0,E6 0}
DECL E6POS Xp10_s02r11o={X -9253.71,Y 8179.87,Z 5299.87,A -59.563,B 0.209,C 3.686,S 6,T 27,E1 -24500,E2 0,E3 0,E4 0,E5 0,E6 0}
DECL E6POS XD_s02r11o_5={X -9259.07,Y 8176.3,Z 5399.66,A -59.563,B 0.209,C 3.686,S 6,T 27,E1 -24500,E2 0,E3 0,E4 0,E5 0,E6 0}
DECL E6POS XD_s02r11o_10={X -9250.31,Y 8161.25,Z 5399.03,A -58.566,B 0.145,C 3.69,S 6,T 27,E1 -24500,E2 0,E3 0,E4 0,E5 0,E6 0}
DECL E6POS XD_s02r11o_15={X -9240.73,Y 8148.96,Z 5398.73,A -44.095,B -0.783,C 3.608,S 6,T 27,E1 -24500,E2 0,E3 0,E4 0,E5 0,E6 0}
DECL E6POS XD_s02r11o_20={X -9228.31,Y 8139.29,Z 5398.82,A -30.117,B -1.632,C 3.312,S 6,T 27,E1 -24500,E2 0,E3 0,E4 0,E5 0,E6 0}
DECL E6POS XD_s02r11o_25={X -9169.23,Y 8105.2,Z 5400.05,A -28.619,B -1.719,C 3.269,S 6,T 27,E1 -24500,E2 0,E3 0,E4 0,E5 0,E6 0}
DECL E6POS XD_s02r11o_30={X -9154.66,Y 8099.31,Z 5400.59,A -12.631,B -2.532,C 2.789,S 6,T 27,E1 -24500,E2 0,E3 0,E4 0,E5 0,E6 0}
DECL E6POS XD_s02r11o_35={X -9139.25,Y 8097.14,Z 5401.42,A -1.128,B -3.037,C 2.229,S 6,T 27,E1 -24500,E2 0,E3 0,E4 0,E5 0,E6 0}
DECL E6POS XD_s02r11o_40={X -9121.53,Y 8097.13,Z 5402.38,A -1.128,B -3.037,C 2.229,S 6,T 27,E1 -24500,E2 0,E3 0,E4 0,E5 0,E6 0}
DECL E6POS Xp20_s02r11o={X -9116.16,Y 8100.91,Z 5302.59,A -1.128,B -3.037,C 2.229,S 6,T 27,E1 -24500,E2 0,E3 0,E4 0,E5 0,E6 0}
DECL E6POS Xp10_s02r10u={X -8490.17,Y 7926.91,Z 5323.06,A 1.877,B -3.139,C 1.945,S 2,T 42,E1 -21700,E2 0,E3 0,E4 0,E5 0,E6 0}
DECL E6POS XD_s02r10u_5={X -8495.54,Y 7923.34,Z 5422.86,A 1.877,B -3.139,C 1.945,S 2,T 42,E1 -21700,E2 0,E3 0,E4 0,E5 0,E6 0}
DECL E6POS XD_s02r10u_10={X -8468.76,Y 7923.31,Z 5424.29,A -2.127,B -2.996,C 2.159,S 2,T 42,E1 -21700,E2 0,E3 0,E4 0,E5 0,E6 0}
DECL E6POS XD_s02r10u_15={X -8452.37,Y 7920.98,Z 5425,A -14.129,B -2.482,C 2.735,S 2,T 42,E1 -21700,E2 0,E3 0,E4 0,E5 0,E6 0}
DECL E6POS XD_s02r10u_20={X -8438.82,Y 7915.27,Z 5425.34,A -29.618,B -1.661,C 3.298,S 2,T 42,E1 -21700,E2 0,E3 0,E4 0,E5 0,E6 0}
DECL E6POS XD_s02r10u_25={X -8353.39,Y 7865.99,Z 5426.63,A -30.617,B -1.603,C 3.326,S 2,T 42,E1 -21700,E2 0,E3 0,E4 0,E5 0,E6 0}
DECL E6POS XD_s02r10u_30={X -8341.02,Y 7856.36,Z 5426.66,A -47.588,B -0.562,C 3.649,S 2,T 42,E1 -21700,E2 0,E3 0,E4 0,E5 0,E6 0}
DECL E6POS XD_s02r10u_35={X -8331.27,Y 7843.82,Z 5426.36,A -58.409,B 0.776,C 4.189,S 2,T 42,E1 -21700,E2 0,E3 0,E4 0,E5 0,E6 0}
DECL E6POS XD_s02r10u_40={X -8320.5,Y 7825.25,Z 5425.71,A -60.404,B 0.921,C 4.16,S 2,T 42,E1 -21700,E2 0,E3 0,E4 0,E5 0,E6 0}
DECL E6POS Xp20_s02r10u={X -8314.98,Y 7830.23,Z 5325.99,A -60.404,B 0.921,C 4.16,S 2,T 42,E1 -21700,E2 0,E3 0,E4 0,E5 0,E6 0}
DECL E6POS Xp10_s02r10o={X -8574.79,Y 7776.07,Z 5307.44,A -60.561,B 0.273,C 3.682,S 6,T 27,E1 -25500,E2 0,E3 0,E4 0,E5 0,E6 0}
DECL E6POS XD_s02r10o_5={X -8580.15,Y 7772.5,Z 5407.24,A -60.561,B 0.273,C 3.682,S 6,T 27,E1 -25500,E2 0,E3 0,E4 0,E5 0,E6 0}
DECL E6POS XD_s02r10o_10={X -8568.24,Y 7752.02,Z 5406.22,A -58.566,B 0.145,C 3.69,S 6,T 27,E1 -25500,E2 0,E3 0,E4 0,E5 0,E6 0}
DECL E6POS XD_s02r10o_15={X -8558,Y 7739.15,Z 5405.86,A -45.093,B -0.72,C 3.622,S 6,T 27,E1 -25500,E2 0,E3 0,E4 0,E5 0,E6 0}
DECL E6POS XD_s02r10o_20={X -8546.24,Y 7730.06,Z 5405.88,A -30.117,B -1.632,C 3.312,S 6,T 27,E1 -25500,E2 0,E3 0,E4 0,E5 0,E6 0}
DECL E6POS XD_s02r10o_25={X -8458.45,Y 7679.41,Z 5407.31,A -30.117,B -1.632,C 3.312,S 6,T 27,E1 -25500,E2 0,E3 0,E4 0,E5 0,E6 0}
DECL E6POS XD_s02r10o_30={X -8444.35,Y 7673.51,Z 5407.72,A -15.13,B -2.408,C 2.897,S 6,T 27,E1 -25500,E2 0,E3 0,E4 0,E5 0,E6 0}
DECL E6POS XD_s02r10o_35={X -8428.46,Y 7671.34,Z 5408.74,A -1.629,B -3.017,C 2.255,S 6,T 27,E1 -25500,E2 0,E3 0,E4 0,E5 0,E6 0}
DECL E6POS XD_s02r10o_40={X -8406.45,Y 7671.31,Z 5410.08,A -0.128,B -3.075,C 2.175,S 6,T 27,E1 -25500,E2 0,E3 0,E4 0,E5 0,E6 0}
DECL E6POS Xp20_s02r10o={X -8401.08,Y 7675.09,Z 5310.3,A -0.128,B -3.075,C 2.175,S 6,T 27,E1 -25500,E2 0,E3 0,E4 0,E5 0,E6 0}
DECL E6POS XP0={X 894.83,Y -21156.7695,Z 10617.82,A -51.892,B 45.221,C -37.658,S 6,T 27,E1 -22000,E2 0,E3 0,E4 0,E5 0,E6 0}
DECL E6POS XP25={X 2132.73779,Y -23347.0898,Z 8858.46362,A -90.1059799,B -10.0560207,C -85.3547287,S 22,T 27,E1 -25500,E2 0,E3 0,E4 0,E5 0,E6 0}
