DECL E6POS XVorpos_16_VTC={X -2174.63,Y 7907.8,Z -2006.23,A -49.18,B 46.907,C -102.109,S 2,T 43,E1 -1500,E2 0,E3 0,E4 0,E5 0,E6 0}
DECL E6POS XP5={X 1463.92,Y 10005.06,Z -2055.88,A -49.18,B 46.907,C -102.109,S 2,T 43,E1 -5700,E2 0,E3 0,E4 0,E5 0,E6 0}
DECL E6POS XP10={X 4034.88,Y 7646.67,Z -823.21,A 133.213,B 23.04,C 30.699,S 6,T 27,E1 -5700,E2 0,E3 0,E4 0,E5 0,E6 0}
DECL E6POS XP15={X 3334.94,Y 7260.12,Z 254.59,A 119.131,B 26.379,C -2.208,S 6,T 27,E1 -5700,E2 0,E3 0,E4 0,E5 0,E6 0}
DECL E6POS XP20={X 3464.53,Y 7335.05,Z 418.14,A 119.825,B 26.374,C -0.68,S 6,T 27,E1 -5700,E2 0,E3 0,E4 0,E5 0,E6 0}
DECL E6POS XMP81105301={X 3502.34,Y 7356.91,Z 418.6,A 119.825,B 26.374,C -0.68,S 6,T 27,E1 -5700,E2 0,E3 0,E4 0,E5 0,E6 0}
DECL E6POS XP25={X 3540.16,Y 7378.73,Z 419.02,A 119.825,B 26.374,C -0.68,S 6,T 27,E1 -5700,E2 0,E3 0,E4 0,E5 0,E6 0}
DECL E6POS XP30={X 3584.67,Y 7397.92,Z 419.86,A 91.689,B 26.38,C -2.896,S 6,T 27,E1 -5700,E2 0,E3 0,E4 0,E5 0,E6 0}
DECL E6POS XMP81105302={X 3617.09,Y 7399.61,Z 421.34,A 91.689,B 26.38,C -2.896,S 6,T 27,E1 -5700,E2 0,E3 0,E4 0,E5 0,E6 0}
DECL E6POS XP35={X 3649.51,Y 7401.3,Z 422.8,A 91.689,B 26.38,C -2.896,S 6,T 27,E1 -5700,E2 0,E3 0,E4 0,E5 0,E6 0}
DECL E6POS XP40={X 3643.12,Y 7399.37,Z 422.76,A 119.806,B 26.382,C 0.306,S 6,T 27,E1 -5700,E2 0,E3 0,E4 0,E5 0,E6 0}
DECL E6POS XMP81105303={X 3670.47,Y 7414.82,Z 422.9,A 119.806,B 26.382,C -0.846,S 6,T 27,E1 -5700,E2 0,E3 0,E4 0,E5 0,E6 0}
DECL E6POS XP45={X 3697.84,Y 7430.26,Z 423.05,A 119.806,B 26.382,C 0.306,S 6,T 27,E1 -5700,E2 0,E3 0,E4 0,E5 0,E6 0}
DECL E6POS XP50={X 3695.78,Y 7425.39,Z 423.49,A 151.675,B 26.828,C 2.095,S 6,T 27,E1 -5700,E2 0,E3 0,E4 0,E5 0,E6 0}
DECL E6POS XMP81105304={X 3711.66,Y 7453.72,Z 422.43,A 151.675,B 26.828,C 2.095,S 6,T 27,E1 -5700,E2 0,E3 0,E4 0,E5 0,E6 0}
DECL E6POS XP55={X 3727.54,Y 7482.06,Z 421.37,A 151.675,B 26.828,C 2.095,S 6,T 27,E1 -5700,E2 0,E3 0,E4 0,E5 0,E6 0}
DECL E6POS XP60={X 3769.31,Y 7511.28,Z 421.64,A 119.754,B 26.365,C -0.081,S 6,T 27,E1 -5700,E2 0,E3 0,E4 0,E5 0,E6 0}
DECL E6POS XMP81105305={X 3808.18,Y 7533.76,Z 422.04,A 119.754,B 26.365,C -0.081,S 6,T 27,E1 -5700,E2 0,E3 0,E4 0,E5 0,E6 0}
DECL E6POS XP65={X 3846.94,Y 7556.16,Z 422.44,A 119.754,B 26.365,C -0.081,S 6,T 27,E1 -5700,E2 0,E3 0,E4 0,E5 0,E6 0}
DECL E6POS XP70={X 3832.42,Y 7547.2,Z 331.56,A 120.282,B 26.39,C 0.384,S 6,T 27,E1 -5700,E2 0,E3 0,E4 0,E5 0,E6 0}
DECL E6POS XP75={X 3686.26,Y 7741.52,Z 309.45,A 120.125,B 26.392,C 0.029,S 6,T 27,E1 -5700,E2 0,E3 0,E4 0,E5 0,E6 0}
DECL E6POS XP80={X 3779.96,Y 7795.6,Z 403.83,A 119.769,B 26.362,C -0.704,S 6,T 27,E1 -5700,E2 0,E3 0,E4 0,E5 0,E6 0}
DECL E6POS XMP81205305={X 3741.47,Y 7773.35,Z 403.38,A 119.769,B 26.362,C -0.704,S 6,T 27,E1 -5700,E2 0,E3 0,E4 0,E5 0,E6 0}
DECL E6POS XP85={X 3703.08,Y 7751.15,Z 402.92,A 119.769,B 26.362,C -0.704,S 6,T 27,E1 -5700,E2 0,E3 0,E4 0,E5 0,E6 0}
DECL E6POS XP90={X 3660.79,Y 7721.23,Z 402.61,A 149.723,B 28.088,C 2.924,S 6,T 27,E1 -5700,E2 0,E3 0,E4 0,E5 0,E6 0}
DECL E6POS XMP81205304={X 3644.1,Y 7692.47,Z 403.79,A 149.723,B 28.088,C 2.924,S 6,T 27,E1 -5700,E2 0,E3 0,E4 0,E5 0,E6 0}
DECL E6POS XP95={X 3627.41,Y 7663.7,Z 404.96,A 149.723,B 28.088,C 2.924,S 6,T 27,E1 -5700,E2 0,E3 0,E4 0,E5 0,E6 0}
DECL E6POS XP100={X 3629.03,Y 7667.22,Z 404.88,A 119.938,B 26.383,C -0.364,S 6,T 27,E1 -5700,E2 0,E3 0,E4 0,E5 0,E6 0}
DECL E6POS XMP81205303={X 3603.21,Y 7652.31,Z 404.39,A 119.938,B 26.383,C -0.364,S 6,T 27,E1 -5700,E2 0,E3 0,E4 0,E5 0,E6 0}
DECL E6POS XP105={X 3577.4,Y 7637.41,Z 403.92,A 119.938,B 26.383,C -0.364,S 6,T 27,E1 -5700,E2 0,E3 0,E4 0,E5 0,E6 0}
DECL E6POS XP110={X 3583.2,Y 7636.89,Z 404.43,A 90.132,B 26.199,C -3.252,S 6,T 27,E1 -5700,E2 0,E3 0,E4 0,E5 0,E6 0}
DECL E6POS XMP81205302={X 3546.05,Y 7636.18,Z 402.53,A 90.132,B 26.199,C -3.252,S 6,T 27,E1 -5700,E2 0,E3 0,E4 0,E5 0,E6 0}
DECL E6POS XP115={X 3508.91,Y 7635.46,Z 400.65,A 90.132,B 26.199,C -3.252,S 6,T 27,E1 -5700,E2 0,E3 0,E4 0,E5 0,E6 0}
DECL E6POS XP120={X 3452.71,Y 7606.36,Z 399.76,A 119.716,B 26.385,C -0.625,S 6,T 27,E1 -5700,E2 0,E3 0,E4 0,E5 0,E6 0}
DECL E6POS XMP81205301={X 3412.2,Y 7582.94,Z 399.21,A 119.716,B 26.385,C -0.625,S 6,T 27,E1 -5700,E2 0,E3 0,E4 0,E5 0,E6 0}
DECL E6POS XP125={X 3371.68,Y 7559.5,Z 398.67,A 119.716,B 26.385,C -0.625,S 6,T 27,E1 -5700,E2 0,E3 0,E4 0,E5 0,E6 0}
DECL E6POS XP130={X 3269.03,Y 7494.21,Z 325.77,A 120.052,B 26.392,C -0.135,S 6,T 27,E1 -5700,E2 0,E3 0,E4 0,E5 0,E6 0}
DECL E6POS XP135={X 3275.84,Y 7782.39,Z 303.48,A 120.392,B 26.389,C 0.631,S 6,T 27,E1 -5700,E2 0,E3 0,E4 0,E5 0,E6 0}
DECL E6POS XP140={X 3331.15,Y 7814.29,Z 378.23,A 119.412,B 26.38,C -0.515,S 6,T 27,E1 -5700,E2 0,E3 0,E4 0,E5 0,E6 0}
DECL E6POS XMP81305301={X 3365.76,Y 7834.31,Z 378.72,A 119.412,B 26.38,C -0.515,S 6,T 27,E1 -5700,E2 0,E3 0,E4 0,E5 0,E6 0}
DECL E6POS XP145={X 3400.36,Y 7854.32,Z 379.21,A 119.412,B 26.38,C -0.515,S 6,T 27,E1 -5700,E2 0,E3 0,E4 0,E5 0,E6 0}
DECL E6POS XP150={X 3445.61,Y 7874.25,Z 380.27,A 91.625,B 26.481,C -3.791,S 6,T 27,E1 -5700,E2 0,E3 0,E4 0,E5 0,E6 0}
DECL E6POS XMP81305302={X 3480.81,Y 7876.15,Z 382.08,A 91.625,B 26.481,C -3.791,S 6,T 27,E1 -5700,E2 0,E3 0,E4 0,E5 0,E6 0}
DECL E6POS XP155={X 3515.99,Y 7878.05,Z 383.88,A 91.625,B 26.481,C -3.791,S 6,T 27,E1 -5700,E2 0,E3 0,E4 0,E5 0,E6 0}
DECL E6POS XP160={X 3506.53,Y 7876.73,Z 383.64,A 119.891,B 26.387,C -0.39,S 6,T 27,E1 -5700,E2 0,E3 0,E4 0,E5 0,E6 0}
DECL E6POS XMP81305303={X 3532.49,Y 7891.75,Z 383.83,A 119.891,B 26.387,C -0.39,S 6,T 27,E1 -5700,E2 0,E3 0,E4 0,E5 0,E6 0}
DECL E6POS XP165={X 3558.45,Y 7906.78,Z 384.01,A 119.891,B 26.387,C -0.39,S 6,T 27,E1 -5700,E2 0,E3 0,E4 0,E5 0,E6 0}
DECL E6POS XP170={X 3555.63,Y 7901.19,Z 384.41,A 149.433,B 27.071,C 2.606,S 6,T 27,E1 -5700,E2 0,E3 0,E4 0,E5 0,E6 0}
DECL E6POS XMP81305304={X 3572.18,Y 7928.78,Z 383.34,A 149.433,B 27.071,C 2.606,S 6,T 27,E1 -5700,E2 0,E3 0,E4 0,E5 0,E6 0}
DECL E6POS XP175={X 3588.76,Y 7956.37,Z 382.25,A 149.433,B 27.071,C 2.606,S 6,T 27,E1 -5700,E2 0,E3 0,E4 0,E5 0,E6 0}
DECL E6POS XP180={X 3648.8,Y 7998,Z 382.61,A 119.715,B 27.367,C -0.386,S 6,T 27,E1 -5700,E2 0,E3 0,E4 0,E5 0,E6 0}
DECL E6POS XMP81305305={X 3679.43,Y 8015.72,Z 383.02,A 119.715,B 27.367,C -0.386,S 6,T 27,E1 -5700,E2 0,E3 0,E4 0,E5 0,E6 0}
DECL E6POS XP185={X 3709.96,Y 8033.37,Z 383.42,A 119.715,B 27.367,C -0.386,S 6,T 27,E1 -5700,E2 0,E3 0,E4 0,E5 0,E6 0}
DECL E6POS XP190={X 3661.49,Y 8008.22,Z 286.54,A 118.863,B 26.346,C -2.734,S 6,T 27,E1 -5700,E2 0,E3 0,E4 0,E5 0,E6 0}
DECL E6POS XP195={X 3556.5,Y 8223.03,Z 267.02,A 120.125,B 26.392,C 0.029,S 6,T 27,E1 -5700,E2 0,E3 0,E4 0,E5 0,E6 0}
DECL E6POS XP200={X 3650.11,Y 8277.09,Z 361.51,A 119.579,B 27.356,C -0.675,S 6,T 27,E1 -5700,E2 0,E3 0,E4 0,E5 0,E6 0}
DECL E6POS XMP81405305={X 3611.72,Y 8254.88,Z 360.96,A 119.579,B 27.356,C -0.675,S 6,T 27,E1 -5700,E2 0,E3 0,E4 0,E5 0,E6 0}
DECL E6POS XP205={X 3573.19,Y 8232.6,Z 360.4,A 119.579,B 27.356,C -0.675,S 6,T 27,E1 -5700,E2 0,E3 0,E4 0,E5 0,E6 0}
DECL E6POS XP210={X 3519.34,Y 8196.61,Z 359.96,A 149.702,B 28.348,C 2.991,S 6,T 27,E1 -5700,E2 0,E3 0,E4 0,E5 0,E6 0}
DECL E6POS XMP81405304={X 3502.63,Y 8167.87,Z 361.19,A 149.702,B 28.348,C 2.991,S 6,T 27,E1 -5700,E2 0,E3 0,E4 0,E5 0,E6 0}
DECL E6POS XP215={X 3485.9,Y 8139.15,Z 362.39,A 149.702,B 28.348,C 2.991,S 6,T 27,E1 -5700,E2 0,E3 0,E4 0,E5 0,E6 0}
DECL E6POS XP220={X 3488.82,Y 8145.78,Z 362.18,A 119.931,B 27.383,C -0.341,S 6,T 27,E1 -5700,E2 0,E3 0,E4 0,E5 0,E6 0}
DECL E6POS XMP81405303={X 3462.99,Y 8130.88,Z 361.71,A 119.931,B 27.383,C -0.341,S 6,T 27,E1 -5700,E2 0,E3 0,E4 0,E5 0,E6 0}
DECL E6POS XP225={X 3437.17,Y 8115.98,Z 361.23,A 119.931,B 27.383,C -0.341,S 6,T 27,E1 -5700,E2 0,E3 0,E4 0,E5 0,E6 0}
DECL E6POS XP230={X 3448.83,Y 8115.67,Z 362.07,A 89.419,B 26.424,C -3.836,S 6,T 27,E1 -5700,E2 0,E3 0,E4 0,E5 0,E6 0}
DECL E6POS XMP81405302={X 3411.71,Y 8115.24,Z 359.85,A 89.419,B 26.424,C -3.836,S 6,T 27,E1 -5700,E2 0,E3 0,E4 0,E5 0,E6 0}
DECL E6POS XP235={X 3374.58,Y 8114.81,Z 357.62,A 89.419,B 26.424,C -3.836,S 6,T 27,E1 -5700,E2 0,E3 0,E4 0,E5 0,E6 0}
DECL E6POS XP240={X 3322.71,Y 8087.73,Z 356.7,A 119.927,B 27.387,C -0.716,S 6,T 27,E1 -5700,E2 0,E3 0,E4 0,E5 0,E6 0}
DECL E6POS XMP81405301={X 3282.17,Y 8064.28,Z 356.08,A 119.927,B 27.387,C -0.716,S 6,T 27,E1 -5700,E2 0,E3 0,E4 0,E5 0,E6 0}
DECL E6POS XP245={X 3241.61,Y 8040.82,Z 355.46,A 119.927,B 27.387,C -0.716,S 6,T 27,E1 -5700,E2 0,E3 0,E4 0,E5 0,E6 0}
DECL E6POS XP250={X 3156.38,Y 7977.61,Z 280.56,A 120.052,B 26.392,C -0.135,S 6,T 27,E1 -5700,E2 0,E3 0,E4 0,E5 0,E6 0}
DECL E6POS XP255={X 3140.25,Y 8260.69,Z 257.2,A 120.457,B 31.389,C 0.662,S 6,T 27,E1 -5700,E2 0,E3 0,E4 0,E5 0,E6 0}
DECL E6POS XP260={X 3195.58,Y 8292.6,Z 331.85,A 119.805,B 31.384,C -0.543,S 6,T 27,E1 -5700,E2 0,E3 0,E4 0,E5 0,E6 0}
DECL E6POS XMP81505301={X 3230.17,Y 8312.61,Z 332.41,A 119.337,B 31.379,C -0.787,S 6,T 27,E1 -5700,E2 0,E3 0,E4 0,E5 0,E6 0}
DECL E6POS XP265={X 3264.8,Y 8332.64,Z 332.97,A 119.805,B 31.384,C -0.543,S 6,T 27,E1 -5700,E2 0,E3 0,E4 0,E5 0,E6 0}
DECL E6POS XP270={X 3308.38,Y 8352.4,Z 334.02,A 90.079,B 31.134,C -4.671,S 6,T 27,E1 -5700,E2 0,E3 0,E4 0,E5 0,E6 0}
DECL E6POS XMP81505302={X 3343.57,Y 8353.78,Z 336.2,A 90.079,B 31.134,C -4.671,S 6,T 27,E1 -5700,E2 0,E3 0,E4 0,E5 0,E6 0}
DECL E6POS XP275={X 3378.76,Y 8355.18,Z 338.37,A 90.079,B 31.134,C -4.671,S 6,T 27,E1 -5700,E2 0,E3 0,E4 0,E5 0,E6 0}
DECL E6POS XP280={X 3366.42,Y 8353.7,Z 337.52,A 119.384,B 31.378,C -1.253,S 6,T 27,E1 -5700,E2 0,E3 0,E4 0,E5 0,E6 0}
DECL E6POS XMP81505303={X 3392.39,Y 8368.71,Z 338.08,A 119.384,B 31.378,C -1.253,S 6,T 27,E1 -5700,E2 0,E3 0,E4 0,E5 0,E6 0}
DECL E6POS XP285={X 3418.35,Y 8383.72,Z 338.65,A 119.384,B 31.378,C -1.253,S 6,T 27,E1 -5700,E2 0,E3 0,E4 0,E5 0,E6 0}
DECL E6POS XP290={X 3417.2,Y 8378.53,Z 339.15,A 151.21,B 29.915,C 3.797,S 6,T 27,E1 -5700,E2 0,E3 0,E4 0,E5 0,E6 0}
DECL E6POS XMP81505304={X 3433.24,Y 8406.39,Z 337.54,A 151.21,B 29.915,C 3.797,S 6,T 27,E1 -5700,E2 0,E3 0,E4 0,E5 0,E6 0}
DECL E6POS XP295={X 3449.28,Y 8434.25,Z 335.91,A 151.21,B 29.915,C 3.797,S 6,T 27,E1 -5700,E2 0,E3 0,E4 0,E5 0,E6 0}
DECL E6POS XP300={X 3489.84,Y 8462.81,Z 336.51,A 119.409,B 31.337,C -1.032,S 6,T 27,E1 -5700,E2 0,E3 0,E4 0,E5 0,E6 0}
DECL E6POS XMP81505305={X 3520.42,Y 8480.5,Z 336.98,A 119.409,B 31.337,C -1.032,S 6,T 27,E1 -5700,E2 0,E3 0,E4 0,E5 0,E6 0}
DECL E6POS XP305={X 3551.1,Y 8498.24,Z 337.46,A 119.409,B 31.337,C -1.032,S 6,T 27,E1 -5700,E2 0,E3 0,E4 0,E5 0,E6 0}
DECL E6POS XP310={X 3502.76,Y 8473.14,Z 240.01,A 118.584,B 31.34,C -2.869,S 6,T 27,E1 -5700,E2 0,E3 0,E4 0,E5 0,E6 0}
DECL E6POS XP315={X 2937.4,Y 7685.05,Z 83.1,A 116.285,B 21.417,C -0.098,S 6,T 27,E1 -4800,E2 0,E3 0,E4 0,E5 0,E6 0}
DECL E6POS XP320={X 2544.69,Y 6803.1,Z 243.87,A 119.131,B 26.379,C -2.208,S 6,T 27,E1 -4800,E2 0,E3 0,E4 0,E5 0,E6 0}
DECL E6POS XP325={X 2674.24,Y 6877.99,Z 407.35,A 119.825,B 26.374,C -0.385,S 6,T 27,E1 -4800,E2 0,E3 0,E4 0,E5 0,E6 0}
DECL E6POS XMP81104301={X 2712.09,Y 6899.89,Z 407.89,A 119.825,B 26.374,C -0.385,S 6,T 27,E1 -4800,E2 0,E3 0,E4 0,E5 0,E6 0}
DECL E6POS XP330={X 2749.93,Y 6921.77,Z 408.43,A 119.825,B 26.374,C -0.385,S 6,T 27,E1 -4800,E2 0,E3 0,E4 0,E5 0,E6 0}
DECL E6POS XP335={X 2824.36,Y 6946.58,Z 410.93,A 88.25,B 26.793,C -2.614,S 6,T 27,E1 -4800,E2 0,E3 0,E4 0,E5 0,E6 0}
DECL E6POS XMP81104302={X 2856.83,Y 6946.25,Z 412.25,A 88.25,B 26.793,C -2.614,S 6,T 27,E1 -4800,E2 0,E3 0,E4 0,E5 0,E6 0}
DECL E6POS XP340={X 2889.3,Y 6945.92,Z 413.58,A 88.25,B 26.793,C -2.614,S 6,T 27,E1 -4800,E2 0,E3 0,E4 0,E5 0,E6 0}
DECL E6POS XP345={X 2907.7,Y 6951.38,Z 414.72,A 119.806,B 26.382,C 0.306,S 6,T 27,E1 -4800,E2 0,E3 0,E4 0,E5 0,E6 0}
DECL E6POS XMP81104303={X 2935.06,Y 6966.83,Z 414.88,A 119.806,B 26.382,C 0.306,S 6,T 27,E1 -4800,E2 0,E3 0,E4 0,E5 0,E6 0}
DECL E6POS XP350={X 2962.41,Y 6982.28,Z 415.03,A 119.806,B 26.382,C 0.306,S 6,T 27,E1 -4800,E2 0,E3 0,E4 0,E5 0,E6 0}
DECL E6POS XP355={X 2977.17,Y 6994.25,Z 415.2,A 150.586,B 27.151,C 1.811,S 6,T 27,E1 -4800,E2 0,E3 0,E4 0,E5 0,E6 0}
DECL E6POS XMP81104304={X 2993.53,Y 7022.31,Z 414.27,A 150.586,B 27.151,C 1.811,S 6,T 27,E1 -4800,E2 0,E3 0,E4 0,E5 0,E6 0}
DECL E6POS XP360={X 3009.9,Y 7050.38,Z 413.36,A 150.586,B 27.151,C 1.811,S 6,T 27,E1 -4800,E2 0,E3 0,E4 0,E5 0,E6 0}
DECL E6POS XP365={X 3160.34,Y 7159.15,Z 414.42,A 119.555,B 26.366,C -0.369,S 6,T 27,E1 -4800,E2 0,E3 0,E4 0,E5 0,E6 0}
DECL E6POS XMP81104305={X 3199.14,Y 7181.58,Z 414.9,A 119.555,B 26.366,C -0.369,S 6,T 27,E1 -4800,E2 0,E3 0,E4 0,E5 0,E6 0}
DECL E6POS XP370={X 3237.96,Y 7204.03,Z 415.37,A 119.555,B 26.366,C -0.369,S 6,T 27,E1 -4800,E2 0,E3 0,E4 0,E5 0,E6 0}
DECL E6POS XP375={X 3222.85,Y 7194.83,Z 326.33,A 120.282,B 26.39,C 0.384,S 6,T 27,E1 -4800,E2 0,E3 0,E4 0,E5 0,E6 0}
DECL E6POS XP380={X 3073.1,Y 7386.94,Z 301.48,A 120.125,B 26.392,C 0.029,S 6,T 27,E1 -4800,E2 0,E3 0,E4 0,E5 0,E6 0}
DECL E6POS XP385={X 3166.68,Y 7440.94,Z 395.93,A 119.769,B 26.362,C -0.509,S 6,T 27,E1 -4800,E2 0,E3 0,E4 0,E5 0,E6 0}
DECL E6POS XMP81204305={X 3128.31,Y 7418.76,Z 395.41,A 119.769,B 26.362,C -0.509,S 6,T 27,E1 -4800,E2 0,E3 0,E4 0,E5 0,E6 0}
DECL E6POS XP390={X 3089.85,Y 7396.51,Z 394.9,A 119.769,B 26.362,C -0.509,S 6,T 27,E1 -4800,E2 0,E3 0,E4 0,E5 0,E6 0}
DECL E6POS XP395={X 2959.65,Y 7312.56,Z 393.19,A 150.963,B 28.206,C 2.68,S 6,T 27,E1 -4800,E2 0,E3 0,E4 0,E5 0,E6 0}
DECL E6POS XMP81204304={X 2943.63,Y 7283.41,Z 394.26,A 150.963,B 28.206,C 2.68,S 6,T 27,E1 -4800,E2 0,E3 0,E4 0,E5 0,E6 0}
DECL E6POS XP400={X 2927.62,Y 7254.28,Z 395.3,A 150.963,B 28.206,C 2.68,S 6,T 27,E1 -4800,E2 0,E3 0,E4 0,E5 0,E6 0}
DECL E6POS XP405={X 2905.65,Y 7230.95,Z 395.84,A 120.05,B 26.383,C -0.154,S 6,T 27,E1 -4800,E2 0,E3 0,E4 0,E5 0,E6 0}
DECL E6POS XMP81204303={X 2879.84,Y 7216.05,Z 395.46,A 120.05,B 26.383,C -0.154,S 6,T 27,E1 -4800,E2 0,E3 0,E4 0,E5 0,E6 0}
DECL E6POS XP410={X 2854.03,Y 7201.13,Z 395.08,A 120.05,B 26.383,C -0.154,S 6,T 27,E1 -4800,E2 0,E3 0,E4 0,E5 0,E6 0}
DECL E6POS XP415={X 2840.11,Y 7194.06,Z 394.81,A 89.003,B 26.598,C -3.498,S 6,T 27,E1 -4800,E2 0,E3 0,E4 0,E5 0,E6 0}
DECL E6POS XMP81204302={X 2802.95,Y 7193.99,Z 392.78,A 89.003,B 26.598,C -3.498,S 6,T 27,E1 -4800,E2 0,E3 0,E4 0,E5 0,E6 0}
DECL E6POS XP420={X 2765.8,Y 7193.92,Z 390.75,A 89.003,B 26.598,C -3.498,S 6,T 27,E1 -4800,E2 0,E3 0,E4 0,E5 0,E6 0}
DECL E6POS XP425={X 2699.52,Y 7170.73,Z 388.74,A 119.604,B 26.384,C -0.675,S 6,T 27,E1 -4800,E2 0,E3 0,E4 0,E5 0,E6 0}
DECL E6POS XMP81204301={X 2658.91,Y 7147.24,Z 388.12,A 119.604,B 26.384,C -0.675,S 6,T 27,E1 -4800,E2 0,E3 0,E4 0,E5 0,E6 0}
DECL E6POS XP430={X 2618.28,Y 7123.74,Z 387.5,A 119.604,B 26.384,C -0.675,S 6,T 27,E1 -4800,E2 0,E3 0,E4 0,E5 0,E6 0}
DECL E6POS XP435={X 2551.9,Y 7067.79,Z 316.38,A 120.052,B 26.392,C -0.135,S 6,T 27,E1 -4800,E2 0,E3 0,E4 0,E5 0,E6 0}
DECL E6POS XP440={X 2545.91,Y 7360.1,Z 292.2,A 120.392,B 26.389,C 0.631,S 6,T 27,E1 -4800,E2 0,E3 0,E4 0,E5 0,E6 0}
DECL E6POS XP445={X 2563.25,Y 7370.1,Z 366.1,A 119.848,B 27.384,C -0.521,S 6,T 27,E1 -4800,E2 0,E3 0,E4 0,E5 0,E6 0}
DECL E6POS XMP81304301={X 2601.22,Y 7392.07,Z 366.71,A 119.837,B 28.384,C -0.526,S 6,T 27,E1 -4800,E2 0,E3 0,E4 0,E5 0,E6 0}
DECL E6POS XP450={X 2645.54,Y 7417.7,Z 367.43,A 119.848,B 27.384,C -0.521,S 6,T 27,E1 -4800,E2 0,E3 0,E4 0,E5 0,E6 0}
DECL E6POS XP455={X 2708.25,Y 7438.19,Z 369.8,A 89.016,B 26.469,C -3.839,S 6,T 27,E1 -4800,E2 0,E3 0,E4 0,E5 0,E6 0}
DECL E6POS XMP81304302={X 2743.49,Y 7438.5,Z 371.63,A 89.016,B 26.469,C -3.839,S 6,T 27,E1 -4800,E2 0,E3 0,E4 0,E5 0,E6 0}
DECL E6POS XP460={X 2778.72,Y 7438.81,Z 373.46,A 89.016,B 26.469,C -3.839,S 6,T 27,E1 -4800,E2 0,E3 0,E4 0,E5 0,E6 0}
DECL E6POS XP465={X 2794.2,Y 7444.28,Z 374.3,A 119.333,B 26.383,C -0.638,S 6,T 27,E1 -4800,E2 0,E3 0,E4 0,E5 0,E6 0}
DECL E6POS XMP81304303={X 2820.27,Y 7459.1,Z 374.6,A 119.333,B 26.383,C -0.638,S 6,T 27,E1 -4800,E2 0,E3 0,E4 0,E5 0,E6 0}
DECL E6POS XP470={X 2846.37,Y 7473.93,Z 374.89,A 119.333,B 26.383,C -0.638,S 6,T 27,E1 -4800,E2 0,E3 0,E4 0,E5 0,E6 0}
DECL E6POS XP475={X 2867.86,Y 7494.15,Z 374.65,A 151.352,B 26.025,C 2.571,S 6,T 27,E1 -4800,E2 0,E3 0,E4 0,E5 0,E6 0}
DECL E6POS XMP81304304={X 2883.47,Y 7522.29,Z 373.57,A 151.352,B 26.025,C 2.571,S 6,T 27,E1 -4800,E2 0,E3 0,E4 0,E5 0,E6 0}
DECL E6POS XP480={X 2899.07,Y 7550.42,Z 372.51,A 151.352,B 26.025,C 2.571,S 6,T 27,E1 -4800,E2 0,E3 0,E4 0,E5 0,E6 0}
DECL E6POS XP485={X 3033.95,Y 7642.4,Z 373.93,A 119.378,B 27.353,C 0.558,S 6,T 27,E1 -4800,E2 0,E3 0,E4 0,E5 0,E6 0}
DECL E6POS XMP81304305={X 3064.57,Y 7660.11,Z 374.38,A 119.378,B 27.353,C 0.558,S 6,T 27,E1 -4800,E2 0,E3 0,E4 0,E5 0,E6 0}
DECL E6POS XP490={X 3095.53,Y 7678.01,Z 374.84,A 119.378,B 27.353,C 0.558,S 6,T 27,E1 -4800,E2 0,E3 0,E4 0,E5 0,E6 0}
DECL E6POS XP495={X 3024.92,Y 7623.22,Z 279.84,A 118.863,B 26.346,C -2.734,S 6,T 27,E1 -4800,E2 0,E3 0,E4 0,E5 0,E6 0}
DECL E6POS XP500={X 2967.37,Y 7882.29,Z 258.16,A 120.125,B 26.392,C 0.029,S 6,T 27,E1 -4800,E2 0,E3 0,E4 0,E5 0,E6 0}
DECL E6POS XP505={X 3061,Y 7936.35,Z 352.69,A 119.898,B 28.359,C -0.928,S 6,T 27,E1 -4800,E2 0,E3 0,E4 0,E5 0,E6 0}
DECL E6POS XMP81404305={X 3022.59,Y 7914.13,Z 352.1,A 119.804,B 27.357,C -0.772,S 6,T 27,E1 -4800,E2 0,E3 0,E4 0,E5 0,E6 0}
DECL E6POS XP510={X 2984.16,Y 7891.9,Z 351.51,A 119.917,B 27.359,C -0.92,S 6,T 27,E1 -4800,E2 0,E3 0,E4 0,E5 0,E6 0}
DECL E6POS XP515={X 2841.65,Y 7795.39,Z 349.9,A 150.807,B 28.335,C 3.031,S 6,T 27,E1 -4800,E2 0,E3 0,E4 0,E5 0,E6 0}
DECL E6POS XMP81404304={X 2825.47,Y 7766.34,Z 351.13,A 150.807,B 28.335,C 3.031,S 6,T 27,E1 -4800,E2 0,E3 0,E4 0,E5 0,E6 0}
DECL E6POS XP520={X 2809.3,Y 7737.29,Z 352.37,A 150.807,B 28.335,C 3.031,S 6,T 27,E1 -4800,E2 0,E3 0,E4 0,E5 0,E6 0}
DECL E6POS XP525={X 2791.75,Y 7721.1,Z 352.71,A 119.938,B 26.383,C -0.338,S 6,T 27,E1 -4800,E2 0,E3 0,E4 0,E5 0,E6 0}
DECL E6POS XMP81404303={X 2765.92,Y 7706.2,Z 352.23,A 119.938,B 26.383,C -0.338,S 6,T 27,E1 -4800,E2 0,E3 0,E4 0,E5 0,E6 0}
DECL E6POS XP530={X 2740.1,Y 7691.3,Z 351.75,A 119.938,B 26.383,C -0.338,S 6,T 27,E1 -4800,E2 0,E3 0,E4 0,E5 0,E6 0}
DECL E6POS XP535={X 2719.99,Y 7683.93,Z 350.98,A 88.919,B 26.788,C -3.751,S 6,T 27,E1 -4800,E2 0,E3 0,E4 0,E5 0,E6 0}
DECL E6POS XMP81404302={X 2682.86,Y 7683.84,Z 348.81,A 88.919,B 26.788,C -3.751,S 6,T 27,E1 -4800,E2 0,E3 0,E4 0,E5 0,E6 0}
DECL E6POS XP540={X 2645.72,Y 7683.76,Z 346.64,A 88.919,B 26.788,C -3.751,S 6,T 27,E1 -4800,E2 0,E3 0,E4 0,E5 0,E6 0}
DECL E6POS XP545={X 2584.55,Y 7660.72,Z 344.51,A 119.927,B 27.387,C -0.616,S 6,T 27,E1 -4800,E2 0,E3 0,E4 0,E5 0,E6 0}
DECL E6POS XMP81404301={X 2544,Y 7637.26,Z 343.82,A 119.927,B 27.387,C -0.616,S 6,T 27,E1 -4800,E2 0,E3 0,E4 0,E5 0,E6 0}
DECL E6POS XP550={X 2503.42,Y 7613.78,Z 343.13,A 119.927,B 27.387,C -0.616,S 6,T 27,E1 -4800,E2 0,E3 0,E4 0,E5 0,E6 0}
DECL E6POS XP555={X 2467.96,Y 7562.47,Z 270.76,A 120.052,B 26.392,C -0.135,S 6,T 27,E1 -4800,E2 0,E3 0,E4 0,E5 0,E6 0}
DECL E6POS XP560={X 2393.12,Y 7828.46,Z 244.19,A 120.457,B 31.389,C 0.662,S 6,T 27,E1 -4800,E2 0,E3 0,E4 0,E5 0,E6 0}
DECL E6POS XP565={X 2448.43,Y 7860.35,Z 318.8,A 119.571,B 31.38,C -1.165,S 6,T 27,E1 -4800,E2 0,E3 0,E4 0,E5 0,E6 0}
DECL E6POS XMP81504301={X 2483.03,Y 7880.37,Z 319.42,A 119.571,B 31.38,C -1.165,S 6,T 27,E1 -4800,E2 0,E3 0,E4 0,E5 0,E6 0}
DECL E6POS XP570={X 2517.67,Y 7900.41,Z 320.03,A 119.571,B 31.38,C -1.165,S 6,T 27,E1 -4800,E2 0,E3 0,E4 0,E5 0,E6 0}
DECL E6POS XP575={X 2575.25,Y 7927.97,Z 321.49,A 89.531,B 31.542,C -4.814,S 6,T 27,E1 -4800,E2 0,E3 0,E4 0,E5 0,E6 0}
DECL E6POS XMP81504302={X 2610.44,Y 7929.09,Z 323.74,A 89.531,B 31.542,C -4.814,S 6,T 27,E1 -4800,E2 0,E3 0,E4 0,E5 0,E6 0}
DECL E6POS XP580={X 2645.64,Y 7930.2,Z 325.96,A 89.531,B 31.542,C -4.814,S 6,T 27,E1 -4800,E2 0,E3 0,E4 0,E5 0,E6 0}
DECL E6POS XP585={X 2681.57,Y 7936.11,Z 327.86,A 119.266,B 31.381,C -1.014,S 6,T 27,E1 -4800,E2 0,E3 0,E4 0,E5 0,E6 0}
DECL E6POS XMP81504303={X 2707.59,Y 7951.02,Z 328.32,A 119.266,B 31.381,C -1.014,S 6,T 27,E1 -4800,E2 0,E3 0,E4 0,E5 0,E6 0}
DECL E6POS XP590={X 2733.63,Y 7965.92,Z 328.78,A 119.266,B 31.381,C -1.014,S 6,T 27,E1 -4800,E2 0,E3 0,E4 0,E5 0,E6 0}
DECL E6POS XP595={X 2751.72,Y 7983.6,Z 328.34,A 150.438,B 31.161,C 2.878,S 6,T 27,E1 -4800,E2 0,E3 0,E4 0,E5 0,E6 0}
DECL E6POS XMP81504304={X 2767.94,Y 8011.39,Z 327.18,A 150.438,B 31.161,C 2.878,S 6,T 27,E1 -4800,E2 0,E3 0,E4 0,E5 0,E6 0}
DECL E6POS XP600={X 2784.18,Y 8039.18,Z 326.01,A 150.438,B 31.161,C 2.878,S 6,T 27,E1 -4800,E2 0,E3 0,E4 0,E5 0,E6 0}
DECL E6POS XP605={X 2918.67,Y 8132.42,Z 327.38,A 119.377,B 31.338,C -0.715,S 6,T 27,E1 -4800,E2 0,E3 0,E4 0,E5 0,E6 0}
DECL E6POS XMP81504305={X 2949.36,Y 8150.17,Z 327.88,A 119.377,B 31.338,C -0.715,S 6,T 27,E1 -4800,E2 0,E3 0,E4 0,E5 0,E6 0}
DECL E6POS XP610={X 2979.92,Y 8167.85,Z 328.37,A 119.377,B 31.338,C -0.715,S 6,T 27,E1 -4800,E2 0,E3 0,E4 0,E5 0,E6 0}
DECL E6POS XP615={X 2922.79,Y 8116.13,Z 233.67,A 118.584,B 31.34,C -2.869,S 6,T 27,E1 -4800,E2 0,E3 0,E4 0,E5 0,E6 0}
DECL E6POS XP620={X 2201,Y 7272.93,Z 209.43,A 116.715,B 27.784,C -5.167,S 6,T 27,E1 -3900,E2 0,E3 0,E4 0,E5 0,E6 0}
DECL E6POS XP625={X 1674.56,Y 6299.79,Z 230.05,A 119.131,B 26.379,C -2.208,S 6,T 27,E1 -3900,E2 0,E3 0,E4 0,E5 0,E6 0}
DECL E6POS XP630={X 1804.07,Y 6374.9,Z 393.46,A 119.825,B 26.374,C -0.227,S 6,T 27,E1 -3900,E2 0,E3 0,E4 0,E5 0,E6 0}
DECL E6POS XMP81103301={X 1841.98,Y 6396.57,Z 394.05,A 119.825,B 26.374,C -0.227,S 6,T 27,E1 -3900,E2 0,E3 0,E4 0,E5 0,E6 0}
DECL E6POS XP635={X 1879.86,Y 6418.25,Z 394.65,A 119.825,B 26.374,C -0.227,S 6,T 27,E1 -3900,E2 0,E3 0,E4 0,E5 0,E6 0}
DECL E6POS XP640={X 1933.96,Y 6441.58,Z 396.09,A 88.926,B 26.18,C -3.622,S 6,T 27,E1 -3900,E2 0,E3 0,E4 0,E5 0,E6 0}
DECL E6POS XMP81103302={X 1966.41,Y 6441.87,Z 397.92,A 88.926,B 26.18,C -3.622,S 6,T 27,E1 -3900,E2 0,E3 0,E4 0,E5 0,E6 0}
DECL E6POS XP645={X 1998.85,Y 6442.16,Z 399.77,A 88.926,B 26.18,C -3.622,S 6,T 27,E1 -3900,E2 0,E3 0,E4 0,E5 0,E6 0}
DECL E6POS XP650={X 1999.92,Y 6442.91,Z 399.45,A 119.806,B 26.382,C -0.791,S 6,T 27,E1 -3900,E2 0,E3 0,E4 0,E5 0,E6 0}
DECL E6POS XMP81103303={X 2027.14,Y 6458.59,Z 400.15,A 119.806,B 26.382,C -0.791,S 6,T 27,E1 -3900,E2 0,E3 0,E4 0,E5 0,E6 0}
DECL E6POS XP655={X 2054.35,Y 6474.26,Z 400.85,A 119.806,B 26.382,C -0.791,S 6,T 27,E1 -3900,E2 0,E3 0,E4 0,E5 0,E6 0}
DECL E6POS XP660={X 2059.58,Y 6477.11,Z 400.78,A 150.814,B 27.048,C 2.125,S 6,T 27,E1 -3900,E2 0,E3 0,E4 0,E5 0,E6 0}
DECL E6POS XMP81103304={X 2075.9,Y 6505.19,Z 399.7,A 150.814,B 27.048,C 2.125,S 6,T 27,E1 -3900,E2 0,E3 0,E4 0,E5 0,E6 0}
DECL E6POS XP665={X 2092.21,Y 6533.28,Z 398.63,A 150.814,B 27.048,C 2.125,S 6,T 27,E1 -3900,E2 0,E3 0,E4 0,E5 0,E6 0}
DECL E6POS XP670={X 2203.87,Y 6605.96,Z 400.77,A 119.697,B 26.364,C 0.008,S 6,T 27,E1 -3900,E2 0,E3 0,E4 0,E5 0,E6 0}
DECL E6POS XMP81103305={X 2242.73,Y 6628.43,Z 401.36,A 119.697,B 26.364,C 0.008,S 6,T 27,E1 -3900,E2 0,E3 0,E4 0,E5 0,E6 0}
DECL E6POS XP675={X 2281.33,Y 6650.76,Z 401.94,A 119.697,B 26.364,C 0.008,S 6,T 27,E1 -3900,E2 0,E3 0,E4 0,E5 0,E6 0}
DECL E6POS XP680={X 2261.37,Y 6638.56,Z 309.27,A 120.282,B 26.39,C 0.384,S 6,T 27,E1 -3900,E2 0,E3 0,E4 0,E5 0,E6 0}
DECL E6POS XP685={X 2147.54,Y 6851.56,Z 287.37,A 120.125,B 26.392,C 0.029,S 6,T 27,E1 -3900,E2 0,E3 0,E4 0,E5 0,E6 0}
DECL E6POS XP690={X 2241.2,Y 6905.64,Z 381.93,A 119.892,B 26.372,C -0.939,S 6,T 27,E1 -3900,E2 0,E3 0,E4 0,E5 0,E6 0}
DECL E6POS XMP81203305={X 2202.74,Y 6883.39,Z 381.3,A 119.892,B 26.372,C -0.939,S 6,T 27,E1 -3900,E2 0,E3 0,E4 0,E5 0,E6 0}
DECL E6POS XP695={X 2165.15,Y 6861.64,Z 380.7,A 119.892,B 26.372,C -0.939,S 6,T 27,E1 -3900,E2 0,E3 0,E4 0,E5 0,E6 0}
DECL E6POS XP700={X 2065.87,Y 6797.9,Z 378.67,A 150.492,B 28.148,C 2.766,S 6,T 27,E1 -3900,E2 0,E3 0,E4 0,E5 0,E6 0}
DECL E6POS XMP81203304={X 2049.6,Y 6768.9,Z 379.77,A 150.492,B 28.148,C 2.766,S 6,T 27,E1 -3900,E2 0,E3 0,E4 0,E5 0,E6 0}
DECL E6POS XP705={X 2033.33,Y 6739.9,Z 380.87,A 150.492,B 28.148,C 2.766,S 6,T 27,E1 -3900,E2 0,E3 0,E4 0,E5 0,E6 0}
DECL E6POS XP710={X 2028.09,Y 6737.61,Z 380.96,A 119.938,B 26.383,C -0.695,S 6,T 27,E1 -3900,E2 0,E3 0,E4 0,E5 0,E6 0}
DECL E6POS XMP81203303={X 2002.31,Y 6722.64,Z 380.32,A 119.938,B 26.383,C -1.702,S 6,T 27,E1 -3900,E2 0,E3 0,E4 0,E5 0,E6 0}
DECL E6POS XP715={X 1976.53,Y 6707.67,Z 379.69,A 119.938,B 26.383,C -0.695,S 6,T 27,E1 -3900,E2 0,E3 0,E4 0,E5 0,E6 0}
DECL E6POS XP720={X 1973.71,Y 6705.69,Z 379.8,A 90.256,B 26.275,C -3.584,S 6,T 27,E1 -3900,E2 0,E3 0,E4 0,E5 0,E6 0}
DECL E6POS XMP81203302={X 1936.59,Y 6704.79,Z 377.71,A 90.256,B 26.275,C -3.584,S 6,T 27,E1 -3900,E2 0,E3 0,E4 0,E5 0,E6 0}
DECL E6POS XP725={X 1899.46,Y 6703.91,Z 375.63,A 90.256,B 26.275,C -3.584,S 6,T 27,E1 -3900,E2 0,E3 0,E4 0,E5 0,E6 0}
DECL E6POS XP730={X 1853.32,Y 6681.21,Z 374.5,A 119.604,B 26.384,C -0.675,S 6,T 27,E1 -3900,E2 0,E3 0,E4 0,E5 0,E6 0}
DECL E6POS XMP81203301={X 1812.89,Y 6657.81,Z 373.76,A 119.604,B 26.384,C -0.675,S 6,T 27,E1 -3900,E2 0,E3 0,E4 0,E5 0,E6 0}
DECL E6POS XP735={X 1772.29,Y 6634.32,Z 373.01,A 119.604,B 26.384,C -0.675,S 6,T 27,E1 -3900,E2 0,E3 0,E4 0,E5 0,E6 0}
DECL E6POS XP740={X 1688.28,Y 6581.36,Z 301.6,A 120.052,B 26.392,C -0.135,S 6,T 27,E1 -3900,E2 0,E3 0,E4 0,E5 0,E6 0}
DECL E6POS XP745={X 1690.52,Y 6865.27,Z 276.73,A 120.392,B 26.389,C 0.631,S 6,T 27,E1 -3900,E2 0,E3 0,E4 0,E5 0,E6 0}
DECL E6POS XP750={X 1745.85,Y 6897.19,Z 351.3,A 119.285,B 27.378,C -1.08,S 6,T 27,E1 -3900,E2 0,E3 0,E4 0,E5 0,E6 0}
DECL E6POS XMP81303301={X 1780.45,Y 6917.21,Z 351.98,A 119.285,B 27.378,C -1.08,S 6,T 27,E1 -3900,E2 0,E3 0,E4 0,E5 0,E6 0}
DECL E6POS XP755={X 1815.06,Y 6937.23,Z 352.65,A 119.285,B 27.378,C -1.08,S 6,T 27,E1 -3900,E2 0,E3 0,E4 0,E5 0,E6 0}
DECL E6POS XP760={X 1878.26,Y 6964.2,Z 354.74,A 88.703,B 26.19,C -4.147,S 6,T 27,E1 -3900,E2 0,E3 0,E4 0,E5 0,E6 0}
DECL E6POS XMP81303302={X 1913.48,Y 6964.4,Z 356.76,A 88.703,B 26.19,C -4.147,S 6,T 27,E1 -3900,E2 0,E3 0,E4 0,E5 0,E6 0}
DECL E6POS XP765={X 1948.72,Y 6964.58,Z 358.76,A 88.703,B 26.19,C -4.147,S 6,T 27,E1 -3900,E2 0,E3 0,E4 0,E5 0,E6 0}
DECL E6POS XP770={X 1949.67,Y 6967.04,Z 359.13,A 119.891,B 26.387,C -0.39,S 6,T 27,E1 -3900,E2 0,E3 0,E4 0,E5 0,E6 0}
DECL E6POS XMP81303303={X 1975.63,Y 6982.07,Z 359.31,A 119.891,B 26.387,C -0.39,S 6,T 27,E1 -3900,E2 0,E3 0,E4 0,E5 0,E6 0}
DECL E6POS XP775={X 2001.59,Y 6997.1,Z 359.49,A 119.891,B 26.387,C -0.39,S 6,T 27,E1 -3900,E2 0,E3 0,E4 0,E5 0,E6 0}
DECL E6POS XP780={X 2008.48,Y 7003.18,Z 359.75,A 150.286,B 26.153,C 2.685,S 6,T 27,E1 -3900,E2 0,E3 0,E4 0,E5 0,E6 0}
DECL E6POS XMP81303304={X 2024.65,Y 7031.01,Z 358.62,A 150.286,B 26.153,C 2.685,S 6,T 27,E1 -3900,E2 0,E3 0,E4 0,E5 0,E6 0}
DECL E6POS XP785={X 2040.8,Y 7058.85,Z 357.49,A 150.338,B 27.152,C 2.708,S 6,T 27,E1 -3900,E2 0,E3 0,E4 0,E5 0,E6 0}
DECL E6POS XP790={X 2137.23,Y 7123.67,Z 359.34,A 119.31,B 27.331,C -0.285,S 6,T 27,E1 -3900,E2 0,E3 0,E4 0,E5 0,E6 0}
DECL E6POS XMP81303305={X 2167.8,Y 7141.36,Z 359.88,A 119.31,B 27.331,C -0.285,S 6,T 27,E1 -3900,E2 0,E3 0,E4 0,E5 0,E6 0}
DECL E6POS XP795={X 2198.41,Y 7159.07,Z 360.42,A 119.31,B 27.331,C -0.285,S 6,T 27,E1 -3900,E2 0,E3 0,E4 0,E5 0,E6 0}
DECL E6POS XP800={X 2143.1,Y 7129.87,Z 262.11,A 118.863,B 26.346,C -2.734,S 6,T 27,E1 -3900,E2 0,E3 0,E4 0,E5 0,E6 0}
DECL E6POS XP805={X 2102.93,Y 7382.22,Z 243.53,A 120.125,B 26.392,C 0.029,S 6,T 27,E1 -3900,E2 0,E3 0,E4 0,E5 0,E6 0}
DECL E6POS XP810={X 2198.21,Y 7437.23,Z 338.19,A 119.837,B 28.358,C -2.495,S 6,T 27,E1 -3900,E2 0,E3 0,E4 0,E5 0,E6 0}
DECL E6POS XMP81403305={X 2158.16,Y 7414.06,Z 337.47,A 119.662,B 27.355,C -0.876,S 6,T 27,E1 -3900,E2 0,E3 0,E4 0,E5 0,E6 0}
DECL E6POS XP815={X 2119.32,Y 7391.59,Z 336.78,A 119.837,B 28.358,C -2.495,S 6,T 27,E1 -3900,E2 0,E3 0,E4 0,E5 0,E6 0}
DECL E6POS XP820={X 2011.19,Y 7323.29,Z 334.36,A 149.889,B 28.33,C 3.163,S 6,T 27,E1 -3900,E2 0,E3 0,E4 0,E5 0,E6 0}
DECL E6POS XMP81403304={X 1994.53,Y 7294.53,Z 335.65,A 149.889,B 28.33,C 3.163,S 6,T 27,E1 -3900,E2 0,E3 0,E4 0,E5 0,E6 0}
DECL E6POS XP825={X 1977.86,Y 7265.77,Z 336.95,A 149.889,B 28.33,C 3.163,S 6,T 27,E1 -3900,E2 0,E3 0,E4 0,E5 0,E6 0}
DECL E6POS XP830={X 1973.42,Y 7264.94,Z 336.65,A 119.924,B 28.384,C -0.344,S 6,T 27,E1 -3900,E2 0,E3 0,E4 0,E5 0,E6 0}
DECL E6POS XMP81403303={X 1947.58,Y 7250.02,Z 336.18,A 119.911,B 27.383,C -1.371,S 6,T 27,E1 -3900,E2 0,E3 0,E4 0,E5 0,E6 0}
DECL E6POS XP835={X 1921.76,Y 7235.11,Z 335.71,A 119.931,B 27.383,C -0.341,S 6,T 27,E1 -3900,E2 0,E3 0,E4 0,E5 0,E6 0}
DECL E6POS XP840={X 1925.94,Y 7233.93,Z 336.29,A 90.235,B 26.39,C -4.506,S 6,T 27,E1 -3900,E2 0,E3 0,E4 0,E5 0,E6 0}
DECL E6POS XMP81403302={X 1888.86,Y 7232.77,Z 333.67,A 90.235,B 26.39,C -4.506,S 6,T 27,E1 -3900,E2 0,E3 0,E4 0,E5 0,E6 0}
DECL E6POS XP845={X 1851.77,Y 7231.63,Z 331.05,A 90.235,B 26.39,C -4.506,S 6,T 27,E1 -3900,E2 0,E3 0,E4 0,E5 0,E6 0}
DECL E6POS XP850={X 1804.23,Y 7209.23,Z 329.98,A 119.914,B 28.387,C -0.622,S 6,T 27,E1 -3900,E2 0,E3 0,E4 0,E5 0,E6 0}
DECL E6POS XMP81403301={X 1763.67,Y 7185.76,Z 329.13,A 119.459,B 28.382,C -0.938,S 6,T 27,E1 -3900,E2 0,E3 0,E4 0,E5 0,E6 0}
DECL E6POS XP855={X 1723.1,Y 7162.28,Z 328.29,A 119.914,B 28.387,C -0.622,S 6,T 27,E1 -3900,E2 0,E3 0,E4 0,E5 0,E6 0}
DECL E6POS XP860={X 1660.6,Y 7112.3,Z 255.35,A 120.052,B 26.392,C -0.135,S 6,T 27,E1 -3900,E2 0,E3 0,E4 0,E5 0,E6 0}
DECL E6POS XP865={X 1644.48,Y 7395.26,Z 229.54,A 120.457,B 31.389,C 0.662,S 6,T 27,E1 -3900,E2 0,E3 0,E4 0,E5 0,E6 0}
DECL E6POS XP870={X 1699.77,Y 7427.14,Z 304.03,A 119.805,B 31.384,C -0.543,S 6,T 27,E1 -3900,E2 0,E3 0,E4 0,E5 0,E6 0}
DECL E6POS XMP81503301={X 1734.4,Y 7447.18,Z 304.77,A 119.805,B 31.384,C -0.543,S 6,T 27,E1 -3900,E2 0,E3 0,E4 0,E5 0,E6 0}
DECL E6POS XP875={X 1768.99,Y 7467.2,Z 305.51,A 119.805,B 31.384,C -0.543,S 6,T 27,E1 -3900,E2 0,E3 0,E4 0,E5 0,E6 0}
DECL E6POS XP880={X 1822.02,Y 7490.74,Z 307.18,A 88.652,B 31.191,C -5.119,S 6,T 27,E1 -3900,E2 0,E3 0,E4 0,E5 0,E6 0}
DECL E6POS XMP81503302={X 1857.22,Y 7491.4,Z 309.59,A 88.652,B 31.191,C -5.119,S 6,T 27,E1 -3900,E2 0,E3 0,E4 0,E5 0,E6 0}
DECL E6POS XP885={X 1892.41,Y 7492.06,Z 311.98,A 88.652,B 31.191,C -5.119,S 6,T 27,E1 -3900,E2 0,E3 0,E4 0,E5 0,E6 0}
DECL E6POS XP890={X 1896.47,Y 7494.43,Z 311.94,A 119.149,B 31.372,C -1.475,S 6,T 27,E1 -3900,E2 0,E3 0,E4 0,E5 0,E6 0}
DECL E6POS XMP81503303={X 1922.46,Y 7509.38,Z 312.6,A 119.149,B 31.372,C -1.475,S 6,T 27,E1 -3900,E2 0,E3 0,E4 0,E5 0,E6 0}
DECL E6POS XP895={X 1948.45,Y 7524.35,Z 313.27,A 119.149,B 31.372,C -1.475,S 6,T 27,E1 -3900,E2 0,E3 0,E4 0,E5 0,E6 0}
DECL E6POS XP900={X 1952.77,Y 7527.61,Z 313.17,A 149.716,B 30.36,C 3.054,S 6,T 27,E1 -3900,E2 0,E3 0,E4 0,E5 0,E6 0}
DECL E6POS XMP81503304={X 1969.36,Y 7555.15,Z 311.91,A 149.716,B 30.36,C 3.054,S 6,T 27,E1 -3900,E2 0,E3 0,E4 0,E5 0,E6 0}
DECL E6POS XP905={X 1985.97,Y 7582.71,Z 310.65,A 149.716,B 30.36,C 3.054,S 6,T 27,E1 -3900,E2 0,E3 0,E4 0,E5 0,E6 0}
DECL E6POS XP910={X 2085.54,Y 7650.41,Z 312.57,A 119.605,B 31.336,C -1.147,S 6,T 27,E1 -3900,E2 0,E3 0,E4 0,E5 0,E6 0}
DECL E6POS XMP81503305={X 2116.32,Y 7668.22,Z 313.14,A 119.605,B 31.336,C -1.147,S 6,T 27,E1 -3900,E2 0,E3 0,E4 0,E5 0,E6 0}
DECL E6POS XP915={X 2146.82,Y 7685.87,Z 313.71,A 119.605,B 31.336,C -1.147,S 6,T 27,E1 -3900,E2 0,E3 0,E4 0,E5 0,E6 0}
DECL E6POS XP920={X 2088.38,Y 7646.38,Z 215.19,A 118.584,B 31.34,C -2.869,S 6,T 27,E1 -3900,E2 0,E3 0,E4 0,E5 0,E6 0}
DECL E6POS XP925={X 1221.85,Y 6661.5,Z -33.44,A 116.43,B 21.68,C -1.161,S 6,T 27,E1 -2800,E2 0,E3 0,E4 0,E5 0,E6 0}
DECL E6POS XP930={X 675.14,Y 5721.5,Z 210.81,A 119.131,B 26.379,C -2.208,S 6,T 27,E1 -2800,E2 0,E3 0,E4 0,E5 0,E6 0}
DECL E6POS XP935={X 804.78,Y 5796.42,Z 374.06,A 119.825,B 26.374,C -0.227,S 6,T 27,E1 -2800,E2 0,E3 0,E4 0,E5 0,E6 0}
DECL E6POS XMP81102301={X 842.55,Y 5818.28,Z 374.81,A 119.825,B 26.374,C -1.291,S 6,T 27,E1 -2800,E2 0,E3 0,E4 0,E5 0,E6 0}
DECL E6POS XP940={X 880.35,Y 5840.15,Z 375.56,A 119.825,B 26.374,C -0.227,S 6,T 27,E1 -2800,E2 0,E3 0,E4 0,E5 0,E6 0}
DECL E6POS XP945={X 925.43,Y 5860.21,Z 376.86,A 90.677,B 26.999,C -3.611,S 6,T 27,E1 -2800,E2 0,E3 0,E4 0,E5 0,E6 0}
DECL E6POS XMP81102302={X 957.84,Y 5861.52,Z 378.69,A 90.677,B 26.999,C -3.611,S 6,T 27,E1 -2800,E2 0,E3 0,E4 0,E5 0,E6 0}
DECL E6POS XP950={X 990.26,Y 5862.83,Z 380.51,A 90.677,B 26.999,C -3.611,S 6,T 27,E1 -2800,E2 0,E3 0,E4 0,E5 0,E6 0}
DECL E6POS XP955={X 998,Y 5865.49,Z 381.03,A 119.471,B 26.378,C -0.105,S 6,T 27,E1 -2800,E2 0,E3 0,E4 0,E5 0,E6 0}
DECL E6POS XMP81102303={X 1025.39,Y 5880.86,Z 381.39,A 119.471,B 26.378,C -0.105,S 6,T 27,E1 -2800,E2 0,E3 0,E4 0,E5 0,E6 0}
DECL E6POS XP960={X 1052.78,Y 5896.24,Z 381.76,A 119.471,B 26.378,C -0.105,S 6,T 27,E1 -2800,E2 0,E3 0,E4 0,E5 0,E6 0}
DECL E6POS XP965={X 1059.4,Y 5900.82,Z 381.95,A 150.638,B 27.034,C 1.903,S 6,T 27,E1 -2800,E2 0,E3 0,E4 0,E5 0,E6 0}
DECL E6POS XMP81102304={X 1075.76,Y 5928.89,Z 380.99,A 150.638,B 27.034,C 1.903,S 6,T 27,E1 -2800,E2 0,E3 0,E4 0,E5 0,E6 0}
DECL E6POS XP970={X 1092.12,Y 5956.97,Z 380.02,A 150.638,B 27.034,C 1.903,S 6,T 27,E1 -2800,E2 0,E3 0,E4 0,E5 0,E6 0}
DECL E6POS XP975={X 1199.06,Y 6024.61,Z 382.63,A 119.294,B 26.364,C -0.785,S 6,T 27,E1 -2800,E2 0,E3 0,E4 0,E5 0,E6 0}
DECL E6POS XMP81102305={X 1237.86,Y 6047.06,Z 383.32,A 119.294,B 26.364,C -0.785,S 6,T 27,E1 -2800,E2 0,E3 0,E4 0,E5 0,E6 0}
DECL E6POS XP980={X 1276.96,Y 6069.68,Z 384.01,A 119.294,B 26.364,C -0.785,S 6,T 27,E1 -2800,E2 0,E3 0,E4 0,E5 0,E6 0}
DECL E6POS XP985={X 1245.33,Y 6050.92,Z 292.19,A 120.282,B 26.39,C 0.384,S 6,T 27,E1 -2800,E2 0,E3 0,E4 0,E5 0,E6 0}
DECL E6POS XP990={X 1163.75,Y 6282.32,Z 268.58,A 120.125,B 26.392,C 0.029,S 6,T 27,E1 -2800,E2 0,E3 0,E4 0,E5 0,E6 0}
DECL E6POS XP995={X 1256.86,Y 6336.09,Z 363.25,A 119.769,B 26.362,C -1.977,S 6,T 27,E1 -2800,E2 0,E3 0,E4 0,E5 0,E6 0}
DECL E6POS XMP81202305={X 1218.95,Y 6314.16,Z 362.51,A 119.769,B 26.362,C -1.977,S 6,T 27,E1 -2800,E2 0,E3 0,E4 0,E5 0,E6 0}
DECL E6POS XP1000={X 1180.74,Y 6292.05,Z 361.76,A 119.769,B 26.362,C -1.977,S 6,T 27,E1 -2800,E2 0,E3 0,E4 0,E5 0,E6 0}
DECL E6POS XP1005={X 1077.07,Y 6226.27,Z 359.13,A 150.836,B 28.314,C 2.77,S 6,T 27,E1 -2800,E2 0,E3 0,E4 0,E5 0,E6 0}
DECL E6POS XMP81202304={X 1060.96,Y 6197.18,Z 360.23,A 150.836,B 28.314,C 2.77,S 6,T 27,E1 -2800,E2 0,E3 0,E4 0,E5 0,E6 0}
DECL E6POS XP1010={X 1044.86,Y 6168.09,Z 361.31,A 150.836,B 28.314,C 2.77,S 6,T 27,E1 -2800,E2 0,E3 0,E4 0,E5 0,E6 0}
DECL E6POS XP1015={X 1033.86,Y 6160.38,Z 361.19,A 120.496,B 26.36,C -0.146,S 6,T 27,E1 -2800,E2 0,E3 0,E4 0,E5 0,E6 0}
DECL E6POS XMP81202303={X 1008.16,Y 6145.27,Z 360.8,A 120.496,B 26.36,C -0.146,S 6,T 27,E1 -2800,E2 0,E3 0,E4 0,E5 0,E6 0}
DECL E6POS XP1020={X 982.47,Y 6130.16,Z 360.43,A 120.496,B 26.36,C -0.146,S 6,T 27,E1 -2800,E2 0,E3 0,E4 0,E5 0,E6 0}
DECL E6POS XP1025={X 973.49,Y 6126.19,Z 360.15,A 88.86,B 26.395,C -4.309,S 6,T 27,E1 -2800,E2 0,E3 0,E4 0,E5 0,E6 0}
DECL E6POS XMP81202302={X 936.37,Y 6125.98,Z 357.65,A 88.86,B 26.395,C -4.309,S 6,T 27,E1 -2800,E2 0,E3 0,E4 0,E5 0,E6 0}
DECL E6POS XP1030={X 899.26,Y 6125.78,Z 355.15,A 88.86,B 26.395,C -4.309,S 6,T 27,E1 -2800,E2 0,E3 0,E4 0,E5 0,E6 0}
DECL E6POS XP1035={X 847.39,Y 6099.1,Z 354.01,A 119.939,B 26.387,C 0.677,S 6,T 27,E1 -2800,E2 0,E3 0,E4 0,E5 0,E6 0}
DECL E6POS XMP81202301={X 806.82,Y 6075.62,Z 353.15,A 119.492,B 26.383,C -0.724,S 6,T 27,E1 -2800,E2 0,E3 0,E4 0,E5 0,E6 0}
DECL E6POS XP1040={X 766.32,Y 6052.18,Z 352.31,A 119.939,B 26.387,C 0.677,S 6,T 27,E1 -2800,E2 0,E3 0,E4 0,E5 0,E6 0}
DECL E6POS XP1045={X 704.7,Y 6006.5,Z 282.87,A 120.052,B 26.392,C -0.135,S 6,T 27,E1 -2800,E2 0,E3 0,E4 0,E5 0,E6 0}
DECL E6POS XP1050={X 700.29,Y 6292.2,Z 255.49,A 120.392,B 26.389,C 0.631,S 6,T 27,E1 -2800,E2 0,E3 0,E4 0,E5 0,E6 0}
DECL E6POS XP1055={X 755.6,Y 6324.1,Z 329.97,A 119.858,B 26.384,C -0.517,S 6,T 27,E1 -2800,E2 0,E3 0,E4 0,E5 0,E6 0}
DECL E6POS XMP81302301={X 790.22,Y 6344.13,Z 330.72,A 119.3,B 26.378,C -0.965,S 6,T 27,E1 -2800,E2 0,E3 0,E4 0,E5 0,E6 0}
DECL E6POS XP1060={X 824.77,Y 6364.13,Z 331.47,A 119.858,B 26.384,C -0.517,S 6,T 27,E1 -2800,E2 0,E3 0,E4 0,E5 0,E6 0}
DECL E6POS XP1065={X 883.83,Y 6389.19,Z 333.45,A 88.05,B 26.459,C -4.825,S 6,T 27,E1 -2800,E2 0,E3 0,E4 0,E5 0,E6 0}
DECL E6POS XMP81302302={X 919.04,Y 6389.17,Z 335.81,A 88.05,B 26.459,C -4.825,S 6,T 27,E1 -2800,E2 0,E3 0,E4 0,E5 0,E6 0}
DECL E6POS XP1070={X 954.23,Y 6389.15,Z 338.18,A 88.05,B 26.459,C -4.825,S 6,T 27,E1 -2800,E2 0,E3 0,E4 0,E5 0,E6 0}
DECL E6POS XP1075={X 962.91,Y 6392.15,Z 338.04,A 119.11,B 26.362,C -2.237,S 6,T 27,E1 -2800,E2 0,E3 0,E4 0,E5 0,E6 0}
DECL E6POS XMP81302303={X 988.86,Y 6407.19,Z 339.09,A 119.11,B 26.362,C -2.237,S 6,T 27,E1 -2800,E2 0,E3 0,E4 0,E5 0,E6 0}
DECL E6POS XP1080={X 1014.77,Y 6422.24,Z 340.14,A 119.11,B 26.362,C -2.237,S 6,T 27,E1 -2800,E2 0,E3 0,E4 0,E5 0,E6 0}
DECL E6POS XP1085={X 1029.28,Y 6434.01,Z 339.63,A 151.245,B 26.227,C 2.745,S 6,T 27,E1 -2800,E2 0,E3 0,E4 0,E5 0,E6 0}
DECL E6POS XMP81302304={X 1044.99,Y 6462.1,Z 338.46,A 151.245,B 26.227,C 2.745,S 6,T 27,E1 -2800,E2 0,E3 0,E4 0,E5 0,E6 0}
DECL E6POS XP1090={X 1060.69,Y 6490.2,Z 337.3,A 151.298,B 27.226,C 2.77,S 6,T 27,E1 -2800,E2 0,E3 0,E4 0,E5 0,E6 0}
DECL E6POS XP1095={X 1165.5,Y 6561.36,Z 339.7,A 119.304,B 27.324,C -0.662,S 6,T 27,E1 -2800,E2 0,E3 0,E4 0,E5 0,E6 0}
DECL E6POS XMP81302305={X 1196.06,Y 6579.05,Z 340.32,A 119.304,B 27.324,C -0.662,S 6,T 27,E1 -2800,E2 0,E3 0,E4 0,E5 0,E6 0}
DECL E6POS XP1100={X 1226.63,Y 6596.74,Z 340.95,A 119.304,B 27.324,C -0.662,S 6,T 27,E1 -2800,E2 0,E3 0,E4 0,E5 0,E6 0}
DECL E6POS XP1105={X 1160.55,Y 6559.68,Z 243.17,A 118.863,B 26.346,C -2.734,S 6,T 27,E1 -2800,E2 0,E3 0,E4 0,E5 0,E6 0}
DECL E6POS XP1110={X 1123.98,Y 6815.68,Z 223.08,A 120.125,B 26.392,C 0.029,S 6,T 27,E1 -2800,E2 0,E3 0,E4 0,E5 0,E6 0}
DECL E6POS XP1115={X 1217.66,Y 6869.79,Z 317.81,A 118.883,B 28.312,C -0.826,S 6,T 27,E1 -2800,E2 0,E3 0,E4 0,E5 0,E6 0}
DECL E6POS XMP81402305={X 1179.21,Y 6847.54,Z 317.02,A 118.883,B 28.312,C -0.826,S 6,T 27,E1 -2800,E2 0,E3 0,E4 0,E5 0,E6 0}
DECL E6POS XP1120={X 1140.8,Y 6825.31,Z 316.22,A 118.883,B 28.312,C -0.826,S 6,T 27,E1 -2800,E2 0,E3 0,E4 0,E5 0,E6 0}
DECL E6POS XP1125={X 1045.5,Y 6759,Z 314.06,A 151.174,B 28.46,C 3.141,S 6,T 27,E1 -2800,E2 0,E3 0,E4 0,E5 0,E6 0}
DECL E6POS XMP81402304={X 1029.48,Y 6729.86,Z 315.35,A 151.174,B 28.46,C 3.141,S 6,T 27,E1 -2800,E2 0,E3 0,E4 0,E5 0,E6 0}
DECL E6POS XP1130={X 1013.47,Y 6700.74,Z 316.63,A 151.174,B 28.46,C 3.141,S 6,T 27,E1 -2800,E2 0,E3 0,E4 0,E5 0,E6 0}
DECL E6POS XP1135={X 999.36,Y 6688.1,Z 316.66,A 119.931,B 27.383,C -0.341,S 6,T 27,E1 -2800,E2 0,E3 0,E4 0,E5 0,E6 0}
DECL E6POS XMP81402303={X 973.53,Y 6673.19,Z 316.18,A 119.938,B 26.383,C -0.338,S 6,T 27,E1 -2800,E2 0,E3 0,E4 0,E5 0,E6 0}
DECL E6POS XP1140={X 947.71,Y 6658.3,Z 315.72,A 119.938,B 26.383,C -0.338,S 6,T 27,E1 -2800,E2 0,E3 0,E4 0,E5 0,E6 0}
DECL E6POS XP1145={X 937.25,Y 6654.37,Z 315.21,A 88.942,B 26.679,C -4.477,S 6,T 27,E1 -2800,E2 0,E3 0,E4 0,E5 0,E6 0}
DECL E6POS XMP81402302={X 900.16,Y 6654.02,Z 312.62,A 88.942,B 26.679,C -4.477,S 6,T 27,E1 -2800,E2 0,E3 0,E4 0,E5 0,E6 0}
DECL E6POS XP1150={X 863.05,Y 6653.71,Z 310.01,A 88.942,B 26.679,C -4.477,S 6,T 27,E1 -2800,E2 0,E3 0,E4 0,E5 0,E6 0}
DECL E6POS XP1155={X 807.5,Y 6632.36,Z 307.92,A 119.927,B 27.387,C -0.616,S 6,T 27,E1 -2800,E2 0,E3 0,E4 0,E5 0,E6 0}
DECL E6POS XMP81402301={X 767.01,Y 6608.92,Z 307.01,A 119.493,B 26.382,C -0.809,S 6,T 27,E1 -2800,E2 0,E3 0,E4 0,E5 0,E6 0}
DECL E6POS XP1160={X 726.39,Y 6585.41,Z 306.11,A 119.939,B 26.387,C -0.611,S 6,T 27,E1 -2800,E2 0,E3 0,E4 0,E5 0,E6 0}
DECL E6POS XP1165={X 702.19,Y 6551.91,Z 235.59,A 120.052,B 26.392,C -0.135,S 6,T 27,E1 -2800,E2 0,E3 0,E4 0,E5 0,E6 0}
DECL E6POS XP1170={X 677.43,Y 6835.53,Z 207.5,A 120.457,B 31.389,C 0.662,S 6,T 27,E1 -2800,E2 0,E3 0,E4 0,E5 0,E6 0}
DECL E6POS XP1175={X 732.74,Y 6867.43,Z 281.95,A 119.22,B 31.372,C -1.548,S 6,T 27,E1 -2800,E2 0,E3 0,E4 0,E5 0,E6 0}
DECL E6POS XMP81502301={X 767.33,Y 6887.45,Z 282.73,A 119.22,B 31.372,C -1.548,S 6,T 27,E1 -2800,E2 0,E3 0,E4 0,E5 0,E6 0}
DECL E6POS XP1180={X 801.9,Y 6907.46,Z 283.52,A 119.22,B 31.372,C -1.548,S 6,T 27,E1 -2800,E2 0,E3 0,E4 0,E5 0,E6 0}
DECL E6POS XP1185={X 852.14,Y 6930.81,Z 285.05,A 88.648,B 31.381,C -5.46,S 6,T 27,E1 -2800,E2 0,E3 0,E4 0,E5 0,E6 0}
DECL E6POS XMP81502302={X 887.32,Y 6931.58,Z 287.62,A 88.648,B 31.381,C -5.46,S 6,T 27,E1 -2800,E2 0,E3 0,E4 0,E5 0,E6 0}
DECL E6POS XP1190={X 922.49,Y 6932.35,Z 290.2,A 88.648,B 31.381,C -5.46,S 6,T 27,E1 -2800,E2 0,E3 0,E4 0,E5 0,E6 0}
DECL E6POS XP1195={X 929.14,Y 6935.8,Z 290.12,A 118.915,B 31.364,C -1.797,S 6,T 27,E1 -2800,E2 0,E3 0,E4 0,E5 0,E6 0}
DECL E6POS XMP81502303={X 955.15,Y 6950.72,Z 290.92,A 118.915,B 31.364,C -1.797,S 6,T 27,E1 -2800,E2 0,E3 0,E4 0,E5 0,E6 0}
DECL E6POS XP1200={X 981.16,Y 6965.64,Z 291.72,A 118.915,B 31.364,C -1.797,S 6,T 27,E1 -2800,E2 0,E3 0,E4 0,E5 0,E6 0}
DECL E6POS XP1205={X 991.77,Y 6972.93,Z 291.66,A 151.6,B 30.658,C 3.253,S 6,T 27,E1 -2800,E2 0,E3 0,E4 0,E5 0,E6 0}
DECL E6POS XMP81502304={X 1007.51,Y 7000.96,Z 290.32,A 151.6,B 30.658,C 3.253,S 6,T 27,E1 -2800,E2 0,E3 0,E4 0,E5 0,E6 0}
DECL E6POS XP1210={X 1023.25,Y 7029.01,Z 288.96,A 151.6,B 30.658,C 3.253,S 6,T 27,E1 -2800,E2 0,E3 0,E4 0,E5 0,E6 0}
DECL E6POS XP1215={X 1127.56,Y 7095.99,Z 291.8,A 119.017,B 31.331,C -0.674,S 6,T 27,E1 -2800,E2 0,E3 0,E4 0,E5 0,E6 0}
DECL E6POS XMP81502305={X 1158.01,Y 7113.61,Z 292.45,A 119.017,B 31.331,C -0.674,S 6,T 27,E1 -2800,E2 0,E3 0,E4 0,E5 0,E6 0}
DECL E6POS XP1220={X 1188.57,Y 7131.3,Z 293.1,A 119.017,B 31.331,C -0.674,S 6,T 27,E1 -2800,E2 0,E3 0,E4 0,E5 0,E6 0}
DECL E6POS XP1225={X 989,Y 6997.41,Z 6.5,A 115.555,B 31.086,C -8.709,S 6,T 27,E1 -2800,E2 0,E3 0,E4 0,E5 0,E6 0}
DECL E6POS XP1230={X 1578.38,Y 7273.43,Z -746.48,A 146.423,B 19.043,C 39.154,S 6,T 27,E1 -2800,E2 0,E3 0,E4 0,E5 0,E6 0}
DECL E6POS XP1235={X 4047.6,Y 7798.06,Z -617.37,A -76.36,B 29.788,C -30.786,S 2,T 11,E1 -5500,E2 0,E3 0,E4 0,E5 0,E6 0}
DECL E6POS XP1240={X 3558.73,Y 7498.69,Z 235.42,A -64.108,B 33.389,C -7.639,S 2,T 11,E1 -5500,E2 0,E3 0,E4 0,E5 0,E6 0}
DECL E6POS XP1245={X 3424.48,Y 7421.35,Z 410.65,A -59.862,B 33.552,C -0.645,S 2,T 11,E1 -5500,E2 0,E3 0,E4 0,E5 0,E6 0}
DECL E6POS XMP81105401={X 3464.58,Y 7444.54,Z 411.16,A -59.862,B 33.552,C -0.645,S 2,T 11,E1 -5500,E2 0,E3 0,E4 0,E5 0,E6 0}
DECL E6POS XP1250={X 3504.69,Y 7467.73,Z 411.67,A -59.862,B 33.552,C -0.645,S 2,T 11,E1 -5500,E2 0,E3 0,E4 0,E5 0,E6 0}
DECL E6POS XP1255={X 3548.12,Y 7497.09,Z 411.86,A -31.52,B 34.495,C -2.168,S 2,T 11,E1 -5500,E2 0,E3 0,E4 0,E5 0,E6 0}
DECL E6POS XMP81105402={X 3565.77,Y 7527.28,Z 410.77,A -31.52,B 34.495,C -2.168,S 2,T 11,E1 -5500,E2 0,E3 0,E4 0,E5 0,E6 0}
DECL E6POS XP1260={X 3583.41,Y 7557.5,Z 409.66,A -31.52,B 34.495,C -2.168,S 2,T 11,E1 -5500,E2 0,E3 0,E4 0,E5 0,E6 0}
DECL E6POS XP1265={X 3587.02,Y 7560.66,Z 409.65,A -59.815,B 33.587,C -0.475,S 2,T 11,E1 -5500,E2 0,E3 0,E4 0,E5 0,E6 0}
DECL E6POS XMP81105403={X 3610.73,Y 7574.59,Z 409.92,A -59.815,B 33.587,C -0.475,S 2,T 11,E1 -5500,E2 0,E3 0,E4 0,E5 0,E6 0}
DECL E6POS XP1270={X 3634.44,Y 7588.51,Z 410.2,A -59.815,B 33.587,C -0.475,S 2,T 11,E1 -5500,E2 0,E3 0,E4 0,E5 0,E6 0}
DECL E6POS XP1275={X 3637.79,Y 7590.6,Z 410.24,A -87.704,B 31.122,C 3.58,S 2,T 11,E1 -5500,E2 0,E3 0,E4 0,E5 0,E6 0}
DECL E6POS XMP81105404={X 3673.57,Y 7590.77,Z 411.98,A -87.704,B 31.122,C 3.58,S 2,T 11,E1 -5500,E2 0,E3 0,E4 0,E5 0,E6 0}
DECL E6POS XP1280={X 3709.36,Y 7590.94,Z 413.72,A -87.704,B 31.122,C 3.58,S 2,T 11,E1 -5500,E2 0,E3 0,E4 0,E5 0,E6 0}
DECL E6POS XP1285={X 3760.27,Y 7615.52,Z 414.68,A -59.868,B 33.607,C 0.549,S 2,T 11,E1 -5500,E2 0,E3 0,E4 0,E5 0,E6 0}
DECL E6POS XMP81105405={X 3800.71,Y 7638.91,Z 415.12,A -59.628,B 33.6,C -0.018,S 2,T 11,E1 -5500,E2 0,E3 0,E4 0,E5 0,E6 0}
DECL E6POS XP1290={X 3840.82,Y 7662.1,Z 415.56,A -59.868,B 33.607,C 0.549,S 2,T 11,E1 -5500,E2 0,E3 0,E4 0,E5 0,E6 0}
DECL E6POS XP1295={X 3913.28,Y 7691.77,Z 314.74,A -62.557,B 33.525,C -4.825,S 2,T 11,E1 -5500,E2 0,E3 0,E4 0,E5 0,E6 0}
DECL E6POS XP1300={X 3807.09,Y 7920.55,Z 324.53,A -61.205,B 23.581,C -3.29,S 2,T 11,E1 -5500,E2 0,E3 0,E4 0,E5 0,E6 0}
DECL E6POS XP1305={X 3773.03,Y 7901.04,Z 396.26,A -60.061,B 23.591,C 0.21,S 2,T 11,E1 -5500,E2 0,E3 0,E4 0,E5 0,E6 0}
DECL E6POS XMP81205405={X 3729.78,Y 7876.02,Z 395.73,A -60.061,B 23.591,C 0.21,S 2,T 11,E1 -5500,E2 0,E3 0,E4 0,E5 0,E6 0}
DECL E6POS XP1310={X 3686.39,Y 7850.93,Z 395.19,A -60.061,B 23.591,C 0.21,S 2,T 11,E1 -5500,E2 0,E3 0,E4 0,E5 0,E6 0}
DECL E6POS XP1315={X 3630.49,Y 7830.77,Z 393.44,A -88.506,B 21.171,C 2.314,S 2,T 11,E1 -5500,E2 0,E3 0,E4 0,E5 0,E6 0}
DECL E6POS XMP81205404={X 3595.54,Y 7829.44,Z 391.77,A -88.506,B 21.171,C 2.314,S 2,T 11,E1 -5500,E2 0,E3 0,E4 0,E5 0,E6 0}
DECL E6POS XP1320={X 3560.59,Y 7828.1,Z 390.08,A -88.506,B 21.171,C 2.314,S 2,T 11,E1 -5500,E2 0,E3 0,E4 0,E5 0,E6 0}
DECL E6POS XP1325={X 3567.98,Y 7828.75,Z 390.37,A -60.333,B 23.586,C 0.013,S 2,T 11,E1 -5500,E2 0,E3 0,E4 0,E5 0,E6 0}
DECL E6POS XMP81205403={X 3542.3,Y 7813.83,Z 389.99,A -60.333,B 23.586,C 0.013,S 2,T 11,E1 -5500,E2 0,E3 0,E4 0,E5 0,E6 0}
DECL E6POS XP1330={X 3516.62,Y 7798.91,Z 389.59,A -60.333,B 23.586,C 0.013,S 2,T 11,E1 -5500,E2 0,E3 0,E4 0,E5 0,E6 0}
DECL E6POS XP1335={X 3513.26,Y 7794.68,Z 389.77,A -31.376,B 24.527,C -2.161,S 2,T 11,E1 -5500,E2 0,E3 0,E4 0,E5 0,E6 0}
DECL E6POS XMP81205402={X 3495.52,Y 7764.53,Z 390.95,A -31.376,B 24.527,C -2.161,S 2,T 11,E1 -5500,E2 0,E3 0,E4 0,E5 0,E6 0}
DECL E6POS XP1340={X 3477.77,Y 7734.38,Z 392.16,A -31.376,B 24.527,C -2.161,S 2,T 11,E1 -5500,E2 0,E3 0,E4 0,E5 0,E6 0}
DECL E6POS XP1345={X 3440.39,Y 7752.76,Z 301.25,A -31.376,B 24.527,C -2.161,S 2,T 11,E1 -5500,E2 0,E3 0,E4 0,E5 0,E6 0}
DECL E6POS XP1350={X 3432.59,Y 7704.16,Z 391.88,A -59.53,B 23.613,C 0.322,S 2,T 11,E1 -5500,E2 0,E3 0,E4 0,E5 0,E6 0}
DECL E6POS XMP81205401={X 3402.77,Y 7686.91,Z 391.47,A -59.53,B 23.613,C 0.322,S 2,T 11,E1 -5500,E2 0,E3 0,E4 0,E5 0,E6 0}
DECL E6POS XP1355={X 3373.03,Y 7669.72,Z 391.07,A -59.53,B 23.613,C 0.322,S 2,T 11,E1 -5500,E2 0,E3 0,E4 0,E5 0,E6 0}
DECL E6POS XP1360={X 3418.26,Y 7689.3,Z 286.32,A -62.016,B 23.53,C -6.125,S 2,T 11,E1 -5500,E2 0,E3 0,E4 0,E5 0,E6 0}
DECL E6POS XP1365={X 3412.68,Y 7970.53,Z 194.22,A -64.108,B 33.389,C -7.639,S 2,T 11,E1 -5500,E2 0,E3 0,E4 0,E5 0,E6 0}
DECL E6POS XP1370={X 3278.9,Y 7893.47,Z 369.19,A -59.196,B 33.577,C 0.705,S 2,T 11,E1 -5500,E2 0,E3 0,E4 0,E5 0,E6 0}
DECL E6POS XMP81305401={X 3318.93,Y 7916.62,Z 369.79,A -59.196,B 33.577,C 0.705,S 2,T 11,E1 -5500,E2 0,E3 0,E4 0,E5 0,E6 0}
DECL E6POS XP1375={X 3358.94,Y 7939.76,Z 370.39,A -59.196,B 33.577,C 0.705,S 2,T 11,E1 -5500,E2 0,E3 0,E4 0,E5 0,E6 0}
DECL E6POS XP1380={X 3411.71,Y 7979.36,Z 370.4,A -33.854,B 34.221,C -2.309,S 2,T 11,E1 -5500,E2 0,E3 0,E4 0,E5 0,E6 0}
DECL E6POS XMP81305402={X 3426.49,Y 8002.54,Z 369.48,A -33.854,B 34.221,C -2.309,S 2,T 11,E1 -5500,E2 0,E3 0,E4 0,E5 0,E6 0}
DECL E6POS XP1385={X 3441.29,Y 8025.71,Z 368.57,A -33.854,B 34.221,C -2.309,S 2,T 11,E1 -5500,E2 0,E3 0,E4 0,E5 0,E6 0}
DECL E6POS XP1390={X 3445.03,Y 8035.45,Z 368.13,A -59.809,B 33.586,C 0.686,S 2,T 11,E1 -5500,E2 0,E3 0,E4 0,E5 0,E6 0}
DECL E6POS XMP81305403={X 3471.04,Y 8050.37,Z 368.43,A -59.809,B 33.586,C 0.686,S 2,T 11,E1 -5500,E2 0,E3 0,E4 0,E5 0,E6 0}
DECL E6POS XP1395={X 3497.08,Y 8065.28,Z 368.72,A -59.809,B 33.586,C 0.686,S 2,T 11,E1 -5500,E2 0,E3 0,E4 0,E5 0,E6 0}
DECL E6POS XP1400={X 3499.69,Y 8067.09,Z 368.83,A -87.206,B 30.815,C 3.945,S 2,T 11,E1 -5500,E2 0,E3 0,E4 0,E5 0,E6 0}
DECL E6POS XMP81305404={X 3532.75,Y 8067.21,Z 370.75,A -87.206,B 30.815,C 3.945,S 2,T 11,E1 -5500,E2 0,E3 0,E4 0,E5 0,E6 0}
DECL E6POS XP1405={X 3565.83,Y 8067.34,Z 372.69,A -87.206,B 30.815,C 3.945,S 2,T 11,E1 -5500,E2 0,E3 0,E4 0,E5 0,E6 0}
DECL E6POS XP1410={X 3618.19,Y 8089.71,Z 374.06,A -58.853,B 33.571,C 1.381,S 2,T 11,E1 -5500,E2 0,E3 0,E4 0,E5 0,E6 0}
DECL E6POS XMP81305405={X 3658.35,Y 8112.93,Z 374.61,A -58.853,B 33.571,C 1.381,S 2,T 11,E1 -5500,E2 0,E3 0,E4 0,E5 0,E6 0}
DECL E6POS XP1415={X 3698.38,Y 8136.08,Z 375.16,A -58.853,B 33.571,C 1.381,S 2,T 11,E1 -5500,E2 0,E3 0,E4 0,E5 0,E6 0}
DECL E6POS XP1420={X 3788.2,Y 8187.28,Z 262.44,A -62.5,B 33.528,C -4.723,S 2,T 11,E1 -5500,E2 0,E3 0,E4 0,E5 0,E6 0}
DECL E6POS XP1425={X 3657.12,Y 8390.35,Z 280.74,A -61.205,B 23.581,C -3.29,S 2,T 11,E1 -5500,E2 0,E3 0,E4 0,E5 0,E6 0}
DECL E6POS XP1430={X 3635.43,Y 8377.98,Z 352.61,A -59.605,B 23.592,C 0.653,S 2,T 11,E1 -5500,E2 0,E3 0,E4 0,E5 0,E6 0}
DECL E6POS XMP81405405={X 3592.11,Y 8352.92,Z 351.97,A -59.605,B 23.592,C 0.653,S 2,T 11,E1 -5500,E2 0,E3 0,E4 0,E5 0,E6 0}
DECL E6POS XP1435={X 3548.77,Y 8327.85,Z 351.32,A -59.605,B 23.592,C 0.653,S 2,T 11,E1 -5500,E2 0,E3 0,E4 0,E5 0,E6 0}
DECL E6POS XP1440={X 3493.28,Y 8307.45,Z 349.54,A -88.04,B 21.247,C 3.069,S 2,T 11,E1 -5500,E2 0,E3 0,E4 0,E5 0,E6 0}
DECL E6POS XMP81405404={X 3458.34,Y 8305.99,Z 347.42,A -88.04,B 21.247,C 3.069,S 2,T 11,E1 -5500,E2 0,E3 0,E4 0,E5 0,E6 0}
DECL E6POS XP1445={X 3423.42,Y 8304.55,Z 345.32,A -88.04,B 21.247,C 3.069,S 2,T 11,E1 -5500,E2 0,E3 0,E4 0,E5 0,E6 0}
DECL E6POS XP1450={X 3428.66,Y 8305.15,Z 345.86,A -59.709,B 23.595,C 0.416,S 2,T 11,E1 -5500,E2 0,E3 0,E4 0,E5 0,E6 0}
DECL E6POS XMP81405403={X 3403.1,Y 8290.03,Z 345.28,A -59.709,B 23.595,C 0.416,S 2,T 11,E1 -5500,E2 0,E3 0,E4 0,E5 0,E6 0}
DECL E6POS XP1455={X 3377.55,Y 8274.9,Z 344.69,A -59.709,B 23.595,C 0.416,S 2,T 11,E1 -5500,E2 0,E3 0,E4 0,E5 0,E6 0}
DECL E6POS XP1460={X 3373.15,Y 8268.08,Z 345.2,A -31.943,B 23.956,C -2.351,S 2,T 11,E1 -5500,E2 0,E3 0,E4 0,E5 0,E6 0}
DECL E6POS XMP81405402={X 3356.42,Y 8240.24,Z 346.42,A -31.943,B 23.956,C -2.351,S 2,T 11,E1 -5500,E2 0,E3 0,E4 0,E5 0,E6 0}
DECL E6POS XP1465={X 3339.69,Y 8212.4,Z 347.64,A -31.943,B 23.956,C -2.351,S 2,T 11,E1 -5500,E2 0,E3 0,E4 0,E5 0,E6 0}
DECL E6POS XP1470={X 3291.09,Y 8178.81,Z 347.42,A -59.485,B 23.588,C 0.897,S 2,T 11,E1 -5500,E2 0,E3 0,E4 0,E5 0,E6 0}
DECL E6POS XMP81405401={X 3261.32,Y 8161.59,Z 346.95,A -59.485,B 23.588,C 0.897,S 2,T 11,E1 -5500,E2 0,E3 0,E4 0,E5 0,E6 0}
DECL E6POS XP1475={X 3231.81,Y 8144.52,Z 346.49,A -59.485,B 23.588,C 0.897,S 2,T 11,E1 -5500,E2 0,E3 0,E4 0,E5 0,E6 0}
DECL E6POS XP1480={X 3338.42,Y 8206.27,Z 247.81,A -61.113,B 23.57,C -3.351,S 2,T 11,E1 -5500,E2 0,E3 0,E4 0,E5 0,E6 0}
DECL E6POS XP1485={X 3282.5,Y 8451.91,Z 146.82,A -64.108,B 33.389,C -7.639,S 2,T 11,E1 -5500,E2 0,E3 0,E4 0,E5 0,E6 0}
DECL E6POS XP1490={X 3148.72,Y 8374.83,Z 321.72,A -59.316,B 33.563,C 0.157,S 2,T 11,E1 -5500,E2 0,E3 0,E4 0,E5 0,E6 0}
DECL E6POS XMP81505401={X 3188.74,Y 8397.99,Z 322.38,A -59.316,B 33.563,C 0.157,S 2,T 11,E1 -5500,E2 0,E3 0,E4 0,E5 0,E6 0}
DECL E6POS XP1495={X 3228.9,Y 8421.21,Z 323.04,A -59.316,B 33.563,C 0.157,S 2,T 11,E1 -5500,E2 0,E3 0,E4 0,E5 0,E6 0}
DECL E6POS XP1500={X 3272.32,Y 8455.27,Z 322.97,A -33.176,B 33.923,C -2.901,S 2,T 11,E1 -5500,E2 0,E3 0,E4 0,E5 0,E6 0}
DECL E6POS XMP81505402={X 3286.7,Y 8478.68,Z 321.83,A -33.176,B 33.923,C -2.901,S 2,T 11,E1 -5500,E2 0,E3 0,E4 0,E5 0,E6 0}
DECL E6POS XP1505={X 3301.07,Y 8502.1,Z 320.67,A -33.176,B 33.923,C -2.901,S 2,T 11,E1 -5500,E2 0,E3 0,E4 0,E5 0,E6 0}
DECL E6POS XP1510={X 3307.91,Y 8514.15,Z 320.29,A -59.809,B 33.586,C 0.686,S 2,T 11,E1 -5500,E2 0,E3 0,E4 0,E5 0,E6 0}
DECL E6POS XMP81505403={X 3333.94,Y 8529.06,Z 320.59,A -59.809,B 33.586,C 0.686,S 2,T 11,E1 -5500,E2 0,E3 0,E4 0,E5 0,E6 0}
DECL E6POS XP1515={X 3359.96,Y 8543.98,Z 320.9,A -59.809,B 33.586,C 0.686,S 2,T 11,E1 -5500,E2 0,E3 0,E4 0,E5 0,E6 0}
DECL E6POS XP1520={X 3356.53,Y 8544.9,Z 320.79,A -87.299,B 30.726,C 4.304,S 2,T 11,E1 -5500,E2 0,E3 0,E4 0,E5 0,E6 0}
DECL E6POS XMP81505404={X 3389.59,Y 8544.87,Z 322.91,A -87.299,B 30.726,C 4.304,S 2,T 11,E1 -5500,E2 0,E3 0,E4 0,E5 0,E6 0}
DECL E6POS XP1525={X 3422.65,Y 8544.84,Z 325.03,A -87.299,B 30.726,C 4.304,S 2,T 11,E1 -5500,E2 0,E3 0,E4 0,E5 0,E6 0}
DECL E6POS XP1530={X 3485.73,Y 8569.78,Z 327.16,A -59.213,B 33.584,C 1.582,S 2,T 11,E1 -5500,E2 0,E3 0,E4 0,E5 0,E6 0}
DECL E6POS XMP81505405={X 3525.75,Y 8592.93,Z 327.8,A -59.213,B 33.584,C 1.582,S 2,T 11,E1 -5500,E2 0,E3 0,E4 0,E5 0,E6 0}
DECL E6POS XP1535={X 3565.9,Y 8616.16,Z 328.44,A -59.213,B 33.584,C 1.582,S 2,T 11,E1 -5500,E2 0,E3 0,E4 0,E5 0,E6 0}
DECL E6POS XP1540={X 3664.09,Y 8672.15,Z 214.96,A -62.5,B 33.528,C -4.723,S 2,T 11,E1 -5500,E2 0,E3 0,E4 0,E5 0,E6 0}
DECL E6POS XP1545={X 2778.34,Y 7047.34,Z 224.47,A -64.108,B 33.389,C -7.639,S 2,T 11,E1 -4500,E2 0,E3 0,E4 0,E5 0,E6 0}
DECL E6POS XP1550={X 2644.24,Y 6970.09,Z 399.61,A -59.382,B 33.558,C 0.937,S 2,T 11,E1 -4500,E2 0,E3 0,E4 0,E5 0,E6 0}
DECL E6POS XMP81104401={X 2684.18,Y 6993.19,Z 400.2,A -59.382,B 33.558,C 0.937,S 2,T 11,E1 -4500,E2 0,E3 0,E4 0,E5 0,E6 0}
DECL E6POS XP1555={X 2724.46,Y 7016.49,Z 400.79,A -59.382,B 33.558,C 0.937,S 2,T 11,E1 -4500,E2 0,E3 0,E4 0,E5 0,E6 0}
DECL E6POS XP1560={X 2780.65,Y 7057.22,Z 400.98,A -32.458,B 34.832,C -2.12,S 2,T 11,E1 -4500,E2 0,E3 0,E4 0,E5 0,E6 0}
DECL E6POS XMP81104402={X 2798.79,Y 7087.13,Z 399.92,A -32.458,B 34.832,C -2.12,S 2,T 11,E1 -4500,E2 0,E3 0,E4 0,E5 0,E6 0}
DECL E6POS XP1565={X 2816.94,Y 7117.05,Z 398.85,A -32.458,B 34.832,C -2.12,S 2,T 11,E1 -4500,E2 0,E3 0,E4 0,E5 0,E6 0}
DECL E6POS XP1570={X 2845.83,Y 7151.93,Z 398.07,A -60.175,B 33.59,C -0.374,S 2,T 11,E1 -4500,E2 0,E3 0,E4 0,E5 0,E6 0}
DECL E6POS XMP81104403={X 2869.64,Y 7165.68,Z 398.37,A -60.175,B 33.59,C -0.374,S 2,T 11,E1 -4500,E2 0,E3 0,E4 0,E5 0,E6 0}
DECL E6POS XP1575={X 2893.46,Y 7179.43,Z 398.69,A -60.175,B 33.59,C -0.374,S 2,T 11,E1 -4500,E2 0,E3 0,E4 0,E5 0,E6 0}
DECL E6POS XP1580={X 2919.1,Y 7186.39,Z 399.68,A -86.636,B 31.071,C 3.647,S 2,T 11,E1 -4500,E2 0,E3 0,E4 0,E5 0,E6 0}
DECL E6POS XMP81104404={X 2954.87,Y 7187.2,Z 401.46,A -86.636,B 31.071,C 3.647,S 2,T 11,E1 -4500,E2 0,E3 0,E4 0,E5 0,E6 0}
DECL E6POS XP1585={X 2990.66,Y 7188.01,Z 403.23,A -86.636,B 31.071,C 3.647,S 2,T 11,E1 -4500,E2 0,E3 0,E4 0,E5 0,E6 0}
DECL E6POS XP1590={X 3123.29,Y 7247.18,Z 406.83,A -59.868,B 33.607,C 0.74,S 2,T 11,E1 -4500,E2 0,E3 0,E4 0,E5 0,E6 0}
DECL E6POS XMP81104405={X 3163.31,Y 7270.32,Z 407.33,A -59.868,B 33.607,C 0.74,S 2,T 11,E1 -4500,E2 0,E3 0,E4 0,E5 0,E6 0}
DECL E6POS XP1595={X 3203.33,Y 7293.47,Z 407.84,A -59.868,B 33.607,C 0.74,S 2,T 11,E1 -4500,E2 0,E3 0,E4 0,E5 0,E6 0}
DECL E6POS XP1600={X 3212.1,Y 7295.96,Z 305.2,A -62.557,B 33.525,C -4.825,S 2,T 11,E1 -4500,E2 0,E3 0,E4 0,E5 0,E6 0}
DECL E6POS XP1605={X 3184.51,Y 7560.51,Z 316.2,A -61.205,B 23.581,C -3.29,S 2,T 11,E1 -4500,E2 0,E3 0,E4 0,E5 0,E6 0}
DECL E6POS XP1610={X 3150.45,Y 7540.98,Z 388.01,A -59.515,B 23.588,C 0.828,S 2,T 11,E1 -4500,E2 0,E3 0,E4 0,E5 0,E6 0}
DECL E6POS XMP81204405={X 3107.2,Y 7515.97,Z 387.4,A -59.515,B 23.588,C 0.828,S 2,T 11,E1 -4500,E2 0,E3 0,E4 0,E5 0,E6 0}
DECL E6POS XP1615={X 3063.9,Y 7490.93,Z 386.78,A -59.515,B 23.588,C 0.828,S 2,T 11,E1 -4500,E2 0,E3 0,E4 0,E5 0,E6 0}
DECL E6POS XP1620={X 2935.55,Y 7433.37,Z 382.98,A -89.225,B 21.228,C 2.471,S 2,T 11,E1 -4500,E2 0,E3 0,E4 0,E5 0,E6 0}
DECL E6POS XMP81204404={X 2900.59,Y 7432.5,Z 381.21,A -89.225,B 21.228,C 2.471,S 2,T 11,E1 -4500,E2 0,E3 0,E4 0,E5 0,E6 0}
DECL E6POS XP1625={X 2865.63,Y 7431.65,Z 379.44,A -89.225,B 21.228,C 2.471,S 2,T 11,E1 -4500,E2 0,E3 0,E4 0,E5 0,E6 0}
DECL E6POS XP1630={X 2837.48,Y 7425.43,Z 378.11,A -60.333,B 23.586,C 0.013,S 2,T 11,E1 -4500,E2 0,E3 0,E4 0,E5 0,E6 0}
DECL E6POS XMP81204403={X 2811.79,Y 7410.52,Z 377.71,A -60.333,B 23.586,C 0.013,S 2,T 11,E1 -4500,E2 0,E3 0,E4 0,E5 0,E6 0}
DECL E6POS XP1635={X 2786.12,Y 7395.61,Z 377.33,A -60.333,B 23.586,C 0.013,S 2,T 11,E1 -4500,E2 0,E3 0,E4 0,E5 0,E6 0}
DECL E6POS XP1640={X 2758.6,Y 7361.01,Z 378.45,A -31.451,B 24.263,C -1.821,S 2,T 11,E1 -4500,E2 0,E3 0,E4 0,E5 0,E6 0}
DECL E6POS XMP81204402={X 2740.74,Y 7330.95,Z 379.46,A -31.451,B 24.263,C -1.821,S 2,T 11,E1 -4500,E2 0,E3 0,E4 0,E5 0,E6 0}
DECL E6POS XP1645={X 2722.87,Y 7300.86,Z 380.48,A -31.451,B 24.263,C -1.821,S 2,T 11,E1 -4500,E2 0,E3 0,E4 0,E5 0,E6 0}
DECL E6POS XP1650={X 2657.75,Y 7255.99,Z 380.22,A -59.53,B 23.613,C 0.322,S 2,T 11,E1 -4500,E2 0,E3 0,E4 0,E5 0,E6 0}
DECL E6POS XMP81204401={X 2627.91,Y 7238.73,Z 379.75,A -59.53,B 23.613,C 0.322,S 2,T 11,E1 -4500,E2 0,E3 0,E4 0,E5 0,E6 0}
DECL E6POS XP1655={X 2598.19,Y 7221.53,Z 379.29,A -59.53,B 23.613,C 0.322,S 2,T 11,E1 -4500,E2 0,E3 0,E4 0,E5 0,E6 0}
DECL E6POS XP1660={X 2687.38,Y 7274.93,Z 275.04,A -62.016,B 23.53,C -6.125,S 2,T 11,E1 -4500,E2 0,E3 0,E4 0,E5 0,E6 0}
DECL E6POS XP1665={X 2664.41,Y 7537.68,Z 182.19,A -64.108,B 33.389,C -7.639,S 2,T 11,E1 -4500,E2 0,E3 0,E4 0,E5 0,E6 0}
DECL E6POS XP1670={X 2531.52,Y 7461.14,Z 357.11,A -59.796,B 33.578,C 1.092,S 2,T 11,E1 -4500,E2 0,E3 0,E4 0,E5 0,E6 0}
DECL E6POS XMP81304401={X 2570.64,Y 7483.77,Z 357.76,A -59.796,B 33.578,C 1.092,S 2,T 11,E1 -4500,E2 0,E3 0,E4 0,E5 0,E6 0}
DECL E6POS XP1675={X 2610.78,Y 7506.99,Z 358.42,A -59.796,B 33.578,C 1.092,S 2,T 11,E1 -4500,E2 0,E3 0,E4 0,E5 0,E6 0}
DECL E6POS XP1680={X 2670.83,Y 7553.15,Z 358.49,A -31.337,B 34.137,C -2.711,S 2,T 11,E1 -4500,E2 0,E3 0,E4 0,E5 0,E6 0}
DECL E6POS XMP81304402={X 2684.5,Y 7577,Z 357.41,A -31.337,B 34.137,C -2.711,S 2,T 11,E1 -4500,E2 0,E3 0,E4 0,E5 0,E6 0}
DECL E6POS XP1685={X 2698.16,Y 7600.84,Z 356.34,A -31.337,B 34.137,C -2.711,S 2,T 11,E1 -4500,E2 0,E3 0,E4 0,E5 0,E6 0}
DECL E6POS XP1690={X 2730.15,Y 7640.67,Z 355.23,A -59.089,B 33.577,C 0.884,S 2,T 11,E1 -4500,E2 0,E3 0,E4 0,E5 0,E6 0}
DECL E6POS XMP81304403={X 2756.03,Y 7655.85,Z 355.61,A -59.089,B 33.577,C 0.884,S 2,T 11,E1 -4500,E2 0,E3 0,E4 0,E5 0,E6 0}
DECL E6POS XP1695={X 2781.88,Y 7671.04,Z 356,A -59.089,B 33.577,C 0.884,S 2,T 11,E1 -4500,E2 0,E3 0,E4 0,E5 0,E6 0}
DECL E6POS XP1700={X 2804.15,Y 7677.21,Z 356.92,A -87.438,B 30.417,C 4.093,S 2,T 11,E1 -4500,E2 0,E3 0,E4 0,E5 0,E6 0}
DECL E6POS XMP81304404={X 2837.22,Y 7677.17,Z 358.92,A -87.438,B 30.417,C 4.093,S 2,T 11,E1 -4500,E2 0,E3 0,E4 0,E5 0,E6 0}
DECL E6POS XP1705={X 2870.28,Y 7677.13,Z 360.94,A -87.438,B 30.417,C 4.093,S 2,T 11,E1 -4500,E2 0,E3 0,E4 0,E5 0,E6 0}
DECL E6POS XP1710={X 3027.25,Y 7747.91,Z 365.48,A -58.973,B 33.569,C 1.615,S 2,T 11,E1 -4500,E2 0,E3 0,E4 0,E5 0,E6 0}
DECL E6POS XMP81304405={X 3067.3,Y 7771.08,Z 366.07,A -58.973,B 33.569,C 1.615,S 2,T 11,E1 -4500,E2 0,E3 0,E4 0,E5 0,E6 0}
DECL E6POS XP1715={X 3107.28,Y 7794.21,Z 366.67,A -58.973,B 33.569,C 1.615,S 2,T 11,E1 -4500,E2 0,E3 0,E4 0,E5 0,E6 0}
DECL E6POS XP1720={X 3179.41,Y 7850.89,Z 251.5,A -62.5,B 33.528,C -4.723,S 2,T 11,E1 -4500,E2 0,E3 0,E4 0,E5 0,E6 0}
DECL E6POS XP1725={X 3075.35,Y 8053.84,Z 271.76,A -61.205,B 23.581,C -3.29,S 2,T 11,E1 -4500,E2 0,E3 0,E4 0,E5 0,E6 0}
DECL E6POS XP1730={X 3046.24,Y 8037.18,Z 343.58,A -59.605,B 23.592,C 0.653,S 2,T 11,E1 -4500,E2 0,E3 0,E4 0,E5 0,E6 0}
DECL E6POS XMP81404405={X 3002.97,Y 8012.15,Z 342.9,A -59.605,B 23.592,C 0.653,S 2,T 11,E1 -4500,E2 0,E3 0,E4 0,E5 0,E6 0}
DECL E6POS XP1735={X 2959.63,Y 7987.08,Z 342.23,A -59.605,B 23.592,C 0.653,S 2,T 11,E1 -4500,E2 0,E3 0,E4 0,E5 0,E6 0}
DECL E6POS XP1740={X 2815.69,Y 7922.97,Z 337.47,A -87.956,B 21.22,C 3.365,S 2,T 11,E1 -4500,E2 0,E3 0,E4 0,E5 0,E6 0}
DECL E6POS XMP81404404={X 2785.74,Y 7922.54,Z 335.83,A -87.956,B 21.22,C 3.365,S 2,T 11,E1 -4500,E2 0,E3 0,E4 0,E5 0,E6 0}
DECL E6POS XP1745={X 2755.79,Y 7922.11,Z 334.19,A -87.956,B 21.22,C 3.365,S 2,T 11,E1 -4500,E2 0,E3 0,E4 0,E5 0,E6 0}
DECL E6POS XP1750={X 2721.86,Y 7914.74,Z 332.33,A -60.053,B 23.574,C 0.079,S 2,T 11,E1 -4500,E2 0,E3 0,E4 0,E5 0,E6 0}
DECL E6POS XMP81404403={X 2696.25,Y 7899.71,Z 331.91,A -60.053,B 23.574,C 0.079,S 2,T 11,E1 -4500,E2 0,E3 0,E4 0,E5 0,E6 0}
DECL E6POS XP1755={X 2670.64,Y 7884.69,Z 331.49,A -60.053,B 23.574,C 0.079,S 2,T 11,E1 -4500,E2 0,E3 0,E4 0,E5 0,E6 0}
DECL E6POS XP1760={X 2650.51,Y 7862.4,Z 331.99,A -31.362,B 23.925,C -2.575,S 2,T 11,E1 -4500,E2 0,E3 0,E4 0,E5 0,E6 0}
DECL E6POS XMP81404402={X 2634.13,Y 7834.37,Z 333.33,A -31.362,B 23.925,C -2.575,S 2,T 11,E1 -4500,E2 0,E3 0,E4 0,E5 0,E6 0}
DECL E6POS XP1765={X 2617.73,Y 7806.33,Z 334.66,A -31.362,B 23.925,C -2.575,S 2,T 11,E1 -4500,E2 0,E3 0,E4 0,E5 0,E6 0}
DECL E6POS XP1770={X 2542.11,Y 7745.53,Z 334.79,A -59.921,B 23.594,C 0.667,S 2,T 11,E1 -4500,E2 0,E3 0,E4 0,E5 0,E6 0}
DECL E6POS XMP81404401={X 2512.23,Y 7728.24,Z 334.27,A -59.921,B 23.594,C 0.667,S 2,T 11,E1 -4500,E2 0,E3 0,E4 0,E5 0,E6 0}
DECL E6POS XP1775={X 2482.36,Y 7710.96,Z 333.75,A -59.921,B 23.594,C 0.667,S 2,T 11,E1 -4500,E2 0,E3 0,E4 0,E5 0,E6 0}
DECL E6POS XP1780={X 2672.53,Y 7853.82,Z 235.08,A -61.113,B 23.57,C -3.351,S 2,T 11,E1 -4500,E2 0,E3 0,E4 0,E5 0,E6 0}
DECL E6POS XP1785={X 2545.19,Y 8025.33,Z 133.73,A -64.108,B 33.389,C -7.639,S 2,T 11,E1 -4500,E2 0,E3 0,E4 0,E5 0,E6 0}
DECL E6POS XP1790={X 2419.11,Y 7952.72,Z 308.72,A -59.076,B 33.564,C 0.79,S 2,T 11,E1 -4500,E2 0,E3 0,E4 0,E5 0,E6 0}
DECL E6POS XMP81504401={X 2459.41,Y 7976.03,Z 309.45,A -59.076,B 33.564,C 0.79,S 2,T 11,E1 -4500,E2 0,E3 0,E4 0,E5 0,E6 0}
DECL E6POS XP1795={X 2496.26,Y 7997.36,Z 310.12,A -59.076,B 33.564,C 0.79,S 2,T 11,E1 -4500,E2 0,E3 0,E4 0,E5 0,E6 0}
DECL E6POS XP1800={X 2562.46,Y 8055.89,Z 309.54,A -31.801,B 34.035,C -3.169,S 2,T 11,E1 -4500,E2 0,E3 0,E4 0,E5 0,E6 0}
DECL E6POS XMP81504402={X 2576.2,Y 8079.67,Z 308.29,A -31.801,B 34.035,C -3.169,S 2,T 11,E1 -4500,E2 0,E3 0,E4 0,E5 0,E6 0}
DECL E6POS XP1805={X 2589.94,Y 8103.46,Z 307.02,A -31.801,B 34.035,C -3.169,S 2,T 11,E1 -4500,E2 0,E3 0,E4 0,E5 0,E6 0}
DECL E6POS XP1810={X 2612.63,Y 8130.13,Z 306.18,A -58.729,B 33.571,C 1.283,S 2,T 11,E1 -4500,E2 0,E3 0,E4 0,E5 0,E6 0}
DECL E6POS XMP81504403={X 2638.46,Y 8145.37,Z 306.75,A -58.729,B 33.571,C 1.283,S 2,T 11,E1 -4500,E2 0,E3 0,E4 0,E5 0,E6 0}
DECL E6POS XP1815={X 2664.29,Y 8160.64,Z 307.32,A -58.729,B 33.571,C 1.283,S 2,T 11,E1 -4500,E2 0,E3 0,E4 0,E5 0,E6 0}
DECL E6POS XP1820={X 2690.59,Y 8168.08,Z 308.28,A -86.595,B 30.608,C 4.646,S 2,T 11,E1 -4500,E2 0,E3 0,E4 0,E5 0,E6 0}
DECL E6POS XMP81504404={X 2723.64,Y 8168.35,Z 310.57,A -86.595,B 30.608,C 4.646,S 2,T 11,E1 -4500,E2 0,E3 0,E4 0,E5 0,E6 0}
DECL E6POS XP1825={X 2756.68,Y 8168.64,Z 312.86,A -86.595,B 30.608,C 4.646,S 2,T 11,E1 -4500,E2 0,E3 0,E4 0,E5 0,E6 0}
DECL E6POS XP1830={X 2905.88,Y 8234.35,Z 317.72,A -59.933,B 33.588,C -0.843,S 2,T 11,E1 -4500,E2 0,E3 0,E4 0,E5 0,E6 0}
DECL E6POS XMP81504405={X 2946.09,Y 8257.62,Z 318.38,A -59.933,B 33.588,C 0.184,S 2,T 11,E1 -4500,E2 0,E3 0,E4 0,E5 0,E6 0}
DECL E6POS XP1835={X 2986.16,Y 8280.8,Z 319.04,A -59.933,B 33.588,C -0.843,S 2,T 11,E1 -4500,E2 0,E3 0,E4 0,E5 0,E6 0}
DECL E6POS XP1840={X 2954.8,Y 8286,Z 146.26,A -63.162,B 33.479,C -5.922,S 2,T 11,E1 -4500,E2 0,E3 0,E4 0,E5 0,E6 0}
DECL E6POS XP1845={X 1917.76,Y 6549.52,Z 210.41,A -64.108,B 33.389,C -7.639,S 2,T 11,E1 -3500,E2 0,E3 0,E4 0,E5 0,E6 0}
DECL E6POS XP1850={X 1783.55,Y 6472.2,Z 385.43,A -60.102,B 33.558,C 0.063,S 2,T 11,E1 -3500,E2 0,E3 0,E4 0,E5 0,E6 0}
DECL E6POS XMP81103401={X 1823.61,Y 6495.37,Z 386.13,A -60.102,B 33.558,C 0.063,S 2,T 11,E1 -3500,E2 0,E3 0,E4 0,E5 0,E6 0}
DECL E6POS XP1855={X 1863.72,Y 6518.58,Z 386.84,A -60.102,B 33.558,C 0.063,S 2,T 11,E1 -3500,E2 0,E3 0,E4 0,E5 0,E6 0}
DECL E6POS XP1860={X 1912.98,Y 6554.09,Z 387.16,A -31.725,B 34.641,C -2.259,S 2,T 11,E1 -3500,E2 0,E3 0,E4 0,E5 0,E6 0}
DECL E6POS XMP81103402={X 1930.71,Y 6584.24,Z 386.03,A -31.725,B 34.641,C -2.259,S 2,T 11,E1 -3500,E2 0,E3 0,E4 0,E5 0,E6 0}
DECL E6POS XP1865={X 1948.43,Y 6614.4,Z 384.89,A -31.725,B 34.641,C -2.259,S 2,T 11,E1 -3500,E2 0,E3 0,E4 0,E5 0,E6 0}
DECL E6POS XP1870={X 1958.57,Y 6627.34,Z 384.51,A -59.335,B 33.588,C -0.009,S 2,T 11,E1 -3500,E2 0,E3 0,E4 0,E5 0,E6 0}
DECL E6POS XMP81103403={X 1982.23,Y 6641.35,Z 384.97,A -59.335,B 33.588,C -0.009,S 2,T 11,E1 -3500,E2 0,E3 0,E4 0,E5 0,E6 0}
DECL E6POS XP1875={X 2005.88,Y 6655.36,Z 385.43,A -59.335,B 33.588,C -0.009,S 2,T 11,E1 -3500,E2 0,E3 0,E4 0,E5 0,E6 0}
DECL E6POS XP1880={X 2014,Y 6660.99,Z 385.47,A -87.732,B 30.979,C 4.082,S 2,T 11,E1 -3500,E2 0,E3 0,E4 0,E5 0,E6 0}
DECL E6POS XMP81103404={X 2049.78,Y 6660.98,Z 387.49,A -87.732,B 30.979,C 4.082,S 2,T 11,E1 -3500,E2 0,E3 0,E4 0,E5 0,E6 0}
DECL E6POS XP1885={X 2085.56,Y 6660.97,Z 389.5,A -87.732,B 30.979,C 4.082,S 2,T 11,E1 -3500,E2 0,E3 0,E4 0,E5 0,E6 0}
DECL E6POS XP1890={X 2187.59,Y 6705.99,Z 393.03,A -60.023,B 33.452,C 1.476,S 2,T 11,E1 -3500,E2 0,E3 0,E4 0,E5 0,E6 0}
DECL E6POS XMP81103405={X 2228.54,Y 6729.67,Z 393.67,A -60.023,B 33.452,C 1.476,S 2,T 11,E1 -3500,E2 0,E3 0,E4 0,E5 0,E6 0}
DECL E6POS XP1895={X 2269.13,Y 6753.15,Z 394.29,A -60.023,B 33.452,C 1.476,S 2,T 11,E1 -3500,E2 0,E3 0,E4 0,E5 0,E6 0}
DECL E6POS XP1900={X 2336.15,Y 6790.64,Z 291.65,A -62.557,B 33.525,C -4.825,S 2,T 11,E1 -3500,E2 0,E3 0,E4 0,E5 0,E6 0}
DECL E6POS XP1905={X 2287.18,Y 7041.46,Z 302.27,A -61.205,B 23.581,C -3.29,S 2,T 11,E1 -3500,E2 0,E3 0,E4 0,E5 0,E6 0}
DECL E6POS XP1910={X 2253.32,Y 7022.06,Z 374.15,A -59.515,B 23.588,C 0.828,S 2,T 11,E1 -3500,E2 0,E3 0,E4 0,E5 0,E6 0}
DECL E6POS XMP81203405={X 2210.22,Y 6997.13,Z 373.42,A -59.515,B 23.588,C 0.828,S 2,T 11,E1 -3500,E2 0,E3 0,E4 0,E5 0,E6 0}
DECL E6POS XP1915={X 2166.68,Y 6971.94,Z 372.68,A -59.515,B 23.588,C 0.828,S 2,T 11,E1 -3500,E2 0,E3 0,E4 0,E5 0,E6 0}
DECL E6POS XP1920={X 2057.71,Y 6923.82,Z 367.78,A -90.424,B 21.302,C 1.253,S 2,T 11,E1 -3500,E2 0,E3 0,E4 0,E5 0,E6 0}
DECL E6POS XMP81203404={X 2022.72,Y 6923.43,Z 366.72,A -90.424,B 21.302,C 1.253,S 2,T 11,E1 -3500,E2 0,E3 0,E4 0,E5 0,E6 0}
DECL E6POS XP1925={X 1987.72,Y 6923.04,Z 365.64,A -90.424,B 21.302,C 1.253,S 2,T 11,E1 -3500,E2 0,E3 0,E4 0,E5 0,E6 0}
DECL E6POS XP1930={X 1982.48,Y 6919.44,Z 364.47,A -60.333,B 23.586,C 0.013,S 2,T 11,E1 -3500,E2 0,E3 0,E4 0,E5 0,E6 0}
DECL E6POS XMP81203403={X 1956.8,Y 6904.53,Z 364.08,A -58.981,B 23.558,C 1.572,S 2,T 11,E1 -3500,E2 0,E3 0,E4 0,E5 0,E6 0}
DECL E6POS XP1935={X 1931.12,Y 6889.62,Z 363.69,A -60.333,B 23.586,C 0.013,S 2,T 11,E1 -3500,E2 0,E3 0,E4 0,E5 0,E6 0}
DECL E6POS XP1940={X 1921.84,Y 6875.54,Z 364.29,A -32.314,B 23.924,C -1.678,S 2,T 11,E1 -3500,E2 0,E3 0,E4 0,E5 0,E6 0}
DECL E6POS XMP81203402={X 1903.49,Y 6845.75,Z 365.22,A -32.314,B 23.924,C -1.678,S 2,T 11,E1 -3500,E2 0,E3 0,E4 0,E5 0,E6 0}
DECL E6POS XP1945={X 1885.14,Y 6815.97,Z 366.16,A -32.314,B 23.924,C -1.678,S 2,T 11,E1 -3500,E2 0,E3 0,E4 0,E5 0,E6 0}
DECL E6POS XP1950={X 1829.14,Y 6776.62,Z 365.9,A -59.53,B 23.613,C 0.322,S 2,T 11,E1 -3500,E2 0,E3 0,E4 0,E5 0,E6 0}
DECL E6POS XMP81203401={X 1799.39,Y 6759.41,Z 365.34,A -59.53,B 23.613,C 0.322,S 2,T 11,E1 -3500,E2 0,E3 0,E4 0,E5 0,E6 0}
DECL E6POS XP1955={X 1769.54,Y 6742.14,Z 364.78,A -59.53,B 23.613,C 0.322,S 2,T 11,E1 -3500,E2 0,E3 0,E4 0,E5 0,E6 0}
DECL E6POS XP1960={X 1816.98,Y 6771.43,Z 260.87,A -62.016,B 23.53,C -6.125,S 2,T 11,E1 -3500,E2 0,E3 0,E4 0,E5 0,E6 0}
DECL E6POS XP1965={X 1863.82,Y 7074.49,Z 167.48,A -64.108,B 33.389,C -7.639,S 2,T 11,E1 -3500,E2 0,E3 0,E4 0,E5 0,E6 0}
DECL E6POS XP1970={X 1729.91,Y 6997.34,Z 342.25,A -59.796,B 33.578,C 0.483,S 2,T 11,E1 -3500,E2 0,E3 0,E4 0,E5 0,E6 0}
DECL E6POS XMP81303401={X 1770.07,Y 7020.58,Z 343.06,A -59.796,B 33.578,C 0.483,S 2,T 11,E1 -3500,E2 0,E3 0,E4 0,E5 0,E6 0}
DECL E6POS XP1975={X 1810.26,Y 7043.84,Z 343.88,A -59.796,B 33.578,C 0.483,S 2,T 11,E1 -3500,E2 0,E3 0,E4 0,E5 0,E6 0}
DECL E6POS XP1980={X 1862.14,Y 7084.33,Z 344.01,A -31.421,B 34.119,C -2.639,S 2,T 11,E1 -3500,E2 0,E3 0,E4 0,E5 0,E6 0}
DECL E6POS XMP81303402={X 1875.86,Y 7108.14,Z 342.96,A -31.421,B 34.119,C -2.639,S 2,T 11,E1 -3500,E2 0,E3 0,E4 0,E5 0,E6 0}
DECL E6POS XP1985={X 1889.57,Y 7131.94,Z 341.93,A -31.421,B 34.119,C -2.639,S 2,T 11,E1 -3500,E2 0,E3 0,E4 0,E5 0,E6 0}
DECL E6POS XP1990={X 1905.2,Y 7154.1,Z 341.4,A -59.809,B 33.586,C 0.686,S 2,T 11,E1 -3500,E2 0,E3 0,E4 0,E5 0,E6 0}
DECL E6POS XMP81303403={X 1931.23,Y 7169.02,Z 341.69,A -59.809,B 33.586,C 0.686,S 2,T 11,E1 -3500,E2 0,E3 0,E4 0,E5 0,E6 0}
DECL E6POS XP1995={X 1957.25,Y 7183.93,Z 341.99,A -59.809,B 33.586,C 0.686,S 2,T 11,E1 -3500,E2 0,E3 0,E4 0,E5 0,E6 0}
DECL E6POS XP2000={X 1969.6,Y 7187.37,Z 342.74,A -87.456,B 30.657,C 4.38,S 2,T 11,E1 -3500,E2 0,E3 0,E4 0,E5 0,E6 0}
DECL E6POS XMP81303404={X 2002.65,Y 7187.23,Z 344.9,A -87.456,B 30.657,C 4.38,S 2,T 11,E1 -3500,E2 0,E3 0,E4 0,E5 0,E6 0}
DECL E6POS XP2005={X 2035.71,Y 7187.09,Z 347.05,A -87.456,B 30.657,C 4.38,S 2,T 11,E1 -3500,E2 0,E3 0,E4 0,E5 0,E6 0}
DECL E6POS XP2010={X 2139.8,Y 7234.55,Z 350.81,A -59.003,B 33.552,C 0.717,S 2,T 11,E1 -3500,E2 0,E3 0,E4 0,E5 0,E6 0}
DECL E6POS XMP81303405={X 2179.89,Y 7257.74,Z 351.5,A -59.003,B 33.552,C 0.717,S 2,T 11,E1 -3500,E2 0,E3 0,E4 0,E5 0,E6 0}
DECL E6POS XP2015={X 2220.27,Y 7281.1,Z 352.2,A -59.003,B 33.552,C 0.717,S 2,T 11,E1 -3500,E2 0,E3 0,E4 0,E5 0,E6 0}
DECL E6POS XP2020={X 2303.47,Y 7336.02,Z 236.88,A -62.5,B 33.528,C -4.723,S 2,T 11,E1 -3500,E2 0,E3 0,E4 0,E5 0,E6 0}
DECL E6POS XP2025={X 2220.15,Y 7559.1,Z 257.14,A -61.205,B 23.581,C -3.29,S 2,T 11,E1 -3500,E2 0,E3 0,E4 0,E5 0,E6 0}
DECL E6POS XP2030={X 2191.45,Y 7542.67,Z 328.97,A -59.605,B 23.592,C 1.333,S 2,T 11,E1 -3500,E2 0,E3 0,E4 0,E5 0,E6 0}
DECL E6POS XMP81403405={X 2148.11,Y 7517.6,Z 328.19,A -59.605,B 23.592,C 1.333,S 2,T 11,E1 -3500,E2 0,E3 0,E4 0,E5 0,E6 0}
DECL E6POS XP2035={X 2104.75,Y 7492.51,Z 327.4,A -59.605,B 23.592,C 1.333,S 2,T 11,E1 -3500,E2 0,E3 0,E4 0,E5 0,E6 0}
DECL E6POS XP2040={X 2000.47,Y 7448.64,Z 323.17,A -90.887,B 21.298,C 3.619,S 2,T 11,E1 -3500,E2 0,E3 0,E4 0,E5 0,E6 0}
DECL E6POS XMP81403404={X 1965.53,Y 7449.05,Z 320.76,A -90.887,B 21.298,C 3.619,S 2,T 11,E1 -3500,E2 0,E3 0,E4 0,E5 0,E6 0}
DECL E6POS XP2045={X 1930.61,Y 7449.46,Z 318.33,A -90.887,B 21.298,C 3.619,S 2,T 11,E1 -3500,E2 0,E3 0,E4 0,E5 0,E6 0}
DECL E6POS XP2050={X 1930.98,Y 7446.14,Z 318.59,A -60.364,B 23.61,C 0.154,S 2,T 11,E1 -3500,E2 0,E3 0,E4 0,E5 0,E6 0}
DECL E6POS XMP81403403={X 1905.28,Y 7431.25,Z 318.13,A -59.868,B 23.578,C 1.453,S 2,T 11,E1 -3500,E2 0,E3 0,E4 0,E5 0,E6 0}
DECL E6POS XP2055={X 1879.57,Y 7416.37,Z 317.67,A -60.364,B 23.61,C 0.154,S 2,T 11,E1 -3500,E2 0,E3 0,E4 0,E5 0,E6 0}
DECL E6POS XP2060={X 1867.75,Y 7401.57,Z 317.97,A -31.508,B 24.054,C -2.593,S 2,T 11,E1 -3500,E2 0,E3 0,E4 0,E5 0,E6 0}
DECL E6POS XMP81403402={X 1851.3,Y 7373.58,Z 319.31,A -31.508,B 24.054,C -2.593,S 2,T 11,E1 -3500,E2 0,E3 0,E4 0,E5 0,E6 0}
DECL E6POS XP2065={X 1834.84,Y 7345.58,Z 320.64,A -31.508,B 24.054,C -2.593,S 2,T 11,E1 -3500,E2 0,E3 0,E4 0,E5 0,E6 0}
DECL E6POS XP2070={X 1797.76,Y 7363.01,Z 229.42,A -31.508,B 24.054,C -2.593,S 2,T 11,E1 -3500,E2 0,E3 0,E4 0,E5 0,E6 0}
DECL E6POS XP2075={X 1774.7,Y 7301.49,Z 320.19,A -59.157,B 23.584,C 0.973,S 2,T 11,E1 -3500,E2 0,E3 0,E4 0,E5 0,E6 0}
DECL E6POS XMP81403401={X 1744.98,Y 7284.29,Z 319.57,A -59.157,B 23.584,C 0.973,S 2,T 11,E1 -3500,E2 0,E3 0,E4 0,E5 0,E6 0}
DECL E6POS XP2080={X 1715.23,Y 7267.08,Z 318.94,A -59.157,B 23.584,C 0.973,S 2,T 11,E1 -3500,E2 0,E3 0,E4 0,E5 0,E6 0}
DECL E6POS XP2085={X 1850.26,Y 7345.38,Z 222.75,A -61.113,B 23.57,C -3.351,S 2,T 11,E1 -3500,E2 0,E3 0,E4 0,E5 0,E6 0}
DECL E6POS XP2090={X 1812.82,Y 7601.43,Z 119.28,A -64.108,B 33.389,C -7.639,S 2,T 11,E1 -3500,E2 0,E3 0,E4 0,E5 0,E6 0}
DECL E6POS XP2095={X 1678.8,Y 7524.34,Z 293.89,A -59.796,B 33.578,C 1.092,S 2,T 11,E1 -3500,E2 0,E3 0,E4 0,E5 0,E6 0}
DECL E6POS XMP81503401={X 1718.97,Y 7547.58,Z 294.75,A -59.556,B 33.574,C 1.225,S 2,T 11,E1 -3500,E2 0,E3 0,E4 0,E5 0,E6 0}
DECL E6POS XP2100={X 1759.23,Y 7570.88,Z 295.62,A -59.796,B 33.578,C 1.092,S 2,T 11,E1 -3500,E2 0,E3 0,E4 0,E5 0,E6 0}
DECL E6POS XP2105={X 1809.04,Y 7611.06,Z 295.76,A -32.151,B 33.841,C -3.327,S 2,T 11,E1 -3500,E2 0,E3 0,E4 0,E5 0,E6 0}
DECL E6POS XMP81503402={X 1822.9,Y 7634.78,Z 294.45,A -32.151,B 33.841,C -3.327,S 2,T 11,E1 -3500,E2 0,E3 0,E4 0,E5 0,E6 0}
DECL E6POS XP2110={X 1836.75,Y 7658.5,Z 293.12,A -32.151,B 33.841,C -3.327,S 2,T 11,E1 -3500,E2 0,E3 0,E4 0,E5 0,E6 0}
DECL E6POS XP2115={X 1850.78,Y 7679.01,Z 292.53,A -59.089,B 33.577,C 1.084,S 2,T 11,E1 -3500,E2 0,E3 0,E4 0,E5 0,E6 0}
DECL E6POS XMP81503403={X 1876.67,Y 7694.15,Z 293,A -59.089,B 33.577,C 1.084,S 2,T 11,E1 -3500,E2 0,E3 0,E4 0,E5 0,E6 0}
DECL E6POS XP2120={X 1902.56,Y 7709.29,Z 293.47,A -59.089,B 33.577,C 1.084,S 2,T 11,E1 -3500,E2 0,E3 0,E4 0,E5 0,E6 0}
DECL E6POS XP2125={X 1911.98,Y 7713.19,Z 293.86,A -87.275,B 30.564,C 4.857,S 2,T 11,E1 -3500,E2 0,E3 0,E4 0,E5 0,E6 0}
DECL E6POS XMP81503404={X 1945.02,Y 7713.02,Z 296.24,A -87.275,B 30.564,C 4.857,S 2,T 11,E1 -3500,E2 0,E3 0,E4 0,E5 0,E6 0}
DECL E6POS XP2130={X 1978.06,Y 7712.85,Z 298.64,A -87.275,B 30.564,C 4.857,S 2,T 11,E1 -3500,E2 0,E3 0,E4 0,E5 0,E6 0}
DECL E6POS XP2135={X 2078.28,Y 7755.54,Z 302.8,A -58.613,B 33.524,C 2.464,S 2,T 11,E1 -3500,E2 0,E3 0,E4 0,E5 0,E6 0}
DECL E6POS XMP81503405={X 2118.24,Y 7778.66,Z 303.55,A -58.613,B 33.524,C 2.464,S 2,T 11,E1 -3500,E2 0,E3 0,E4 0,E5 0,E6 0}
DECL E6POS XP2140={X 2158.89,Y 7802.19,Z 304.32,A -58.613,B 33.524,C 2.464,S 2,T 11,E1 -3500,E2 0,E3 0,E4 0,E5 0,E6 0}
DECL E6POS XP2145={X 2251.41,Y 7848.97,Z 189.99,A -62.5,B 33.528,C -4.723,S 2,T 11,E1 -3500,E2 0,E3 0,E4 0,E5 0,E6 0}
DECL E6POS XP2150={X 1366.18,Y 6658.12,Z 54.77,A -66.277,B 33.792,C -11.592,S 2,T 11,E1 -2500,E2 0,E3 0,E4 0,E5 0,E6 0}
DECL E6POS XP2155={X 903.86,Y 5962.85,Z 190.32,A -64.108,B 33.389,C -7.639,S 2,T 11,E1 -2500,E2 0,E3 0,E4 0,E5 0,E6 0}
DECL E6POS XP2160={X 769.67,Y 5885.51,Z 365.24,A -58.542,B 33.544,C 0.625,S 2,T 11,E1 -2500,E2 0,E3 0,E4 0,E5 0,E6 0}
DECL E6POS XMP81102401={X 809.71,Y 5908.69,Z 366.05,A -58.542,B 33.544,C 0.625,S 2,T 11,E1 -2500,E2 0,E3 0,E4 0,E5 0,E6 0}
DECL E6POS XP2165={X 849.83,Y 5931.9,Z 366.87,A -58.542,B 33.544,C 0.625,S 2,T 11,E1 -2500,E2 0,E3 0,E4 0,E5 0,E6 0}
DECL E6POS XP2170={X 907.19,Y 5969.74,Z 367.59,A -31.603,B 34.73,C -2.249,S 2,T 11,E1 -2500,E2 0,E3 0,E4 0,E5 0,E6 0}
DECL E6POS XMP81102402={X 924.86,Y 5999.94,Z 366.46,A -31.603,B 34.73,C -2.249,S 2,T 11,E1 -2500,E2 0,E3 0,E4 0,E5 0,E6 0}
DECL E6POS XP2175={X 942.51,Y 6030.14,Z 365.34,A -31.603,B 34.73,C -2.249,S 2,T 11,E1 -2500,E2 0,E3 0,E4 0,E5 0,E6 0}
DECL E6POS XP2180={X 961.78,Y 6054.71,Z 364.61,A -59.695,B 33.576,C 0.192,S 2,T 11,E1 -2500,E2 0,E3 0,E4 0,E5 0,E6 0}
DECL E6POS XMP81102403={X 985.55,Y 6068.54,Z 365.16,A -59.695,B 33.576,C 0.192,S 2,T 11,E1 -2500,E2 0,E3 0,E4 0,E5 0,E6 0}
DECL E6POS XP2185={X 1009.31,Y 6082.35,Z 365.69,A -59.695,B 33.576,C 0.192,S 2,T 11,E1 -2500,E2 0,E3 0,E4 0,E5 0,E6 0}
DECL E6POS XP2190={X 1023.96,Y 6089.09,Z 366.07,A -87.094,B 31.296,C 4.459,S 2,T 11,E1 -2500,E2 0,E3 0,E4 0,E5 0,E6 0}
DECL E6POS XMP81102404={X 1059.73,Y 6089.34,Z 368.26,A -87.094,B 31.296,C 4.459,S 2,T 11,E1 -2500,E2 0,E3 0,E4 0,E5 0,E6 0}
DECL E6POS XP2195={X 1095.5,Y 6089.6,Z 370.47,A -87.094,B 31.296,C 4.459,S 2,T 11,E1 -2500,E2 0,E3 0,E4 0,E5 0,E6 0}
DECL E6POS XP2200={X 1190.29,Y 6128.95,Z 374.54,A -58.65,B 33.517,C 1.403,S 2,T 11,E1 -2500,E2 0,E3 0,E4 0,E5 0,E6 0}
DECL E6POS XMP81102405={X 1231.01,Y 6152.51,Z 375.31,A -58.65,B 33.517,C 1.403,S 2,T 11,E1 -2500,E2 0,E3 0,E4 0,E5 0,E6 0}
DECL E6POS XP2205={X 1270.09,Y 6175.12,Z 376.05,A -58.65,B 33.517,C 1.403,S 2,T 11,E1 -2500,E2 0,E3 0,E4 0,E5 0,E6 0}
DECL E6POS XP2210={X 1329.64,Y 6207.31,Z 272.34,A -62.557,B 33.525,C -4.825,S 2,T 11,E1 -2500,E2 0,E3 0,E4 0,E5 0,E6 0}
DECL E6POS XP2215={X 1294.79,Y 6467.22,Z 282.94,A -61.205,B 23.581,C -3.29,S 2,T 11,E1 -2500,E2 0,E3 0,E4 0,E5 0,E6 0}
DECL E6POS XP2220={X 1260.68,Y 6447.7,Z 354.94,A -59.515,B 23.588,C 2.075,S 2,T 11,E1 -2500,E2 0,E3 0,E4 0,E5 0,E6 0}
DECL E6POS XMP81202405={X 1217.6,Y 6422.77,Z 354.08,A -59.515,B 23.588,C 2.075,S 2,T 11,E1 -2500,E2 0,E3 0,E4 0,E5 0,E6 0}
DECL E6POS XP2225={X 1174.18,Y 6397.64,Z 353.22,A -59.515,B 23.588,C 2.075,S 2,T 11,E1 -2500,E2 0,E3 0,E4 0,E5 0,E6 0}
DECL E6POS XP2230={X 1076.03,Y 6357.32,Z 348.88,A -89.829,B 21.214,C 3.442,S 2,T 11,E1 -2500,E2 0,E3 0,E4 0,E5 0,E6 0}
DECL E6POS XMP81202404={X 1041.1,Y 6357.04,Z 346.56,A -89.829,B 21.214,C 3.442,S 2,T 11,E1 -2500,E2 0,E3 0,E4 0,E5 0,E6 0}
DECL E6POS XP2235={X 1006.16,Y 6356.75,Z 344.24,A -89.829,B 21.214,C 3.442,S 2,T 11,E1 -2500,E2 0,E3 0,E4 0,E5 0,E6 0}
DECL E6POS XP2240={X 994.75,Y 6352.29,Z 343.71,A -60.333,B 23.586,C 0.013,S 2,T 11,E1 -2500,E2 0,E3 0,E4 0,E5 0,E6 0}
DECL E6POS XMP81202403={X 969.07,Y 6337.38,Z 343.32,A -58.981,B 23.558,C 0.18,S 2,T 11,E1 -2500,E2 0,E3 0,E4 0,E5 0,E6 0}
DECL E6POS XP2245={X 943.39,Y 6322.45,Z 342.93,A -60.333,B 23.586,C 0.013,S 2,T 11,E1 -2500,E2 0,E3 0,E4 0,E5 0,E6 0}
DECL E6POS XP2250={X 932.24,Y 6312.04,Z 342.73,A -31.27,B 24.289,C -2.36,S 2,T 11,E1 -2500,E2 0,E3 0,E4 0,E5 0,E6 0}
DECL E6POS XMP81202402={X 914.59,Y 6281.85,Z 344.04,A -31.27,B 24.289,C -2.36,S 2,T 11,E1 -2500,E2 0,E3 0,E4 0,E5 0,E6 0}
DECL E6POS XP2255={X 896.94,Y 6251.64,Z 345.36,A -31.27,B 24.289,C -2.36,S 2,T 11,E1 -2500,E2 0,E3 0,E4 0,E5 0,E6 0}
DECL E6POS XP2260={X 852.01,Y 6256.33,Z 254.87,A -31.27,B 24.289,C -2.36,S 2,T 11,E1 -2500,E2 0,E3 0,E4 0,E5 0,E6 0}
DECL E6POS XP2265={X 827.52,Y 6196.99,Z 345.05,A -59.53,B 23.613,C 0.322,S 2,T 11,E1 -2500,E2 0,E3 0,E4 0,E5 0,E6 0}
DECL E6POS XMP81202401={X 797.64,Y 6179.69,Z 344.41,A -59.53,B 23.613,C 0.722,S 2,T 11,E1 -2500,E2 0,E3 0,E4 0,E5 0,E6 0}
DECL E6POS XP2270={X 767.8,Y 6162.42,Z 343.77,A -59.53,B 23.613,C 0.322,S 2,T 11,E1 -2500,E2 0,E3 0,E4 0,E5 0,E6 0}
DECL E6POS XP2275={X 823.7,Y 6210.08,Z 239.44,A -62.016,B 23.53,C -6.125,S 2,T 11,E1 -2500,E2 0,E3 0,E4 0,E5 0,E6 0}
DECL E6POS XP2280={X 874.59,Y 6501.97,Z 145.97,A -64.108,B 33.389,C -7.639,S 2,T 11,E1 -2500,E2 0,E3 0,E4 0,E5 0,E6 0}
DECL E6POS XP2285={X 740.81,Y 6424.9,Z 320.64,A -58.237,B 33.54,C 2.103,S 2,T 11,E1 -2500,E2 0,E3 0,E4 0,E5 0,E6 0}
DECL E6POS XMP81302401={X 780.83,Y 6448.06,Z 321.53,A -58.237,B 33.54,C 2.103,S 2,T 11,E1 -2500,E2 0,E3 0,E4 0,E5 0,E6 0}
DECL E6POS XP2290={X 820.88,Y 6471.24,Z 322.41,A -58.237,B 33.54,C 2.103,S 2,T 11,E1 -2500,E2 0,E3 0,E4 0,E5 0,E6 0}
DECL E6POS XP2295={X 873.49,Y 6511.31,Z 322.72,A -31.773,B 34.169,C -2.578,S 2,T 11,E1 -2500,E2 0,E3 0,E4 0,E5 0,E6 0}
DECL E6POS XMP81302402={X 887.36,Y 6535.03,Z 321.69,A -31.773,B 34.169,C -2.578,S 2,T 11,E1 -2500,E2 0,E3 0,E4 0,E5 0,E6 0}
DECL E6POS XP2300={X 901.24,Y 6558.75,Z 320.68,A -31.773,B 34.169,C -2.578,S 2,T 11,E1 -2500,E2 0,E3 0,E4 0,E5 0,E6 0}
DECL E6POS XP2305={X 924.04,Y 6590.78,Z 319.75,A -58.729,B 33.558,C 0.883,S 2,T 11,E1 -2500,E2 0,E3 0,E4 0,E5 0,E6 0}
DECL E6POS XMP81302403={X 949.8,Y 6606.12,Z 320.14,A -58.729,B 33.558,C 0.883,S 2,T 11,E1 -2500,E2 0,E3 0,E4 0,E5 0,E6 0}
DECL E6POS XP2310={X 975.56,Y 6621.48,Z 320.51,A -58.729,B 33.558,C 0.883,S 2,T 11,E1 -2500,E2 0,E3 0,E4 0,E5 0,E6 0}
DECL E6POS XP2315={X 993.22,Y 6627.63,Z 321.35,A -88.3,B 30.354,C 4.799,S 2,T 11,E1 -2500,E2 0,E3 0,E4 0,E5 0,E6 0}
DECL E6POS XMP81302404={X 1026.25,Y 6626.89,Z 323.73,A -88.3,B 30.354,C 4.799,S 2,T 11,E1 -2500,E2 0,E3 0,E4 0,E5 0,E6 0}
DECL E6POS XP2320={X 1059.28,Y 6626.15,Z 326.08,A -88.3,B 30.354,C 4.799,S 2,T 11,E1 -2500,E2 0,E3 0,E4 0,E5 0,E6 0}
DECL E6POS XP2325={X 1153.9,Y 6664.02,Z 330.57,A -59.244,B 33.539,C 0.185,S 2,T 11,E1 -2500,E2 0,E3 0,E4 0,E5 0,E6 0}
DECL E6POS XMP81302405={X 1194.51,Y 6687.52,Z 331.39,A -59.244,B 33.539,C 0.185,S 2,T 11,E1 -2500,E2 0,E3 0,E4 0,E5 0,E6 0}
DECL E6POS XP2330={X 1235.11,Y 6711.01,Z 332.22,A -59.244,B 33.539,C 0.185,S 2,T 11,E1 -2500,E2 0,E3 0,E4 0,E5 0,E6 0}
DECL E6POS XP2335={X 1315.79,Y 6758.69,Z 216.65,A -62.5,B 33.528,C -4.723,S 2,T 11,E1 -2500,E2 0,E3 0,E4 0,E5 0,E6 0}
DECL E6POS XP2340={X 1258.46,Y 7002.56,Z 236.78,A -61.205,B 23.581,C -3.29,S 2,T 11,E1 -2500,E2 0,E3 0,E4 0,E5 0,E6 0}
DECL E6POS XP2345={X 1229.72,Y 6986.11,Z 308.74,A -59.605,B 23.592,C 1.333,S 2,T 11,E1 -2500,E2 0,E3 0,E4 0,E5 0,E6 0}
DECL E6POS XMP81402405={X 1186.42,Y 6961.05,Z 307.83,A -59.605,B 23.592,C 1.333,S 2,T 11,E1 -2500,E2 0,E3 0,E4 0,E5 0,E6 0}
DECL E6POS XP2350={X 1143.05,Y 6935.96,Z 306.92,A -59.605,B 23.592,C 1.333,S 2,T 11,E1 -2500,E2 0,E3 0,E4 0,E5 0,E6 0}
DECL E6POS XP2355={X 1042.54,Y 6895.79,Z 302.83,A -88.609,B 21.16,C 5.022,S 2,T 11,E1 -2500,E2 0,E3 0,E4 0,E5 0,E6 0}
DECL E6POS XMP81402404={X 1007.67,Y 6895.12,Z 299.62,A -88.609,B 21.16,C 5.022,S 2,T 11,E1 -2500,E2 0,E3 0,E4 0,E5 0,E6 0}
DECL E6POS XP2360={X 972.82,Y 6894.43,Z 296.4,A -88.609,B 21.16,C 5.022,S 2,T 11,E1 -2500,E2 0,E3 0,E4 0,E5 0,E6 0}
DECL E6POS XP2365={X 960.13,Y 6890.41,Z 296.48,A -60.364,B 23.61,C 0.154,S 2,T 11,E1 -2500,E2 0,E3 0,E4 0,E5 0,E6 0}
DECL E6POS XMP81402403={X 934.43,Y 6875.52,Z 296.02,A -59.868,B 23.578,C 1.453,S 2,T 11,E1 -2500,E2 0,E3 0,E4 0,E5 0,E6 0}
DECL E6POS XP2370={X 908.73,Y 6860.66,Z 295.56,A -60.364,B 23.61,C 0.154,S 2,T 11,E1 -2500,E2 0,E3 0,E4 0,E5 0,E6 0}
DECL E6POS XP2375={X 885.46,Y 6829.1,Z 296.52,A -31.973,B 24.115,C -2.27,S 2,T 11,E1 -2500,E2 0,E3 0,E4 0,E5 0,E6 0}
DECL E6POS XMP81402402={X 868.7,Y 6801.27,Z 297.71,A -31.973,B 24.115,C -2.27,S 2,T 11,E1 -2500,E2 0,E3 0,E4 0,E5 0,E6 0}
DECL E6POS XP2380={X 851.96,Y 6773.44,Z 298.87,A -31.973,B 24.115,C -2.27,S 2,T 11,E1 -2500,E2 0,E3 0,E4 0,E5 0,E6 0}
DECL E6POS XP2385={X 815.23,Y 6791.7,Z 207.67,A -31.973,B 24.115,C -2.27,S 2,T 11,E1 -2500,E2 0,E3 0,E4 0,E5 0,E6 0}
DECL E6POS XP2390={X 797.43,Y 6735.87,Z 298.29,A -59.485,B 23.589,C 0.842,S 2,T 11,E1 -2500,E2 0,E3 0,E4 0,E5 0,E6 0}
DECL E6POS XMP81402401={X 767.65,Y 6718.63,Z 297.62,A -59.485,B 23.589,C 0.842,S 2,T 11,E1 -2500,E2 0,E3 0,E4 0,E5 0,E6 0}
DECL E6POS XP2395={X 737.76,Y 6701.33,Z 296.94,A -59.485,B 23.589,C 0.842,S 2,T 11,E1 -2500,E2 0,E3 0,E4 0,E5 0,E6 0}
DECL E6POS XP2400={X 867.53,Y 6793.3,Z 199.32,A -61.113,B 23.57,C -3.351,S 2,T 11,E1 -2500,E2 0,E3 0,E4 0,E5 0,E6 0}
DECL E6POS XP2405={X 838.81,Y 7037.66,Z 96.9,A -64.108,B 33.389,C -7.639,S 2,T 11,E1 -2500,E2 0,E3 0,E4 0,E5 0,E6 0}
DECL E6POS XP2410={X 704.83,Y 6960.59,Z 271.48,A -59.796,B 33.578,C 1.092,S 2,T 11,E1 -2500,E2 0,E3 0,E4 0,E5 0,E6 0}
DECL E6POS XMP81502401={X 744.97,Y 6983.82,Z 272.39,A -59.796,B 33.578,C 1.092,S 2,T 11,E1 -2500,E2 0,E3 0,E4 0,E5 0,E6 0}
DECL E6POS XP2415={X 785.17,Y 7007.09,Z 273.31,A -59.796,B 33.578,C 1.092,S 2,T 11,E1 -2500,E2 0,E3 0,E4 0,E5 0,E6 0}
DECL E6POS XP2420={X 838.03,Y 7045.62,Z 273.72,A -31.859,B 34.031,C -2.809,S 2,T 11,E1 -2500,E2 0,E3 0,E4 0,E5 0,E6 0}
DECL E6POS XMP81502402={X 851.89,Y 7069.35,Z 272.6,A -31.859,B 34.031,C -2.809,S 2,T 11,E1 -2500,E2 0,E3 0,E4 0,E5 0,E6 0}
DECL E6POS XP2425={X 865.74,Y 7093.07,Z 271.48,A -31.859,B 34.031,C -2.809,S 2,T 11,E1 -2500,E2 0,E3 0,E4 0,E5 0,E6 0}
DECL E6POS XP2430={X 888.9,Y 7126.12,Z 269.98,A -59.089,B 33.577,C 1.884,S 2,T 11,E1 -2500,E2 0,E3 0,E4 0,E5 0,E6 0}
DECL E6POS XMP81502403={X 914.91,Y 7141.06,Z 270.81,A -59.089,B 33.577,C 1.884,S 2,T 11,E1 -2500,E2 0,E3 0,E4 0,E5 0,E6 0}
DECL E6POS XP2435={X 940.91,Y 7156,Z 271.63,A -59.089,B 33.577,C 1.884,S 2,T 11,E1 -2500,E2 0,E3 0,E4 0,E5 0,E6 0}
DECL E6POS XP2440={X 955.83,Y 7161.41,Z 272.12,A -86.301,B 30.458,C 4.823,S 2,T 11,E1 -2500,E2 0,E3 0,E4 0,E5 0,E6 0}
DECL E6POS XMP81502404={X 988.87,Y 7161.82,Z 274.49,A -86.301,B 30.458,C 4.823,S 2,T 11,E1 -2500,E2 0,E3 0,E4 0,E5 0,E6 0}
DECL E6POS XP2445={X 1021.9,Y 7162.21,Z 276.87,A -86.301,B 30.458,C 4.823,S 2,T 11,E1 -2500,E2 0,E3 0,E4 0,E5 0,E6 0}
DECL E6POS XP2450={X 1143.71,Y 7214.66,Z 282.36,A -59.453,B 33.527,C -0.027,S 2,T 11,E1 -2500,E2 0,E3 0,E4 0,E5 0,E6 0}
DECL E6POS XMP81502405={X 1183.72,Y 7237.81,Z 283.22,A -59.453,B 33.527,C -0.027,S 2,T 11,E1 -2500,E2 0,E3 0,E4 0,E5 0,E6 0}
DECL E6POS XP2455={X 1224.09,Y 7261.18,Z 284.09,A -59.453,B 33.527,C -0.027,S 2,T 11,E1 -2500,E2 0,E3 0,E4 0,E5 0,E6 0}
DECL E6POS XP2460={X 1335.58,Y 7325.35,Z 46.3,A -61.264,B 33.53,C -2.493,S 2,T 11,E1 -2500,E2 0,E3 0,E4 0,E5 0,E6 0}
DECL E6POS XP2465={X 1365.25,Y 6708.71,Z -321.99,A -61.264,B 33.53,C -2.493,S 2,T 11,E1 -2500,E2 0,E3 0,E4 0,E5 0,E6 0}
