DECL LOCAL CONST robtarget pInPos_3810BH3_Holen_Start={X 220.371540825,Y -1.63552623,Z -1720.048935393,A 0.126270359,B 0.102787624,C -0.243583371,S 0,T 0,E1 -2649.82,E2 0,E3 0,E4 0,E5 0,E6 0}
DECL LOCAL CONST robtarget pInpos_3810BH3_Holen_Ende={X 0.204306555,Y -66.185200333,Z -79.551824798,A -173.080972378,B -5.68669931,C 40.022942741,S 0,T 0,E1 -2649.81,E2 0,E3 0,E4 0,E5 0,E6 0}
DECL LOCAL CONST robtarget pVorPos_3={X -1236.651443697,Y 1265.546662493,Z 2026.512522711,A -81.498998336,B -85.939671904,C -8.245876185,S 0,T 0,E1 -2649.68,E2 9,E3 9,E4 9,E5 9,E6 9}
DECL LOCAL CONST robtarget p10={X -4836.73011243,Y 48.235512711,Z 1331.281948087,A 175.36234179,B 82.268290776,C 55.665573506,S 0,T 0,E1 -2000,E2 9,E3 9,E4 9,E5 9,E6 9}
DECL LOCAL CONST robtarget p20={X -3301.190100938,Y -150.571964482,Z 2139.685667608,A 92.79766038,B 27.307186384,C -92.654799484,S 0,T 0,E1 -2800,E2 9,E3 9,E4 9,E5 9,E6 9}
DECL LOCAL CONST robtarget p30={X -2029.157040847,Y 514.719200826,Z 3411.923685057,A -96.247773086,B -69.975285951,C 2.242712657,S 0,T 0,E1 -2800,E2 9,E3 9,E4 9,E5 9,E6 9}
DECL LOCAL CONST robtarget p40={X -1519.554551615,Y 180.469216853,Z 3026.875722946,A 130.451314099,B -78.173274463,C 100.615904037,S 0,T 0,E1 -2740.46,E2 9,E3 9,E4 9,E5 9,E6 9}
DECL LOCAL CONST robtarget p50={X -1236.715833249,Y 871.266375502,Z 2225.699993696,A 156.194129205,B -79.710022175,C 116.965289442,S 0,T 0,E1 -2650,E2 9,E3 9,E4 9,E5 9,E6 9}
DECL LOCAL CONST robtarget p60={X -1236.721784874,Y 1083.806556441,Z 2096.474012669,A -81.484150519,B -85.940382102,C -8.260891177,S 0,T 0,E1 -2649.76,E2 9,E3 9,E4 9,E5 9,E6 9}
DECL LOCAL CONST robtarget p70={X -1293.278518601,Y 656.506793603,Z 2721.943129479,A 144.961917952,B -79.823738971,C 106.720760846,S 0,T 0,E1 -2706.96,E2 9,E3 9,E4 9,E5 9,E6 9}
DECL LOCAL CONST robtarget p80={X -1519.554551615,Y 180.469216853,Z 3026.875722946,A 130.451314099,B -78.173274463,C 100.615904037,S 0,T 0,E1 -2740.46,E2 9,E3 9,E4 9,E5 9,E6 9}
DECL LOCAL CONST robtarget p90={X -2029.146724087,Y 514.709420132,Z 3411.913025605,A -96.242966971,B -69.974945503,C 2.238363972,S 0,T 0,E1 -2800,E2 9,E3 9,E4 9,E5 9,E6 9}
DECL LOCAL CONST robtarget p100={X -3210.337623989,Y -172.659387013,Z 1928.845317798,A 91.555629978,B 27.980210839,C -95.331264792,S 0,T 0,E1 -2800,E2 9,E3 9,E4 9,E5 9,E6 9}
DECL LOCAL CONST robtarget p110={X -4836.73011243,Y 48.235512711,Z 1331.281948087,A 175.36234179,B 82.268290776,C 55.665573506,S 0,T 0,E1 -2000,E2 9,E3 9,E4 9,E5 9,E6 9}
