DECL E6POS P1={X 1155.037,Y 1102.52,Z 1372.277,A 71.667,B 65.371,C -6.901,S 2,T 11,E1 150,E2 159,E3 0,E4 0,E5 0,E6 0}
DECL E6POS P2={X 3335.107,Y 103.338,Z 1856.559,A -91.958,B -48.518,C 0.86,S 2,T 43,E1 150,E2 159,E3 0,E4 0,E5 0,E6 0}
DECL E6POS P3={X 3466.586,Y -479.546,Z 652.577,A -93.939,B -4.795,C 2.828,S 2,T 35,E1 150,E2 159,E3 0,E4 0,E5 0,E6 0}
DECL E6POS P4={X 3523.986,Y -706.976,Z 102.464,A -90.3,B -0.221,C 0.061,S 2,T 35,E1 150,E2 159,E3 0,E4 0,E5 0,E6 0}
DECL E6POS P5={X 3519.983,Y -828.882,Z 101.482,A -90,B 0,C 0.021,S 2,T 35,E1 150,E2 159,E3 0,E4 0,E5 0,E6 0}
DECL E6POS P6={X 3519.994,Y -915.019,Z 101.484,A -90,B 0,C 0,S 2,T 35,E1 150,E2 159,E3 0,E4 0,E5 0,E6 0}
DECL E6POS P7={X 3519.988,Y -815.175,Z 104.689,A -90,B 0,C 0.054,S 2,T 35,E1 150,E2 159,E3 0,E4 0,E5 0,E6 0}
DECL E6POS P8={X 3519.986,Y -646.869,Z 101.481,A -90,B 0,C 0.054,S 2,T 35,E1 150,E2 159,E3 0,E4 0,E5 0,E6 0}
DECL E6POS P9={X 3461.511,Y -427.528,Z 871.084,A -90.843,B -18.161,C 4.76,S 2,T 43,E1 150,E2 159,E3 0,E4 0,E5 0,E6 0}
DECL E6POS P10={X 3108.484,Y 401.27,Z 2162.562,A -95.449,B -65.469,C -4.826,S 2,T 43,E1 150,E2 159,E3 0,E4 0,E5 0,E6 0}
DECL E6POS P11={X 868.36,Y 1284.143,Z 2779.844,A 169.632,B 15.014,C 117.472,S 2,T 35,E1 150,E2 159,E3 0,E4 0,E5 0,E6 0}
