DECL E6POS XD_s10r05u_41={X 3630.43,Y 7288.41,Z 435.41,A -60.047,B -4.18,C 0.527,S 2,T 35,E1 -5800,E2 0,E3 0,E4 0,E5 0,E6 0}
DECL E6POS XD_s10r05o_46={X 3678.34,Y 7160.3,Z 444.77,A -60.032,B -3.663,C 0.44,S 2,T 35,E1 -5800,E2 0,E3 0,E4 0,E5 0,E6 0}
DECL E6POS XD_s10r04u_41={X 2866.64,Y 6857.47,Z 425.63,A -60.066,B -4.459,C 0.65,S 2,T 35,E1 -5000,E2 0,E3 0,E4 0,E5 0,E6 0}
DECL E6POS XD_s10r04o_41={X 2917.55,Y 6710.91,Z 436.89,A -60.054,B -4.037,C 0.594,S 2,T 35,E1 -5000,E2 0,E3 0,E4 0,E5 0,E6 0}
DECL E6POS XD_s10r03u_41={X 1955.47,Y 6322.92,Z 412.3,A -60.09,B -4.79,C 0.795,S 2,T 35,E1 -4000,E2 0,E3 0,E4 0,E5 0,E6 0}
DECL E6POS XD_s10r03o_46={X 1985.91,Y 6182.07,Z 422.93,A -60.075,B -4.376,C 0.721,S 2,T 35,E1 -4000,E2 0,E3 0,E4 0,E5 0,E6 0}
DECL E6POS XD_s10r02u_46={X 942.75,Y 5744.04,Z 392.71,A -60.115,B -5.121,C 0.929,S 2,T 35,E1 -2000,E2 0,E3 0,E4 0,E5 0,E6 0}
DECL E6POS XD_s10r02o_41={X 977.12,Y 5593.96,Z 405.1,A -60.096,B -4.817,C 0.836,S 2,T 35,E1 -2000,E2 0,E3 0,E4 0,E5 0,E6 0}
DECL E6POS XD_s09r05u_41={X 3699.53,Y 7050.18,Z 451.51,A -60.032,B -3.663,C 0.44,S 2,T 35,E1 -5800,E2 0,E3 0,E4 0,E5 0,E6 0}
DECL E6POS XD_s09r05o_46={X 3747.26,Y 6921.82,Z 459.68,A -60.018,B -3.117,C 0.355,S 2,T 43,E1 -5800,E2 0,E3 0,E4 0,E5 0,E6 0}
DECL E6POS XD_s09r04u_41={X 2929.54,Y 6606.95,Z 443.35,A -60.054,B -4.037,C 0.594,S 2,T 35,E1 -5000,E2 0,E3 0,E4 0,E5 0,E6 0}
DECL E6POS XD_s09r04o_41={X 2974.54,Y 6472.5,Z 452.47,A -60.038,B -3.505,C 0.501,S 2,T 35,E1 -5000,E2 0,E3 0,E4 0,E5 0,E6 0}
DECL E6POS XD_s09r03u_41={X 1982.25,Y 6061.6,Z 430.15,A -60.075,B -4.376,C 0.721,S 2,T 35,E1 -4000,E2 0,E3 0,E4 0,E5 0,E6 0}
DECL E6POS XD_s09r03o_46={X 2012.51,Y 5918.31,Z 440,A -60.06,B -3.967,C 0.645,S 2,T 35,E1 -4000,E2 0,E3 0,E4 0,E5 0,E6 0}
DECL E6POS XD_s09r02u_41={X 959.56,Y 5476.59,Z 411.97,A -60.096,B -4.817,C 0.836,S 2,T 35,E1 -2000,E2 0,E3 0,E4 0,E5 0,E6 0}
DECL E6POS XD_s09r02o_41={X 997.18,Y 5319.64,Z 424.11,A -60.081,B -4.467,C 0.758,S 2,T 35,E1 -2000,E2 0,E3 0,E4 0,E5 0,E6 0}
DECL E6POS XD_s08r05u_41={X 3769.38,Y 6811.98,Z 465.48,A -60.018,B -3.117,C 0.355,S 2,T 43,E1 -5800,E2 0,E3 0,E4 0,E5 0,E6 0}
DECL E6POS XD_s08r05o_46={X 3817.82,Y 6683.53,Z 472.33,A -60.009,B -2.829,C 0.29,S 2,T 43,E1 -5800,E2 0,E3 0,E4 0,E5 0,E6 0}
DECL E6POS XD_s08r04u_41={X 2985.17,Y 6363.63,Z 458.36,A -60.038,B -3.505,C 0.501,S 2,T 35,E1 -5000,E2 0,E3 0,E4 0,E5 0,E6 0}
DECL E6POS XD_s08r04o_41={X 3031.63,Y 6227.31,Z 466.41,A -60.023,B -2.948,C 0.408,S 2,T 43,E1 -5000,E2 0,E3 0,E4 0,E5 0,E6 0}
DECL E6POS XD_s08r03u_41={X 2009.16,Y 5799.05,Z 446.48,A -60.06,B -3.967,C 0.645,S 2,T 35,E1 -4000,E2 0,E3 0,E4 0,E5 0,E6 0}
DECL E6POS XD_s08r03o_41={X 2040.33,Y 5656.48,Z 455.32,A -60.043,B -3.474,C 0.545,S 2,T 35,E1 -4000,E2 0,E3 0,E4 0,E5 0,E6 0}
DECL E6POS XD_s08r02u_46={X 976.5,Y 5204.51,Z 430.7,A -60.081,B -4.467,C 0.758,S 2,T 35,E1 -2000,E2 0,E3 0,E4 0,E5 0,E6 0}
DECL E6POS XD_s08r02o_41={X 1008.5,Y 5057.72,Z 441.02,A -60.062,B -4.075,C 0.656,S 2,T 35,E1 -2000,E2 0,E3 0,E4 0,E5 0,E6 0}
DECL E6POS XD_s07r05u_41={X 3838.55,Y 6573.2,Z 477.02,A -59.994,B -2.207,C 0.164,S 2,T 43,E1 -5300,E2 0,E3 0,E4 0,E5 0,E6 0}
DECL E6POS XD_s07r05o_46={X 3886.76,Y 6445.48,Z 482.32,A -59.994,B -2.207,C 0.164,S 2,T 43,E1 -5300,E2 0,E3 0,E4 0,E5 0,E6 0}
DECL E6POS XD_s07r04u_41={X 3041.71,Y 6118.78,Z 471.37,A -60.023,B -2.948,C 0.408,S 2,T 43,E1 -4500,E2 0,E3 0,E4 0,E5 0,E6 0}
DECL E6POS XD_s07r04o_41={X 3089.58,Y 5979.95,Z 478.15,A -60.007,B -2.301,C 0.295,S 2,T 43,E1 -4500,E2 0,E3 0,E4 0,E5 0,E6 0}
DECL E6POS XD_s07r03u_41={X 2036.03,Y 5537.92,Z 461,A -60.043,B -3.474,C 0.545,S 2,T 35,E1 -3500,E2 0,E3 0,E4 0,E5 0,E6 0}
DECL E6POS XD_s07r03o_41={X 2066.06,Y 5393.44,Z 468.74,A -60.026,B -2.941,C 0.436,S 2,T 43,E1 -3500,E2 0,E3 0,E4 0,E5 0,E6 0}
DECL E6POS XD_s07r02u_46={X 994,Y 4938.75,Z 447.14,A -60.062,B -4.075,C 0.656,S 2,T 35,E1 -2000,E2 0,E3 0,E4 0,E5 0,E6 0}
DECL E6POS XD_s07r02o_41={X 1029.24,Y 4789.62,Z 456.77,A -60.031,B -3.469,C 0.447,S 2,T 35,E1 -2000,E2 0,E3 0,E4 0,E5 0,E6 0}
DECL E6POS XD_s06r05u_41={X 3907.94,Y 6335.25,Z 485.8,A -59.982,B -1.31,C 0.044,S 2,T 43,E1 -5300,E2 0,E3 0,E4 0,E5 0,E6 0}
DECL E6POS XD_s06r05o_46={X 3955.8,Y 6207.59,Z 489.38,A -59.982,B -1.31,C 0.044,S 2,T 43,E1 -5300,E2 0,E3 0,E4 0,E5 0,E6 0}
DECL E6POS XD_s06r04u_41={X 3097.44,Y 5874.06,Z 481.96,A -60.007,B -2.301,C 0.295,S 2,T 43,E1 -4500,E2 0,E3 0,E4 0,E5 0,E6 0}
DECL E6POS XD_s06r04o_41={X 3146.68,Y 5734.59,Z 487.14,A -59.992,B -1.547,C 0.163,S 2,T 43,E1 -4500,E2 0,E3 0,E4 0,E5 0,E6 0}
DECL E6POS XD_s06r03u_41={X 2063.06,Y 5274.89,Z 474.16,A -60.026,B -2.941,C 0.436,S 2,T 43,E1 -3500,E2 0,E3 0,E4 0,E5 0,E6 0}
DECL E6POS XD_s06r03o_41={X 2094.74,Y 5131.15,Z 480.64,A -60.008,B -2.339,C 0.306,S 2,T 43,E1 -3250,E2 0,E3 0,E4 0,E5 0,E6 0}
DECL E6POS XD_s06r02u_41={X 1011.12,Y 4669.8,Z 462.69,A -60.031,B -3.469,C 0.447,S 2,T 35,E1 -2000,E2 0,E3 0,E4 0,E5 0,E6 0}
DECL E6POS XD_s06r02o_41={X 1041.56,Y 4520.75,Z 471.05,A -60.023,B -3.142,C 0.402,S 2,T 43,E1 -2000,E2 0,E3 0,E4 0,E5 0,E6 0}
DECL E6POS XVorpos_Unten={X 535.38,Y 6634.48,Z 1748.58,A 34.439,B 89.119,C -2.358,S 2,T 35,E1 -3800,E2 0,E3 0,E4 0,E5 0,E6 0}
DECL E6POS XP10={X 1250.47,Y 7549.63,Z 1750.5,A 19.2,B 88.839,C -2.476,S 2,T 35,E1 -5000,E2 0,E3 0,E4 0,E5 0,E6 0}
DECL E6POS XP20={X 1506.59,Y 6331.04,Z 1750.13,A 12.976,B 88.507,C -2.557,S 2,T 35,E1 -4000,E2 0,E3 0,E4 0,E5 0,E6 0}
DECL E6POS Xp30={X 1173.52,Y 5152.84,Z 1744.61,A 13.803,B 88.176,C -2.598,S 2,T 35,E1 -2000,E2 0,E3 0,E4 0,E5 0,E6 0}
DECL E6POS XD_s10r05u_5={X 3763.72,Y 7359.6,Z 437.16,A -60.047,B -4.18,C 0.527,S 2,T 35,E1 -5800,E2 0,E3 0,E4 0,E5 0,E6 0}
DECL E6POS XD_s10r05u_10={X 3744.84,Y 7353.93,Z 436.67,A -60.047,B -4.18,C 0.527,S 2,T 35,E1 -5800,E2 0,E3 0,E4 0,E5 0,E6 0}
DECL E6POS XD_s10r05u_15={X 3725.44,Y 7350.74,Z 435.97,A -60.047,B -4.18,C 0.527,S 2,T 35,E1 -5800,E2 0,E3 0,E4 0,E5 0,E6 0}
DECL E6POS XD_s10r05u_20={X 3712.85,Y 7348.14,Z 435.57,A -60.047,B -4.18,C 0.527,S 2,T 35,E1 -5800,E2 0,E3 0,E4 0,E5 0,E6 0}
DECL E6POS XD_s10r05u_25={X 3701.08,Y 7342.94,Z 435.35,A -60.047,B -4.18,C 0.527,S 2,T 35,E1 -5800,E2 0,E3 0,E4 0,E5 0,E6 0}
DECL E6POS XD_s10r05u_30={X 3660.44,Y 7319.43,Z 434.93,A -60.047,B -4.18,C 0.527,S 2,T 35,E1 -5800,E2 0,E3 0,E4 0,E5 0,E6 0}
DECL E6POS XD_s10r05u_35={X 3650.06,Y 7311.87,Z 434.91,A -60.047,B -4.18,C 0.527,S 2,T 35,E1 -5800,E2 0,E3 0,E4 0,E5 0,E6 0}
DECL E6POS XD_s10r05u_40={X 3641.55,Y 7302.25,Z 435.1,A -60.047,B -4.18,C 0.527,S 2,T 35,E1 -5800,E2 0,E3 0,E4 0,E5 0,E6 0}
DECL E6POS XD_s10r05o_5={X 3806.68,Y 7237.12,Z 445.87,A -60.032,B -3.663,C 0.44,S 2,T 35,E1 -5800,E2 0,E3 0,E4 0,E5 0,E6 0}
DECL E6POS XD_s10r05o_10={X 3791.24,Y 7224.74,Z 445.91,A -60.032,B -3.663,C 0.44,S 2,T 35,E1 -5800,E2 0,E3 0,E4 0,E5 0,E6 0}
DECL E6POS XD_s10r05o_15={X 3777.7,Y 7210.85,Z 446.12,A -60.032,B -3.663,C 0.44,S 2,T 35,E1 -5800,E2 0,E3 0,E4 0,E5 0,E6 0}
DECL E6POS XD_s10r05o_20={X 3770.3,Y 7203.47,Z 446.21,A -60.032,B -3.663,C 0.44,S 2,T 35,E1 -5800,E2 0,E3 0,E4 0,E5 0,E6 0}
DECL E6POS XD_s10r05o_25={X 3761.76,Y 7197.43,Z 446.18,A -60.032,B -3.663,C 0.44,S 2,T 35,E1 -5800,E2 0,E3 0,E4 0,E5 0,E6 0}
DECL E6POS XD_s10r05o_30={X 3719.46,Y 7172.99,Z 445.78,A -60.032,B -3.663,C 0.44,S 2,T 35,E1 -5800,E2 0,E3 0,E4 0,E5 0,E6 0}
DECL E6POS XD_s10r05o_35={X 3709.92,Y 7168.54,Z 445.63,A -60.032,B -3.663,C 0.44,S 2,T 35,E1 -5800,E2 0,E3 0,E4 0,E5 0,E6 0}
DECL E6POS XD_s10r05o_40={X 3699.96,Y 7165.86,Z 445.37,A -60.032,B -3.663,C 0.44,S 2,T 35,E1 -5800,E2 0,E3 0,E4 0,E5 0,E6 0}
DECL E6POS XD_s10r05o_45={X 3692.68,Y 7164.37,Z 445.15,A -60.032,B -3.663,C 0.44,S 2,T 35,E1 -5800,E2 0,E3 0,E4 0,E5 0,E6 0}
DECL E6POS XD_s10r04u_5={X 3028.7,Y 6940.21,Z 428.42,A -60.066,B -4.459,C 0.65,S 2,T 35,E1 -5000,E2 0,E3 0,E4 0,E5 0,E6 0}
DECL E6POS XD_s10r04u_10={X 3009.15,Y 6937.11,Z 427.67,A -60.066,B -4.459,C 0.65,S 2,T 35,E1 -5000,E2 0,E3 0,E4 0,E5 0,E6 0}
DECL E6POS XD_s10r04u_15={X 2988.07,Y 6936.41,Z 426.68,A -60.066,B -4.459,C 0.65,S 2,T 35,E1 -5000,E2 0,E3 0,E4 0,E5 0,E6 0}
DECL E6POS XD_s10r04u_20={X 2972.55,Y 6934.34,Z 426.06,A -60.066,B -4.459,C 0.65,S 2,T 35,E1 -5000,E2 0,E3 0,E4 0,E5 0,E6 0}
DECL E6POS XD_s10r04u_25={X 2958.09,Y 6928.33,Z 425.72,A -60.066,B -4.459,C 0.65,S 2,T 35,E1 -5000,E2 0,E3 0,E4 0,E5 0,E6 0}
DECL E6POS XD_s10r04u_30={X 2896.49,Y 6892.7,Z 424.92,A -60.066,B -4.459,C 0.65,S 2,T 35,E1 -5000,E2 0,E3 0,E4 0,E5 0,E6 0}
DECL E6POS XD_s10r04u_35={X 2884.06,Y 6883.16,Z 424.89,A -60.066,B -4.459,C 0.65,S 2,T 35,E1 -5000,E2 0,E3 0,E4 0,E5 0,E6 0}
DECL E6POS XD_s10r04u_40={X 2874.53,Y 6870.74,Z 425.2,A -60.066,B -4.459,C 0.65,S 2,T 35,E1 -5000,E2 0,E3 0,E4 0,E5 0,E6 0}
DECL E6POS XD_s10r04o_5={X 3068.29,Y 6805.78,Z 438.28,A -60.054,B -4.037,C 0.594,S 2,T 35,E1 -5000,E2 0,E3 0,E4 0,E5 0,E6 0}
DECL E6POS XD_s10r04o_10={X 3054.73,Y 6790.68,Z 438.54,A -60.054,B -4.037,C 0.594,S 2,T 35,E1 -5000,E2 0,E3 0,E4 0,E5 0,E6 0}
DECL E6POS XD_s10r04o_15={X 3045.27,Y 6777.18,Z 438.87,A -60.054,B -4.037,C 0.594,S 2,T 35,E1 -5000,E2 0,E3 0,E4 0,E5 0,E6 0}
DECL E6POS XD_s10r04o_20={X 3036.02,Y 6765.72,Z 439.12,A -60.054,B -4.037,C 0.594,S 2,T 35,E1 -5000,E2 0,E3 0,E4 0,E5 0,E6 0}
DECL E6POS XD_s10r04o_25={X 3024.27,Y 6756.84,Z 439.1,A -60.054,B -4.037,C 0.594,S 2,T 35,E1 -5000,E2 0,E3 0,E4 0,E5 0,E6 0}
DECL E6POS XD_s10r04o_30={X 2960.99,Y 6720.25,Z 438.34,A -60.054,B -4.037,C 0.594,S 2,T 35,E1 -5000,E2 0,E3 0,E4 0,E5 0,E6 0}
DECL E6POS XD_s10r04o_35={X 2947.44,Y 6714.49,Z 438.05,A -60.054,B -4.037,C 0.594,S 2,T 35,E1 -5000,E2 0,E3 0,E4 0,E5 0,E6 0}
DECL E6POS XD_s10r04o_40={X 2932.89,Y 6712.2,Z 437.52,A -60.054,B -4.037,C 0.594,S 2,T 35,E1 -5000,E2 0,E3 0,E4 0,E5 0,E6 0}
DECL E6POS XD_s10r03u_5={X 2103.61,Y 6402.79,Z 415.02,A -60.09,B -4.79,C 0.795,S 2,T 35,E1 -4000,E2 0,E3 0,E4 0,E5 0,E6 0}
DECL E6POS XD_s10r03u_10={X 2085.72,Y 6398.96,Z 414.31,A -60.09,B -4.79,C 0.795,S 2,T 35,E1 -4000,E2 0,E3 0,E4 0,E5 0,E6 0}
DECL E6POS XD_s10r03u_15={X 2067.03,Y 6397.26,Z 413.42,A -60.09,B -4.79,C 0.795,S 2,T 35,E1 -4000,E2 0,E3 0,E4 0,E5 0,E6 0}
DECL E6POS XD_s10r03u_20={X 2052.22,Y 6395.03,Z 412.77,A -60.09,B -4.79,C 0.795,S 2,T 35,E1 -4000,E2 0,E3 0,E4 0,E5 0,E6 0}
DECL E6POS XD_s10r03u_25={X 2038.41,Y 6389.2,Z 412.41,A -60.09,B -4.79,C 0.795,S 2,T 35,E1 -4000,E2 0,E3 0,E4 0,E5 0,E6 0}
DECL E6POS XD_s10r03u_30={X 1986,Y 6358.87,Z 411.58,A -60.09,B -4.79,C 0.795,S 2,T 35,E1 -4000,E2 0,E3 0,E4 0,E5 0,E6 0}
DECL E6POS XD_s10r03u_35={X 1973.58,Y 6349.34,Z 411.54,A -60.09,B -4.79,C 0.795,S 2,T 35,E1 -4000,E2 0,E3 0,E4 0,E5 0,E6 0}
DECL E6POS XD_s10r03u_40={X 1964.03,Y 6336.91,Z 411.84,A -60.09,B -4.79,C 0.795,S 2,T 35,E1 -4000,E2 0,E3 0,E4 0,E5 0,E6 0}
DECL E6POS XD_s10r03o_5={X 2128.21,Y 6265.53,Z 425,A -60.075,B -4.376,C 0.721,S 2,T 35,E1 -4000,E2 0,E3 0,E4 0,E5 0,E6 0}
DECL E6POS XD_s10r03o_10={X 2113.1,Y 6251.88,Z 425.08,A -60.075,B -4.376,C 0.721,S 2,T 35,E1 -4000,E2 0,E3 0,E4 0,E5 0,E6 0}
DECL E6POS XD_s10r03o_15={X 2101.12,Y 6238.1,Z 425.32,A -60.075,B -4.376,C 0.721,S 2,T 35,E1 -4000,E2 0,E3 0,E4 0,E5 0,E6 0}
DECL E6POS XD_s10r03o_20={X 2092.99,Y 6229.33,Z 425.45,A -60.075,B -4.376,C 0.721,S 2,T 35,E1 -4000,E2 0,E3 0,E4 0,E5 0,E6 0}
DECL E6POS XD_s10r03o_25={X 2083.28,Y 6222.33,Z 425.39,A -60.075,B -4.376,C 0.721,S 2,T 35,E1 -4000,E2 0,E3 0,E4 0,E5 0,E6 0}
DECL E6POS XD_s10r03o_30={X 2032.25,Y 6192.82,Z 424.63,A -60.075,B -4.376,C 0.721,S 2,T 35,E1 -4000,E2 0,E3 0,E4 0,E5 0,E6 0}
DECL E6POS XD_s10r03o_35={X 2019.69,Y 6187.36,Z 424.33,A -60.075,B -4.376,C 0.721,S 2,T 35,E1 -4000,E2 0,E3 0,E4 0,E5 0,E6 0}
DECL E6POS XD_s10r03o_40={X 2006.26,Y 6184.88,Z 423.81,A -60.075,B -4.376,C 0.721,S 2,T 35,E1 -4000,E2 0,E3 0,E4 0,E5 0,E6 0}
DECL E6POS XD_s10r03o_45={X 1992.66,Y 6183.32,Z 423.21,A -60.075,B -4.376,C 0.721,S 2,T 35,E1 -4000,E2 0,E3 0,E4 0,E5 0,E6 0}
DECL E6POS XD_s10r02u_5={X 1107.73,Y 5821.04,Z 397.04,A -60.115,B -5.121,C 0.929,S 2,T 35,E1 -2000,E2 0,E3 0,E4 0,E5 0,E6 0}
DECL E6POS XD_s10r02u_10={X 1087.9,Y 5817.11,Z 396.16,A -60.115,B -5.121,C 0.929,S 2,T 35,E1 -2000,E2 0,E3 0,E4 0,E5 0,E6 0}
DECL E6POS XD_s10r02u_15={X 1068.41,Y 5815.68,Z 395.1,A -60.115,B -5.121,C 0.929,S 2,T 35,E1 -2000,E2 0,E3 0,E4 0,E5 0,E6 0}
DECL E6POS XD_s10r02u_20={X 1055.76,Y 5815.65,Z 394.36,A -60.115,B -5.121,C 0.929,S 2,T 35,E1 -2000,E2 0,E3 0,E4 0,E5 0,E6 0}
DECL E6POS XD_s10r02u_25={X 1040.26,Y 5813.57,Z 393.6,A -60.115,B -5.121,C 0.929,S 2,T 35,E1 -2000,E2 0,E3 0,E4 0,E5 0,E6 0}
DECL E6POS XD_s10r02u_30={X 1025.8,Y 5807.57,Z 393.16,A -60.115,B -5.121,C 0.929,S 2,T 35,E1 -2000,E2 0,E3 0,E4 0,E5 0,E6 0}
DECL E6POS XD_s10r02u_35={X 970.12,Y 5775.34,Z 392.13,A -60.115,B -5.121,C 0.929,S 2,T 35,E1 -2000,E2 0,E3 0,E4 0,E5 0,E6 0}
DECL E6POS XD_s10r02u_40={X 957.71,Y 5765.8,Z 392.06,A -60.115,B -5.121,C 0.929,S 2,T 35,E1 -2000,E2 0,E3 0,E4 0,E5 0,E6 0}
DECL E6POS XD_s10r02u_45={X 948.16,Y 5753.38,Z 392.37,A -60.115,B -5.121,C 0.929,S 2,T 35,E1 -2000,E2 0,E3 0,E4 0,E5 0,E6 0}
DECL E6POS XD_s10r02o_5={X 1121.82,Y 5687.88,Z 406.95,A -60.096,B -4.817,C 0.836,S 2,T 35,E1 -2000,E2 0,E3 0,E4 0,E5 0,E6 0}
DECL E6POS XD_s10r02o_10={X 1105.57,Y 5671.86,Z 407.11,A -60.096,B -4.817,C 0.836,S 2,T 35,E1 -2000,E2 0,E3 0,E4 0,E5 0,E6 0}
DECL E6POS XD_s10r02o_15={X 1094.13,Y 5656.82,Z 407.47,A -60.096,B -4.817,C 0.836,S 2,T 35,E1 -2000,E2 0,E3 0,E4 0,E5 0,E6 0}
DECL E6POS XD_s10r02o_20={X 1085.2,Y 5646.26,Z 407.68,A -60.096,B -4.817,C 0.836,S 2,T 35,E1 -2000,E2 0,E3 0,E4 0,E5 0,E6 0}
DECL E6POS XD_s10r02o_25={X 1074.11,Y 5638.01,Z 407.61,A -60.096,B -4.817,C 0.836,S 2,T 35,E1 -2000,E2 0,E3 0,E4 0,E5 0,E6 0}
DECL E6POS XD_s10r02o_30={X 1013.42,Y 5602.9,Z 406.55,A -60.096,B -4.817,C 0.836,S 2,T 35,E1 -2000,E2 0,E3 0,E4 0,E5 0,E6 0}
DECL E6POS XD_s10r02o_35={X 1000.73,Y 5597.39,Z 406.21,A -60.096,B -4.817,C 0.836,S 2,T 35,E1 -2000,E2 0,E3 0,E4 0,E5 0,E6 0}
DECL E6POS XD_s10r02o_40={X 987.13,Y 5594.93,Z 405.6,A -60.096,B -4.817,C 0.836,S 2,T 35,E1 -2000,E2 0,E3 0,E4 0,E5 0,E6 0}
DECL E6POS XD_s09r05u_5={X 3833.52,Y 7121.64,Z 453.01,A -60.032,B -3.663,C 0.44,S 2,T 35,E1 -5800,E2 0,E3 0,E4 0,E5 0,E6 0}
DECL E6POS XD_s09r05u_10={X 3814.14,Y 7115.52,Z 452.59,A -60.032,B -3.663,C 0.44,S 2,T 35,E1 -5800,E2 0,E3 0,E4 0,E5 0,E6 0}
DECL E6POS XD_s09r05u_15={X 3794.14,Y 7112.12,Z 451.99,A -60.032,B -3.663,C 0.44,S 2,T 35,E1 -5800,E2 0,E3 0,E4 0,E5 0,E6 0}
DECL E6POS XD_s09r05u_20={X 3781.7,Y 7109.51,Z 451.64,A -60.032,B -3.663,C 0.44,S 2,T 35,E1 -5800,E2 0,E3 0,E4 0,E5 0,E6 0}
DECL E6POS XD_s09r05u_25={X 3770.06,Y 7104.34,Z 451.45,A -60.032,B -3.663,C 0.44,S 2,T 35,E1 -5800,E2 0,E3 0,E4 0,E5 0,E6 0}
DECL E6POS XD_s09r05u_30={X 3729.32,Y 7080.8,Z 451.09,A -60.032,B -3.663,C 0.44,S 2,T 35,E1 -5800,E2 0,E3 0,E4 0,E5 0,E6 0}
DECL E6POS XD_s09r05u_35={X 3719.05,Y 7073.33,Z 451.08,A -60.032,B -3.663,C 0.44,S 2,T 35,E1 -5800,E2 0,E3 0,E4 0,E5 0,E6 0}
DECL E6POS XD_s09r05u_40={X 3710.59,Y 7063.83,Z 451.23,A -60.032,B -3.663,C 0.44,S 2,T 35,E1 -5800,E2 0,E3 0,E4 0,E5 0,E6 0}
DECL E6POS XD_s09r05o_5={X 3877.63,Y 7000.19,Z 460.56,A -60.018,B -3.117,C 0.355,S 2,T 43,E1 -5800,E2 0,E3 0,E4 0,E5 0,E6 0}
DECL E6POS XD_s09r05o_10={X 3860.82,Y 6986.7,Z 460.61,A -60.018,B -3.117,C 0.355,S 2,T 43,E1 -5800,E2 0,E3 0,E4 0,E5 0,E6 0}
DECL E6POS XD_s09r05o_15={X 3847.05,Y 6972.41,Z 460.8,A -60.018,B -3.117,C 0.355,S 2,T 43,E1 -5800,E2 0,E3 0,E4 0,E5 0,E6 0}
DECL E6POS XD_s09r05o_20={X 3839.5,Y 6964.87,Z 460.9,A -60.018,B -3.117,C 0.355,S 2,T 43,E1 -5800,E2 0,E3 0,E4 0,E5 0,E6 0}
DECL E6POS XD_s09r05o_25={X 3830.82,Y 6958.65,Z 460.88,A -60.018,B -3.117,C 0.355,S 2,T 43,E1 -5800,E2 0,E3 0,E4 0,E5 0,E6 0}
DECL E6POS XD_s09r05o_30={X 3788.87,Y 6934.4,Z 460.56,A -60.018,B -3.117,C 0.355,S 2,T 43,E1 -5800,E2 0,E3 0,E4 0,E5 0,E6 0}
DECL E6POS XD_s09r05o_35={X 3779.22,Y 6929.91,Z 460.42,A -60.018,B -3.117,C 0.355,S 2,T 43,E1 -5800,E2 0,E3 0,E4 0,E5 0,E6 0}
DECL E6POS XD_s09r05o_40={X 3768.93,Y 6927.2,Z 460.19,A -60.018,B -3.117,C 0.355,S 2,T 43,E1 -5800,E2 0,E3 0,E4 0,E5 0,E6 0}
DECL E6POS XD_s09r05o_45={X 3761.64,Y 6925.76,Z 460,A -60.018,B -3.117,C 0.355,S 2,T 43,E1 -5800,E2 0,E3 0,E4 0,E5 0,E6 0}
DECL E6POS XD_s09r04u_5={X 3084.31,Y 6688.84,Z 445.56,A -60.054,B -4.037,C 0.594,S 2,T 35,E1 -5000,E2 0,E3 0,E4 0,E5 0,E6 0}
DECL E6POS XD_s09r04u_10={X 3060.99,Y 6681.98,Z 444.94,A -60.054,B -4.037,C 0.594,S 2,T 35,E1 -5000,E2 0,E3 0,E4 0,E5 0,E6 0}
DECL E6POS XD_s09r04u_15={X 3036.56,Y 6678.99,Z 444.03,A -60.054,B -4.037,C 0.594,S 2,T 35,E1 -5000,E2 0,E3 0,E4 0,E5 0,E6 0}
DECL E6POS XD_s09r04u_20={X 3022.14,Y 6676.68,Z 443.53,A -60.054,B -4.037,C 0.594,S 2,T 35,E1 -5000,E2 0,E3 0,E4 0,E5 0,E6 0}
DECL E6POS XD_s09r04u_25={X 3008.68,Y 6670.95,Z 443.26,A -60.054,B -4.037,C 0.594,S 2,T 35,E1 -5000,E2 0,E3 0,E4 0,E5 0,E6 0}
DECL E6POS XD_s09r04u_30={X 2963.48,Y 6644.81,Z 442.73,A -60.054,B -4.037,C 0.594,S 2,T 35,E1 -5000,E2 0,E3 0,E4 0,E5 0,E6 0}
DECL E6POS XD_s09r04u_35={X 2952.71,Y 6636.89,Z 442.7,A -60.054,B -4.037,C 0.594,S 2,T 35,E1 -5000,E2 0,E3 0,E4 0,E5 0,E6 0}
DECL E6POS XD_s09r04u_40={X 2942.62,Y 6624.65,Z 442.78,A -60.054,B -4.037,C 0.594,S 2,T 35,E1 -5000,E2 0,E3 0,E4 0,E5 0,E6 0}
DECL E6POS XD_s09r04o_5={X 3120.66,Y 6562.1,Z 453.78,A -60.038,B -3.505,C 0.501,S 2,T 35,E1 -5000,E2 0,E3 0,E4 0,E5 0,E6 0}
DECL E6POS XD_s09r04o_10={X 3103.95,Y 6547.8,Z 453.84,A -60.038,B -3.505,C 0.501,S 2,T 35,E1 -5000,E2 0,E3 0,E4 0,E5 0,E6 0}
DECL E6POS XD_s09r04o_15={X 3089.89,Y 6531.74,Z 454.09,A -60.038,B -3.505,C 0.501,S 2,T 35,E1 -5000,E2 0,E3 0,E4 0,E5 0,E6 0}
DECL E6POS XD_s09r04o_20={X 3081.66,Y 6522.9,Z 454.22,A -60.038,B -3.505,C 0.501,S 2,T 35,E1 -5000,E2 0,E3 0,E4 0,E5 0,E6 0}
DECL E6POS XD_s09r04o_25={X 3071.92,Y 6515.76,Z 454.18,A -60.038,B -3.505,C 0.501,S 2,T 35,E1 -5000,E2 0,E3 0,E4 0,E5 0,E6 0}
DECL E6POS XD_s09r04o_30={X 3016.69,Y 6483.82,Z 453.6,A -60.038,B -3.505,C 0.501,S 2,T 35,E1 -5000,E2 0,E3 0,E4 0,E5 0,E6 0}
DECL E6POS XD_s09r04o_35={X 3005.7,Y 6478.87,Z 453.4,A -60.038,B -3.505,C 0.501,S 2,T 35,E1 -5000,E2 0,E3 0,E4 0,E5 0,E6 0}
DECL E6POS XD_s09r04o_40={X 2993.95,Y 6476.2,Z 453.07,A -60.038,B -3.505,C 0.501,S 2,T 35,E1 -5000,E2 0,E3 0,E4 0,E5 0,E6 0}
DECL E6POS XD_s09r03u_5={X 2131,Y 6140.94,Z 432.7,A -60.075,B -4.376,C 0.721,S 2,T 35,E1 -4000,E2 0,E3 0,E4 0,E5 0,E6 0}
DECL E6POS XD_s09r03u_10={X 2112.69,Y 6137.23,Z 432.03,A -60.075,B -4.376,C 0.721,S 2,T 35,E1 -4000,E2 0,E3 0,E4 0,E5 0,E6 0}
DECL E6POS XD_s09r03u_15={X 2093.78,Y 6135.63,Z 431.2,A -60.075,B -4.376,C 0.721,S 2,T 35,E1 -4000,E2 0,E3 0,E4 0,E5 0,E6 0}
DECL E6POS XD_s09r03u_20={X 2078.69,Y 6133.47,Z 430.59,A -60.075,B -4.376,C 0.721,S 2,T 35,E1 -4000,E2 0,E3 0,E4 0,E5 0,E6 0}
DECL E6POS XD_s09r03u_25={X 2064.6,Y 6127.56,Z 430.25,A -60.075,B -4.376,C 0.721,S 2,T 35,E1 -4000,E2 0,E3 0,E4 0,E5 0,E6 0}
DECL E6POS XD_s09r03u_30={X 2012.54,Y 6097.45,Z 429.49,A -60.075,B -4.376,C 0.721,S 2,T 35,E1 -4000,E2 0,E3 0,E4 0,E5 0,E6 0}
DECL E6POS XD_s09r03u_35={X 2000.12,Y 6087.91,Z 429.45,A -60.075,B -4.376,C 0.721,S 2,T 35,E1 -4000,E2 0,E3 0,E4 0,E5 0,E6 0}
DECL E6POS XD_s09r03u_40={X 1990.58,Y 6075.48,Z 429.73,A -60.075,B -4.376,C 0.721,S 2,T 35,E1 -4000,E2 0,E3 0,E4 0,E5 0,E6 0}
DECL E6POS XD_s09r03o_5={X 2153.79,Y 6001.21,Z 441.84,A -60.06,B -3.967,C 0.645,S 2,T 35,E1 -4000,E2 0,E3 0,E4 0,E5 0,E6 0}
DECL E6POS XD_s09r03o_10={X 2140.53,Y 5988.31,Z 441.96,A -60.06,B -3.967,C 0.645,S 2,T 35,E1 -4000,E2 0,E3 0,E4 0,E5 0,E6 0}
DECL E6POS XD_s09r03o_15={X 2130.05,Y 5975.44,Z 442.2,A -60.06,B -3.967,C 0.645,S 2,T 35,E1 -4000,E2 0,E3 0,E4 0,E5 0,E6 0}
DECL E6POS XD_s09r03o_20={X 2121.63,Y 5966.09,Z 442.33,A -60.06,B -3.967,C 0.645,S 2,T 35,E1 -4000,E2 0,E3 0,E4 0,E5 0,E6 0}
DECL E6POS XD_s09r03o_25={X 2111.46,Y 5958.68,Z 442.29,A -60.06,B -3.967,C 0.645,S 2,T 35,E1 -4000,E2 0,E3 0,E4 0,E5 0,E6 0}
DECL E6POS XD_s09r03o_30={X 2059.52,Y 5928.64,Z 441.59,A -60.06,B -3.967,C 0.645,S 2,T 35,E1 -4000,E2 0,E3 0,E4 0,E5 0,E6 0}
DECL E6POS XD_s09r03o_35={X 2046.45,Y 5923.02,Z 441.3,A -60.06,B -3.967,C 0.645,S 2,T 35,E1 -4000,E2 0,E3 0,E4 0,E5 0,E6 0}
DECL E6POS XD_s09r03o_40={X 2032.43,Y 5920.64,Z 440.79,A -60.06,B -3.967,C 0.645,S 2,T 35,E1 -4000,E2 0,E3 0,E4 0,E5 0,E6 0}
DECL E6POS XD_s09r03o_45={X 2025.78,Y 5920.16,Z 440.51,A -60.06,B -3.967,C 0.645,S 2,T 35,E1 -4000,E2 0,E3 0,E4 0,E5 0,E6 0}
DECL E6POS XD_s09r02u_5={X 1121.48,Y 5553.37,Z 415.81,A -60.096,B -4.817,C 0.836,S 2,T 35,E1 -2000,E2 0,E3 0,E4 0,E5 0,E6 0}
DECL E6POS XD_s09r02u_10={X 1099.46,Y 5550.06,Z 414.83,A -60.096,B -4.817,C 0.836,S 2,T 35,E1 -2000,E2 0,E3 0,E4 0,E5 0,E6 0}
DECL E6POS XD_s09r02u_15={X 1072.38,Y 5549.53,Z 413.38,A -60.096,B -4.817,C 0.836,S 2,T 35,E1 -2000,E2 0,E3 0,E4 0,E5 0,E6 0}
DECL E6POS XD_s09r02u_20={X 1056.86,Y 5547.46,Z 412.66,A -60.096,B -4.817,C 0.836,S 2,T 35,E1 -2000,E2 0,E3 0,E4 0,E5 0,E6 0}
DECL E6POS XD_s09r02u_25={X 1042.41,Y 5541.45,Z 412.26,A -60.096,B -4.817,C 0.836,S 2,T 35,E1 -2000,E2 0,E3 0,E4 0,E5 0,E6 0}
DECL E6POS XD_s09r02u_30={X 988.2,Y 5510.07,Z 411.34,A -60.096,B -4.817,C 0.836,S 2,T 35,E1 -2000,E2 0,E3 0,E4 0,E5 0,E6 0}
DECL E6POS XD_s09r02u_35={X 975.77,Y 5500.54,Z 411.28,A -60.096,B -4.817,C 0.836,S 2,T 35,E1 -2000,E2 0,E3 0,E4 0,E5 0,E6 0}
DECL E6POS XD_s09r02u_40={X 966.23,Y 5488.11,Z 411.57,A -60.096,B -4.817,C 0.836,S 2,T 35,E1 -2000,E2 0,E3 0,E4 0,E5 0,E6 0}
DECL E6POS XD_s09r02o_5={X 1137.98,Y 5416.02,Z 425.41,A -60.081,B -4.467,C 0.758,S 2,T 35,E1 -2000,E2 0,E3 0,E4 0,E5 0,E6 0}
DECL E6POS XD_s09r02o_10={X 1125.65,Y 5401.72,Z 425.66,A -60.081,B -4.467,C 0.758,S 2,T 35,E1 -2000,E2 0,E3 0,E4 0,E5 0,E6 0}
DECL E6POS XD_s09r02o_15={X 1115.25,Y 5386.14,Z 426.09,A -60.081,B -4.467,C 0.758,S 2,T 35,E1 -2000,E2 0,E3 0,E4 0,E5 0,E6 0}
DECL E6POS XD_s09r02o_20={X 1105.45,Y 5372.82,Z 426.41,A -60.081,B -4.467,C 0.758,S 2,T 35,E1 -2000,E2 0,E3 0,E4 0,E5 0,E6 0}
DECL E6POS XD_s09r02o_25={X 1092.41,Y 5362.65,Z 426.37,A -60.081,B -4.467,C 0.758,S 2,T 35,E1 -2000,E2 0,E3 0,E4 0,E5 0,E6 0}
DECL E6POS XD_s09r02o_30={X 1032.1,Y 5327.76,Z 425.42,A -60.081,B -4.467,C 0.758,S 2,T 35,E1 -2000,E2 0,E3 0,E4 0,E5 0,E6 0}
DECL E6POS XD_s09r02o_35={X 1017.63,Y 5321.75,Z 425.04,A -60.081,B -4.467,C 0.758,S 2,T 35,E1 -2000,E2 0,E3 0,E4 0,E5 0,E6 0}
DECL E6POS XD_s09r02o_40={X 1002.12,Y 5319.68,Z 424.37,A -60.081,B -4.467,C 0.758,S 2,T 35,E1 -2000,E2 0,E3 0,E4 0,E5 0,E6 0}
DECL E6POS XD_s08r05u_5={X 3903.03,Y 6883.41,Z 466.67,A -60.018,B -3.117,C 0.355,S 2,T 43,E1 -5800,E2 0,E3 0,E4 0,E5 0,E6 0}
DECL E6POS XD_s08r05u_10={X 3882.91,Y 6876.63,Z 466.32,A -60.018,B -3.117,C 0.355,S 2,T 43,E1 -5800,E2 0,E3 0,E4 0,E5 0,E6 0}
DECL E6POS XD_s08r05u_15={X 3862.56,Y 6872.89,Z 465.82,A -60.018,B -3.117,C 0.355,S 2,T 43,E1 -5800,E2 0,E3 0,E4 0,E5 0,E6 0}
DECL E6POS XD_s08r05u_20={X 3850.48,Y 6870.25,Z 465.54,A -60.018,B -3.117,C 0.355,S 2,T 43,E1 -5800,E2 0,E3 0,E4 0,E5 0,E6 0}
DECL E6POS XD_s08r05u_25={X 3839.18,Y 6865.19,Z 465.4,A -60.018,B -3.117,C 0.355,S 2,T 43,E1 -5800,E2 0,E3 0,E4 0,E5 0,E6 0}
DECL E6POS XD_s08r05u_30={X 3799.07,Y 6842.01,Z 465.12,A -60.018,B -3.117,C 0.355,S 2,T 43,E1 -5800,E2 0,E3 0,E4 0,E5 0,E6 0}
DECL E6POS XD_s08r05u_35={X 3789.06,Y 6834.78,Z 465.12,A -60.018,B -3.117,C 0.355,S 2,T 43,E1 -5800,E2 0,E3 0,E4 0,E5 0,E6 0}
DECL E6POS XD_s08r05u_40={X 3780.77,Y 6825.62,Z 465.25,A -60.018,B -3.117,C 0.355,S 2,T 43,E1 -5800,E2 0,E3 0,E4 0,E5 0,E6 0}
DECL E6POS XD_s08r05o_5={X 3945.52,Y 6760.86,Z 472.94,A -60.009,B -2.829,C 0.29,S 2,T 43,E1 -5800,E2 0,E3 0,E4 0,E5 0,E6 0}
DECL E6POS XD_s08r05o_10={X 3929.31,Y 6747.09,Z 473.02,A -60.009,B -2.829,C 0.29,S 2,T 43,E1 -5800,E2 0,E3 0,E4 0,E5 0,E6 0}
DECL E6POS XD_s08r05o_15={X 3917.76,Y 6734.32,Z 473.19,A -60.009,B -2.829,C 0.29,S 2,T 43,E1 -5800,E2 0,E3 0,E4 0,E5 0,E6 0}
DECL E6POS XD_s08r05o_20={X 3909.97,Y 6726.35,Z 473.29,A -60.009,B -2.829,C 0.29,S 2,T 43,E1 -5800,E2 0,E3 0,E4 0,E5 0,E6 0}
DECL E6POS XD_s08r05o_25={X 3900.93,Y 6719.84,Z 473.27,A -60.009,B -2.829,C 0.29,S 2,T 43,E1 -5800,E2 0,E3 0,E4 0,E5 0,E6 0}
DECL E6POS XD_s08r05o_30={X 3858.6,Y 6695.37,Z 473.03,A -60.009,B -2.829,C 0.29,S 2,T 43,E1 -5800,E2 0,E3 0,E4 0,E5 0,E6 0}
DECL E6POS XD_s08r05o_35={X 3848.51,Y 6690.72,Z 472.92,A -60.009,B -2.829,C 0.29,S 2,T 43,E1 -5800,E2 0,E3 0,E4 0,E5 0,E6 0}
DECL E6POS XD_s08r05o_40={X 3837.74,Y 6688.01,Z 472.72,A -60.009,B -2.829,C 0.29,S 2,T 43,E1 -5800,E2 0,E3 0,E4 0,E5 0,E6 0}
DECL E6POS XD_s08r05o_45={X 3831.06,Y 6686.82,Z 472.57,A -60.009,B -2.829,C 0.29,S 2,T 43,E1 -5800,E2 0,E3 0,E4 0,E5 0,E6 0}
DECL E6POS XD_s08r04u_5={X 3139.44,Y 6443.99,Z 460.33,A -60.038,B -3.505,C 0.501,S 2,T 35,E1 -5000,E2 0,E3 0,E4 0,E5 0,E6 0}
DECL E6POS XD_s08r04u_10={X 3119.2,Y 6438.61,Z 459.84,A -60.038,B -3.505,C 0.501,S 2,T 35,E1 -5000,E2 0,E3 0,E4 0,E5 0,E6 0}
DECL E6POS XD_s08r04u_15={X 3097.68,Y 6436.14,Z 459.13,A -60.038,B -3.505,C 0.501,S 2,T 35,E1 -5000,E2 0,E3 0,E4 0,E5 0,E6 0}
DECL E6POS XD_s08r04u_20={X 3083.36,Y 6433.82,Z 458.7,A -60.038,B -3.505,C 0.501,S 2,T 35,E1 -5000,E2 0,E3 0,E4 0,E5 0,E6 0}
DECL E6POS XD_s08r04u_25={X 3070.03,Y 6428.12,Z 458.47,A -60.038,B -3.505,C 0.501,S 2,T 35,E1 -5000,E2 0,E3 0,E4 0,E5 0,E6 0}
DECL E6POS XD_s08r04u_30={X 3014.81,Y 6396.19,Z 457.91,A -60.038,B -3.505,C 0.501,S 2,T 35,E1 -5000,E2 0,E3 0,E4 0,E5 0,E6 0}
DECL E6POS XD_s08r04u_35={X 3003.23,Y 6387.5,Z 457.89,A -60.038,B -3.505,C 0.501,S 2,T 35,E1 -5000,E2 0,E3 0,E4 0,E5 0,E6 0}
DECL E6POS XD_s08r04u_40={X 2994.08,Y 6376.26,Z 458.09,A -60.038,B -3.505,C 0.501,S 2,T 35,E1 -5000,E2 0,E3 0,E4 0,E5 0,E6 0}
DECL E6POS XD_s08r04o_5={X 3176.41,Y 6316.3,Z 467.47,A -60.023,B -2.948,C 0.408,S 2,T 43,E1 -5000,E2 0,E3 0,E4 0,E5 0,E6 0}
DECL E6POS XD_s08r04o_10={X 3159.13,Y 6301.32,Z 467.54,A -60.023,B -2.948,C 0.408,S 2,T 43,E1 -5000,E2 0,E3 0,E4 0,E5 0,E6 0}
DECL E6POS XD_s08r04o_15={X 3145.99,Y 6286.11,Z 467.75,A -60.023,B -2.948,C 0.408,S 2,T 43,E1 -5000,E2 0,E3 0,E4 0,E5 0,E6 0}
DECL E6POS XD_s08r04o_20={X 3137.74,Y 6277.23,Z 467.87,A -60.023,B -2.948,C 0.408,S 2,T 43,E1 -5000,E2 0,E3 0,E4 0,E5 0,E6 0}
DECL E6POS XD_s08r04o_25={X 3127.96,Y 6270.06,Z 467.84,A -60.023,B -2.948,C 0.408,S 2,T 43,E1 -5000,E2 0,E3 0,E4 0,E5 0,E6 0}
DECL E6POS XD_s08r04o_30={X 3073.28,Y 6238.46,Z 467.36,A -60.023,B -2.948,C 0.408,S 2,T 43,E1 -5000,E2 0,E3 0,E4 0,E5 0,E6 0}
DECL E6POS XD_s08r04o_35={X 3062.24,Y 6233.48,Z 467.19,A -60.023,B -2.948,C 0.408,S 2,T 43,E1 -5000,E2 0,E3 0,E4 0,E5 0,E6 0}
DECL E6POS XD_s08r04o_40={X 3050.44,Y 6230.82,Z 466.91,A -60.023,B -2.948,C 0.408,S 2,T 43,E1 -5000,E2 0,E3 0,E4 0,E5 0,E6 0}
DECL E6POS XD_s08r03u_5={X 2155.5,Y 5875.78,Z 448.78,A -60.06,B -3.967,C 0.645,S 2,T 35,E1 -4000,E2 0,E3 0,E4 0,E5 0,E6 0}
DECL E6POS XD_s08r03u_10={X 2132.99,Y 5870.61,Z 448.08,A -60.06,B -3.967,C 0.645,S 2,T 35,E1 -4000,E2 0,E3 0,E4 0,E5 0,E6 0}
DECL E6POS XD_s08r03u_15={X 2114.28,Y 5868.93,Z 447.34,A -60.06,B -3.967,C 0.645,S 2,T 35,E1 -4000,E2 0,E3 0,E4 0,E5 0,E6 0}
DECL E6POS XD_s08r03u_20={X 2099.45,Y 5866.7,Z 446.81,A -60.06,B -3.967,C 0.645,S 2,T 35,E1 -4000,E2 0,E3 0,E4 0,E5 0,E6 0}
DECL E6POS XD_s08r03u_25={X 2085.63,Y 5860.87,Z 446.52,A -60.06,B -3.967,C 0.645,S 2,T 35,E1 -4000,E2 0,E3 0,E4 0,E5 0,E6 0}
DECL E6POS XD_s08r03u_30={X 2038.88,Y 5833.83,Z 445.91,A -60.06,B -3.967,C 0.645,S 2,T 35,E1 -4000,E2 0,E3 0,E4 0,E5 0,E6 0}
DECL E6POS XD_s08r03u_35={X 2026.45,Y 5824.28,Z 445.88,A -60.06,B -3.967,C 0.645,S 2,T 35,E1 -4000,E2 0,E3 0,E4 0,E5 0,E6 0}
DECL E6POS XD_s08r03u_40={X 2016.92,Y 5811.86,Z 446.14,A -60.06,B -3.967,C 0.645,S 2,T 35,E1 -4000,E2 0,E3 0,E4 0,E5 0,E6 0}
DECL E6POS XD_s08r03o_5={X 2181.34,Y 5739.88,Z 456.88,A -60.043,B -3.474,C 0.545,S 2,T 35,E1 -4000,E2 0,E3 0,E4 0,E5 0,E6 0}
DECL E6POS XD_s08r03o_10={X 2167.44,Y 5726.9,Z 456.96,A -60.043,B -3.474,C 0.545,S 2,T 35,E1 -4000,E2 0,E3 0,E4 0,E5 0,E6 0}
DECL E6POS XD_s08r03o_15={X 2155.49,Y 5712.79,Z 457.17,A -60.043,B -3.474,C 0.545,S 2,T 35,E1 -4000,E2 0,E3 0,E4 0,E5 0,E6 0}
DECL E6POS XD_s08r03o_20={X 2147.18,Y 5703.63,Z 457.29,A -60.043,B -3.474,C 0.545,S 2,T 35,E1 -4000,E2 0,E3 0,E4 0,E5 0,E6 0}
DECL E6POS XD_s08r03o_25={X 2137.16,Y 5696.37,Z 457.24,A -60.043,B -3.474,C 0.545,S 2,T 35,E1 -4000,E2 0,E3 0,E4 0,E5 0,E6 0}
DECL E6POS XD_s08r03o_30={X 2085.89,Y 5666.72,Z 456.66,A -60.043,B -3.474,C 0.545,S 2,T 35,E1 -4000,E2 0,E3 0,E4 0,E5 0,E6 0}
DECL E6POS XD_s08r03o_35={X 2072.99,Y 5661.16,Z 456.41,A -60.043,B -3.474,C 0.545,S 2,T 35,E1 -4000,E2 0,E3 0,E4 0,E5 0,E6 0}
DECL E6POS XD_s08r03o_40={X 2059.17,Y 5658.74,Z 455.97,A -60.043,B -3.474,C 0.545,S 2,T 35,E1 -4000,E2 0,E3 0,E4 0,E5 0,E6 0}
DECL E6POS XD_s08r02u_5={X 1140.72,Y 5283.9,Z 434.12,A -60.081,B -4.467,C 0.758,S 2,T 35,E1 -2000,E2 0,E3 0,E4 0,E5 0,E6 0}
DECL E6POS XD_s08r02u_10={X 1120.21,Y 5279.49,Z 433.37,A -60.081,B -4.467,C 0.758,S 2,T 35,E1 -2000,E2 0,E3 0,E4 0,E5 0,E6 0}
DECL E6POS XD_s08r02u_15={X 1098.95,Y 5277.85,Z 432.4,A -60.081,B -4.467,C 0.758,S 2,T 35,E1 -2000,E2 0,E3 0,E4 0,E5 0,E6 0}
DECL E6POS XD_s08r02u_20={X 1089.72,Y 5277.83,Z 431.94,A -60.081,B -4.467,C 0.758,S 2,T 35,E1 -2000,E2 0,E3 0,E4 0,E5 0,E6 0}
DECL E6POS XD_s08r02u_25={X 1074.21,Y 5275.76,Z 431.29,A -60.081,B -4.467,C 0.758,S 2,T 35,E1 -2000,E2 0,E3 0,E4 0,E5 0,E6 0}
DECL E6POS XD_s08r02u_30={X 1059.75,Y 5269.75,Z 430.92,A -60.081,B -4.467,C 0.758,S 2,T 35,E1 -2000,E2 0,E3 0,E4 0,E5 0,E6 0}
DECL E6POS XD_s08r02u_35={X 1005.37,Y 5238.29,Z 430.1,A -60.081,B -4.467,C 0.758,S 2,T 35,E1 -2000,E2 0,E3 0,E4 0,E5 0,E6 0}
DECL E6POS XD_s08r02u_40={X 992.95,Y 5228.75,Z 430.05,A -60.081,B -4.467,C 0.758,S 2,T 35,E1 -2000,E2 0,E3 0,E4 0,E5 0,E6 0}
DECL E6POS XD_s08r02u_45={X 983.42,Y 5216.32,Z 430.32,A -60.081,B -4.467,C 0.758,S 2,T 35,E1 -2000,E2 0,E3 0,E4 0,E5 0,E6 0}
DECL E6POS XD_s08r02o_5={X 1156.94,Y 5153.09,Z 442.55,A -60.062,B -4.075,C 0.656,S 2,T 35,E1 -2000,E2 0,E3 0,E4 0,E5 0,E6 0}
DECL E6POS XD_s08r02o_10={X 1140.42,Y 5137.16,Z 442.68,A -60.062,B -4.075,C 0.656,S 2,T 35,E1 -2000,E2 0,E3 0,E4 0,E5 0,E6 0}
DECL E6POS XD_s08r02o_15={X 1127.5,Y 5120.38,Z 443.03,A -60.062,B -4.075,C 0.656,S 2,T 35,E1 -2000,E2 0,E3 0,E4 0,E5 0,E6 0}
DECL E6POS XD_s08r02o_20={X 1118.56,Y 5109.76,Z 443.22,A -60.062,B -4.075,C 0.656,S 2,T 35,E1 -2000,E2 0,E3 0,E4 0,E5 0,E6 0}
DECL E6POS XD_s08r02o_25={X 1107.43,Y 5101.47,Z 443.17,A -60.062,B -4.075,C 0.656,S 2,T 35,E1 -2000,E2 0,E3 0,E4 0,E5 0,E6 0}
DECL E6POS XD_s08r02o_30={X 1047.92,Y 5067.05,Z 442.35,A -60.062,B -4.075,C 0.656,S 2,T 35,E1 -2000,E2 0,E3 0,E4 0,E5 0,E6 0}
DECL E6POS XD_s08r02o_35={X 1035.17,Y 5061.52,Z 442.06,A -60.062,B -4.075,C 0.656,S 2,T 35,E1 -2000,E2 0,E3 0,E4 0,E5 0,E6 0}
DECL E6POS XD_s08r02o_40={X 1021.5,Y 5059.09,Z 441.56,A -60.062,B -4.075,C 0.656,S 2,T 35,E1 -2000,E2 0,E3 0,E4 0,E5 0,E6 0}
DECL E6POS XD_s07r05u_5={X 3973.29,Y 6645.78,Z 477.86,A -59.994,B -2.207,C 0.164,S 2,T 43,E1 -5300,E2 0,E3 0,E4 0,E5 0,E6 0}
DECL E6POS XD_s07r05u_10={X 3952.45,Y 6638.47,Z 477.6,A -59.994,B -2.207,C 0.164,S 2,T 43,E1 -5300,E2 0,E3 0,E4 0,E5 0,E6 0}
DECL E6POS XD_s07r05u_15={X 3931.39,Y 6634.39,Z 477.21,A -59.994,B -2.207,C 0.164,S 2,T 43,E1 -5300,E2 0,E3 0,E4 0,E5 0,E6 0}
DECL E6POS XD_s07r05u_20={X 3919.49,Y 6631.74,Z 477,A -59.994,B -2.207,C 0.164,S 2,T 43,E1 -5300,E2 0,E3 0,E4 0,E5 0,E6 0}
DECL E6POS XD_s07r05u_25={X 3908.37,Y 6626.74,Z 476.89,A -59.994,B -2.207,C 0.164,S 2,T 43,E1 -5300,E2 0,E3 0,E4 0,E5 0,E6 0}
DECL E6POS XD_s07r05u_30={X 3869.39,Y 6604.21,Z 476.7,A -59.994,B -2.207,C 0.164,S 2,T 43,E1 -5300,E2 0,E3 0,E4 0,E5 0,E6 0}
DECL E6POS XD_s07r05u_35={X 3859.51,Y 6597.1,Z 476.7,A -59.994,B -2.207,C 0.164,S 2,T 43,E1 -5300,E2 0,E3 0,E4 0,E5 0,E6 0}
DECL E6POS XD_s07r05u_40={X 3851.3,Y 6588.12,Z 476.81,A -59.994,B -2.207,C 0.164,S 2,T 43,E1 -5300,E2 0,E3 0,E4 0,E5 0,E6 0}
DECL E6POS XD_s07r05o_5={X 4014.91,Y 6523.03,Z 482.68,A -59.994,B -2.207,C 0.164,S 2,T 43,E1 -5300,E2 0,E3 0,E4 0,E5 0,E6 0}
DECL E6POS XD_s07r05o_10={X 3998.48,Y 6509.07,Z 482.76,A -59.994,B -2.207,C 0.164,S 2,T 43,E1 -5300,E2 0,E3 0,E4 0,E5 0,E6 0}
DECL E6POS XD_s07r05o_15={X 3986.89,Y 6496.22,Z 482.9,A -59.994,B -2.207,C 0.164,S 2,T 43,E1 -5300,E2 0,E3 0,E4 0,E5 0,E6 0}
DECL E6POS XD_s07r05o_20={X 3979.09,Y 6488.21,Z 482.98,A -59.994,B -2.207,C 0.164,S 2,T 43,E1 -5300,E2 0,E3 0,E4 0,E5 0,E6 0}
DECL E6POS XD_s07r05o_25={X 3970.01,Y 6481.67,Z 482.97,A -59.994,B -2.207,C 0.164,S 2,T 43,E1 -5300,E2 0,E3 0,E4 0,E5 0,E6 0}
DECL E6POS XD_s07r05o_30={X 3928.05,Y 6457.42,Z 482.83,A -59.994,B -2.207,C 0.164,S 2,T 43,E1 -5300,E2 0,E3 0,E4 0,E5 0,E6 0}
DECL E6POS XD_s07r05o_35={X 3917.91,Y 6452.76,Z 482.76,A -59.994,B -2.207,C 0.164,S 2,T 43,E1 -5300,E2 0,E3 0,E4 0,E5 0,E6 0}
DECL E6POS XD_s07r05o_40={X 3907.09,Y 6450.05,Z 482.62,A -59.994,B -2.207,C 0.164,S 2,T 43,E1 -5300,E2 0,E3 0,E4 0,E5 0,E6 0}
DECL E6POS XD_s07r05o_45={X 3900.26,Y 6448.85,Z 482.51,A -59.994,B -2.207,C 0.164,S 2,T 43,E1 -5300,E2 0,E3 0,E4 0,E5 0,E6 0}
DECL E6POS XD_s07r04u_5={X 3195.85,Y 6198.8,Z 472.99,A -60.023,B -2.948,C 0.408,S 2,T 43,E1 -4500,E2 0,E3 0,E4 0,E5 0,E6 0}
DECL E6POS XD_s07r04u_10={X 3176.55,Y 6193.6,Z 472.61,A -60.023,B -2.948,C 0.408,S 2,T 43,E1 -4500,E2 0,E3 0,E4 0,E5 0,E6 0}
DECL E6POS XD_s07r04u_15={X 3153.61,Y 6190.89,Z 471.99,A -60.023,B -2.948,C 0.408,S 2,T 43,E1 -4500,E2 0,E3 0,E4 0,E5 0,E6 0}
DECL E6POS XD_s07r04u_20={X 3139.23,Y 6188.59,Z 471.62,A -60.023,B -2.948,C 0.408,S 2,T 43,E1 -4500,E2 0,E3 0,E4 0,E5 0,E6 0}
DECL E6POS XD_s07r04u_25={X 3125.81,Y 6182.87,Z 471.44,A -60.023,B -2.948,C 0.408,S 2,T 43,E1 -4500,E2 0,E3 0,E4 0,E5 0,E6 0}
DECL E6POS XD_s07r04u_30={X 3071.27,Y 6151.33,Z 470.99,A -60.023,B -2.948,C 0.408,S 2,T 43,E1 -4500,E2 0,E3 0,E4 0,E5 0,E6 0}
DECL E6POS XD_s07r04u_35={X 3059.64,Y 6142.59,Z 470.98,A -60.023,B -2.948,C 0.408,S 2,T 43,E1 -4500,E2 0,E3 0,E4 0,E5 0,E6 0}
DECL E6POS XD_s07r04u_40={X 3050.46,Y 6131.29,Z 471.15,A -60.023,B -2.948,C 0.408,S 2,T 43,E1 -4500,E2 0,E3 0,E4 0,E5 0,E6 0}
DECL E6POS XD_s07r04o_5={X 3232.56,Y 6069.88,Z 478.87,A -60.007,B -2.301,C 0.295,S 2,T 43,E1 -4500,E2 0,E3 0,E4 0,E5 0,E6 0}
DECL E6POS XD_s07r04o_10={X 3217.1,Y 6055.24,Z 478.97,A -60.007,B -2.301,C 0.295,S 2,T 43,E1 -4500,E2 0,E3 0,E4 0,E5 0,E6 0}
DECL E6POS XD_s07r04o_15={X 3204.69,Y 6039.84,Z 479.16,A -60.007,B -2.301,C 0.295,S 2,T 43,E1 -4500,E2 0,E3 0,E4 0,E5 0,E6 0}
DECL E6POS XD_s07r04o_20={X 3196.08,Y 6030.01,Z 479.27,A -60.007,B -2.301,C 0.295,S 2,T 43,E1 -4500,E2 0,E3 0,E4 0,E5 0,E6 0}
DECL E6POS XD_s07r04o_25={X 3185.55,Y 6022.29,Z 479.27,A -60.007,B -2.301,C 0.295,S 2,T 43,E1 -4500,E2 0,E3 0,E4 0,E5 0,E6 0}
DECL E6POS XD_s07r04o_30={X 3129.51,Y 5989.9,Z 478.89,A -60.007,B -2.301,C 0.295,S 2,T 43,E1 -4500,E2 0,E3 0,E4 0,E5 0,E6 0}
DECL E6POS XD_s07r04o_35={X 3117.55,Y 5984.63,Z 478.75,A -60.007,B -2.301,C 0.295,S 2,T 43,E1 -4500,E2 0,E3 0,E4 0,E5 0,E6 0}
DECL E6POS XD_s07r04o_40={X 3104.75,Y 5982.07,Z 478.5,A -60.007,B -2.301,C 0.295,S 2,T 43,E1 -4500,E2 0,E3 0,E4 0,E5 0,E6 0}
DECL E6POS XD_s07r03u_5={X 2182.78,Y 5615.57,Z 462.94,A -60.043,B -3.474,C 0.545,S 2,T 35,E1 -3500,E2 0,E3 0,E4 0,E5 0,E6 0}
DECL E6POS XD_s07r03u_10={X 2163.8,Y 5611.77,Z 462.4,A -60.043,B -3.474,C 0.545,S 2,T 35,E1 -3500,E2 0,E3 0,E4 0,E5 0,E6 0}
DECL E6POS XD_s07r03u_15={X 2146.2,Y 5610.39,Z 461.77,A -60.043,B -3.474,C 0.545,S 2,T 35,E1 -3500,E2 0,E3 0,E4 0,E5 0,E6 0}
DECL E6POS XD_s07r03u_20={X 2131.11,Y 5608.22,Z 461.3,A -60.043,B -3.474,C 0.545,S 2,T 35,E1 -3500,E2 0,E3 0,E4 0,E5 0,E6 0}
DECL E6POS XD_s07r03u_25={X 2117.06,Y 5602.32,Z 461.04,A -60.043,B -3.474,C 0.545,S 2,T 35,E1 -3500,E2 0,E3 0,E4 0,E5 0,E6 0}
DECL E6POS XD_s07r03u_30={X 2065.51,Y 5572.51,Z 460.48,A -60.043,B -3.474,C 0.545,S 2,T 35,E1 -3500,E2 0,E3 0,E4 0,E5 0,E6 0}
DECL E6POS XD_s07r03u_35={X 2053.08,Y 5562.96,Z 460.45,A -60.043,B -3.474,C 0.545,S 2,T 35,E1 -3500,E2 0,E3 0,E4 0,E5 0,E6 0}
DECL E6POS XD_s07r03u_40={X 2043.55,Y 5550.54,Z 460.69,A -60.043,B -3.474,C 0.545,S 2,T 35,E1 -3500,E2 0,E3 0,E4 0,E5 0,E6 0}
DECL E6POS XD_s07r03o_5={X 2207.06,Y 5476.37,Z 470.05,A -60.026,B -2.941,C 0.436,S 2,T 43,E1 -3500,E2 0,E3 0,E4 0,E5 0,E6 0}
DECL E6POS XD_s07r03o_10={X 2193.61,Y 5463.53,Z 470.14,A -60.026,B -2.941,C 0.436,S 2,T 43,E1 -3500,E2 0,E3 0,E4 0,E5 0,E6 0}
DECL E6POS XD_s07r03o_15={X 2182.74,Y 5450.21,Z 470.32,A -60.026,B -2.941,C 0.436,S 2,T 43,E1 -3500,E2 0,E3 0,E4 0,E5 0,E6 0}
DECL E6POS XD_s07r03o_20={X 2174.31,Y 5440.83,Z 470.43,A -60.026,B -2.941,C 0.436,S 2,T 43,E1 -3500,E2 0,E3 0,E4 0,E5 0,E6 0}
DECL E6POS XD_s07r03o_25={X 2164.11,Y 5433.4,Z 470.4,A -60.026,B -2.941,C 0.436,S 2,T 43,E1 -3500,E2 0,E3 0,E4 0,E5 0,E6 0}
DECL E6POS XD_s07r03o_30={X 2112.65,Y 5403.65,Z 469.91,A -60.026,B -2.941,C 0.436,S 2,T 43,E1 -3500,E2 0,E3 0,E4 0,E5 0,E6 0}
DECL E6POS XD_s07r03o_35={X 2099.54,Y 5398.02,Z 469.71,A -60.026,B -2.941,C 0.436,S 2,T 43,E1 -3500,E2 0,E3 0,E4 0,E5 0,E6 0}
DECL E6POS XD_s07r03o_40={X 2085.48,Y 5395.65,Z 469.31,A -60.026,B -2.941,C 0.436,S 2,T 43,E1 -3500,E2 0,E3 0,E4 0,E5 0,E6 0}
DECL E6POS XD_s07r02u_5={X 1157.91,Y 5016.55,Z 450.21,A -60.062,B -4.075,C 0.656,S 2,T 35,E1 -2000,E2 0,E3 0,E4 0,E5 0,E6 0}
DECL E6POS XD_s07r02u_10={X 1135.13,Y 5011.83,Z 449.45,A -60.062,B -4.075,C 0.656,S 2,T 35,E1 -2000,E2 0,E3 0,E4 0,E5 0,E6 0}
DECL E6POS XD_s07r02u_15={X 1116.84,Y 5010.62,Z 448.69,A -60.062,B -4.075,C 0.656,S 2,T 35,E1 -2000,E2 0,E3 0,E4 0,E5 0,E6 0}
DECL E6POS XD_s07r02u_20={X 1106.38,Y 5010.61,Z 448.22,A -60.062,B -4.075,C 0.656,S 2,T 35,E1 -2000,E2 0,E3 0,E4 0,E5 0,E6 0}
DECL E6POS XD_s07r02u_25={X 1090.86,Y 5008.54,Z 447.63,A -60.062,B -4.075,C 0.656,S 2,T 35,E1 -2000,E2 0,E3 0,E4 0,E5 0,E6 0}
DECL E6POS XD_s07r02u_30={X 1076.4,Y 5002.53,Z 447.32,A -60.062,B -4.075,C 0.656,S 2,T 35,E1 -2000,E2 0,E3 0,E4 0,E5 0,E6 0}
DECL E6POS XD_s07r02u_35={X 1021.92,Y 4971.01,Z 446.6,A -60.062,B -4.075,C 0.656,S 2,T 35,E1 -2000,E2 0,E3 0,E4 0,E5 0,E6 0}
DECL E6POS XD_s07r02u_40={X 1009.49,Y 4961.47,Z 446.56,A -60.062,B -4.075,C 0.656,S 2,T 35,E1 -2000,E2 0,E3 0,E4 0,E5 0,E6 0}
DECL E6POS XD_s07r02u_45={X 999.96,Y 4949.04,Z 446.82,A -60.062,B -4.075,C 0.656,S 2,T 35,E1 -2000,E2 0,E3 0,E4 0,E5 0,E6 0}
DECL E6POS XD_s07r02o_5={X 1172.17,Y 4883.53,Z 457.86,A -60.031,B -3.469,C 0.447,S 2,T 35,E1 -2000,E2 0,E3 0,E4 0,E5 0,E6 0}
DECL E6POS XD_s07r02o_10={X 1155.8,Y 4867.03,Z 458.03,A -60.031,B -3.469,C 0.447,S 2,T 35,E1 -2000,E2 0,E3 0,E4 0,E5 0,E6 0}
DECL E6POS XD_s07r02o_15={X 1144.76,Y 4852.15,Z 458.34,A -60.031,B -3.469,C 0.447,S 2,T 35,E1 -2000,E2 0,E3 0,E4 0,E5 0,E6 0}
DECL E6POS XD_s07r02o_20={X 1135.28,Y 4841.14,Z 458.51,A -60.031,B -3.469,C 0.447,S 2,T 35,E1 -2000,E2 0,E3 0,E4 0,E5 0,E6 0}
DECL E6POS XD_s07r02o_25={X 1124.45,Y 4832.86,Z 458.49,A -60.031,B -3.469,C 0.447,S 2,T 35,E1 -2000,E2 0,E3 0,E4 0,E5 0,E6 0}
DECL E6POS XD_s07r02o_30={X 1064.7,Y 4798.31,Z 457.79,A -60.031,B -3.469,C 0.447,S 2,T 35,E1 -2000,E2 0,E3 0,E4 0,E5 0,E6 0}
DECL E6POS XD_s07r02o_35={X 1051.73,Y 4792.73,Z 457.55,A -60.031,B -3.469,C 0.447,S 2,T 35,E1 -2000,E2 0,E3 0,E4 0,E5 0,E6 0}
DECL E6POS XD_s07r02o_40={X 1037.83,Y 4790.33,Z 457.09,A -60.031,B -3.469,C 0.447,S 2,T 35,E1 -2000,E2 0,E3 0,E4 0,E5 0,E6 0}
DECL E6POS XD_s06r05u_5={X 4042.08,Y 6407.68,Z 486.26,A -59.982,B -1.31,C 0.044,S 2,T 43,E1 -5300,E2 0,E3 0,E4 0,E5 0,E6 0}
DECL E6POS XD_s06r05u_10={X 4021.42,Y 6400.36,Z 486.1,A -59.982,B -1.31,C 0.044,S 2,T 43,E1 -5300,E2 0,E3 0,E4 0,E5 0,E6 0}
DECL E6POS XD_s06r05u_15={X 4000.56,Y 6396.23,Z 485.84,A -59.982,B -1.31,C 0.044,S 2,T 43,E1 -5300,E2 0,E3 0,E4 0,E5 0,E6 0}
DECL E6POS XD_s06r05u_20={X 3988.8,Y 6393.56,Z 485.7,A -59.982,B -1.31,C 0.044,S 2,T 43,E1 -5300,E2 0,E3 0,E4 0,E5 0,E6 0}
DECL E6POS XD_s06r05u_25={X 3977.83,Y 6388.61,Z 485.64,A -59.982,B -1.31,C 0.044,S 2,T 43,E1 -5300,E2 0,E3 0,E4 0,E5 0,E6 0}
DECL E6POS XD_s06r05u_30={X 3938.65,Y 6365.98,Z 485.55,A -59.982,B -1.31,C 0.044,S 2,T 43,E1 -5300,E2 0,E3 0,E4 0,E5 0,E6 0}
DECL E6POS XD_s06r05u_35={X 3928.89,Y 6358.97,Z 485.56,A -59.982,B -1.31,C 0.044,S 2,T 43,E1 -5300,E2 0,E3 0,E4 0,E5 0,E6 0}
DECL E6POS XD_s06r05u_40={X 3920.74,Y 6350.12,Z 485.64,A -59.982,B -1.31,C 0.044,S 2,T 43,E1 -5300,E2 0,E3 0,E4 0,E5 0,E6 0}
DECL E6POS XD_s06r05o_5={X 4083.96,Y 6285.04,Z 489.46,A -59.982,B -1.31,C 0.044,S 2,T 43,E1 -5300,E2 0,E3 0,E4 0,E5 0,E6 0}
DECL E6POS XD_s06r05o_10={X 4068.59,Y 6272.1,Z 489.53,A -59.982,B -1.31,C 0.044,S 2,T 43,E1 -5300,E2 0,E3 0,E4 0,E5 0,E6 0}
DECL E6POS XD_s06r05o_15={X 4055.98,Y 6258.25,Z 489.61,A -59.982,B -1.31,C 0.044,S 2,T 43,E1 -5300,E2 0,E3 0,E4 0,E5 0,E6 0}
DECL E6POS XD_s06r05o_20={X 4048.25,Y 6250.25,Z 489.67,A -59.982,B -1.31,C 0.044,S 2,T 43,E1 -5300,E2 0,E3 0,E4 0,E5 0,E6 0}
DECL E6POS XD_s06r05o_25={X 4039.18,Y 6243.82,Z 489.69,A -59.982,B -1.31,C 0.044,S 2,T 43,E1 -5300,E2 0,E3 0,E4 0,E5 0,E6 0}
DECL E6POS XD_s06r05o_30={X 3997.24,Y 6219.58,Z 489.65,A -59.982,B -1.31,C 0.044,S 2,T 43,E1 -5300,E2 0,E3 0,E4 0,E5 0,E6 0}
DECL E6POS XD_s06r05o_35={X 3987.13,Y 6214.93,Z 489.62,A -59.982,B -1.31,C 0.044,S 2,T 43,E1 -5300,E2 0,E3 0,E4 0,E5 0,E6 0}
DECL E6POS XD_s06r05o_40={X 3976.32,Y 6212.23,Z 489.54,A -59.982,B -1.31,C 0.044,S 2,T 43,E1 -5300,E2 0,E3 0,E4 0,E5 0,E6 0}
DECL E6POS XD_s06r05o_45={X 3969.44,Y 6211.01,Z 489.48,A -59.982,B -1.31,C 0.044,S 2,T 43,E1 -5300,E2 0,E3 0,E4 0,E5 0,E6 0}
DECL E6POS XD_s06r04u_5={X 3252.3,Y 5953.2,Z 483.19,A -60.007,B -2.301,C 0.295,S 2,T 43,E1 -4500,E2 0,E3 0,E4 0,E5 0,E6 0}
DECL E6POS XD_s06r04u_10={X 3231.08,Y 5947.52,Z 482.87,A -60.007,B -2.301,C 0.295,S 2,T 43,E1 -4500,E2 0,E3 0,E4 0,E5 0,E6 0}
DECL E6POS XD_s06r04u_15={X 3207.29,Y 5944.82,Z 482.38,A -60.007,B -2.301,C 0.295,S 2,T 43,E1 -4500,E2 0,E3 0,E4 0,E5 0,E6 0}
DECL E6POS XD_s06r04u_20={X 3192.68,Y 5942.56,Z 482.1,A -60.007,B -2.301,C 0.295,S 2,T 43,E1 -4500,E2 0,E3 0,E4 0,E5 0,E6 0}
DECL E6POS XD_s06r04u_25={X 3179.05,Y 5936.79,Z 481.95,A -60.007,B -2.301,C 0.295,S 2,T 43,E1 -4500,E2 0,E3 0,E4 0,E5 0,E6 0}
DECL E6POS XD_s06r04u_30={X 3126.77,Y 5906.57,Z 481.64,A -60.007,B -2.301,C 0.295,S 2,T 43,E1 -4500,E2 0,E3 0,E4 0,E5 0,E6 0}
DECL E6POS XD_s06r04u_35={X 3114.98,Y 5897.64,Z 481.63,A -60.007,B -2.301,C 0.295,S 2,T 43,E1 -4500,E2 0,E3 0,E4 0,E5 0,E6 0}
DECL E6POS XD_s06r04u_40={X 3105.73,Y 5886.12,Z 481.78,A -60.007,B -2.301,C 0.295,S 2,T 43,E1 -4500,E2 0,E3 0,E4 0,E5 0,E6 0}
DECL E6POS XD_s06r04o_5={X 3288.4,Y 5824.12,Z 487.56,A -59.992,B -1.547,C 0.163,S 2,T 43,E1 -4500,E2 0,E3 0,E4 0,E5 0,E6 0}
DECL E6POS XD_s06r04o_10={X 3272.88,Y 5809.5,Z 487.64,A -59.992,B -1.547,C 0.163,S 2,T 43,E1 -4500,E2 0,E3 0,E4 0,E5 0,E6 0}
DECL E6POS XD_s06r04o_15={X 3260.5,Y 5794.08,Z 487.78,A -59.992,B -1.547,C 0.163,S 2,T 43,E1 -4500,E2 0,E3 0,E4 0,E5 0,E6 0}
DECL E6POS XD_s06r04o_20={X 3251.85,Y 5784.18,Z 487.87,A -59.992,B -1.547,C 0.163,S 2,T 43,E1 -4500,E2 0,E3 0,E4 0,E5 0,E6 0}
DECL E6POS XD_s06r04o_25={X 3241.26,Y 5776.4,Z 487.87,A -59.992,B -1.547,C 0.163,S 2,T 43,E1 -4500,E2 0,E3 0,E4 0,E5 0,E6 0}
DECL E6POS XD_s06r04o_30={X 3185.75,Y 5744.31,Z 487.65,A -59.992,B -1.547,C 0.163,S 2,T 43,E1 -4500,E2 0,E3 0,E4 0,E5 0,E6 0}
DECL E6POS XD_s06r04o_35={X 3173.7,Y 5739.01,Z 487.55,A -59.992,B -1.547,C 0.163,S 2,T 43,E1 -4500,E2 0,E3 0,E4 0,E5 0,E6 0}
DECL E6POS XD_s06r04o_40={X 3160.8,Y 5736.46,Z 487.37,A -59.992,B -1.547,C 0.163,S 2,T 43,E1 -4500,E2 0,E3 0,E4 0,E5 0,E6 0}
DECL E6POS XD_s06r03u_5={X 2210.54,Y 5352.06,Z 475.77,A -60.026,B -2.941,C 0.436,S 2,T 43,E1 -3500,E2 0,E3 0,E4 0,E5 0,E6 0}
DECL E6POS XD_s06r03u_10={X 2191.75,Y 5347.34,Z 475.37,A -60.026,B -2.941,C 0.436,S 2,T 43,E1 -3500,E2 0,E3 0,E4 0,E5 0,E6 0}
DECL E6POS XD_s06r03u_15={X 2168.69,Y 5344.88,Z 474.72,A -60.026,B -2.941,C 0.436,S 2,T 43,E1 -3500,E2 0,E3 0,E4 0,E5 0,E6 0}
DECL E6POS XD_s06r03u_20={X 2153.97,Y 5342.65,Z 474.34,A -60.026,B -2.941,C 0.436,S 2,T 43,E1 -3500,E2 0,E3 0,E4 0,E5 0,E6 0}
DECL E6POS XD_s06r03u_25={X 2140.24,Y 5336.84,Z 474.13,A -60.026,B -2.941,C 0.436,S 2,T 43,E1 -3500,E2 0,E3 0,E4 0,E5 0,E6 0}
DECL E6POS XD_s06r03u_30={X 2092.54,Y 5309.26,Z 473.72,A -60.026,B -2.941,C 0.436,S 2,T 43,E1 -3500,E2 0,E3 0,E4 0,E5 0,E6 0}
DECL E6POS XD_s06r03u_35={X 2080.12,Y 5299.73,Z 473.7,A -60.026,B -2.941,C 0.436,S 2,T 43,E1 -3500,E2 0,E3 0,E4 0,E5 0,E6 0}
DECL E6POS XD_s06r03u_40={X 2070.58,Y 5287.3,Z 473.9,A -60.026,B -2.941,C 0.436,S 2,T 43,E1 -3500,E2 0,E3 0,E4 0,E5 0,E6 0}
DECL E6POS XD_s06r03o_5={X 2234.12,Y 5214.37,Z 481.56,A -60.008,B -2.339,C 0.306,S 2,T 43,E1 -3250,E2 0,E3 0,E4 0,E5 0,E6 0}
DECL E6POS XD_s06r03o_10={X 2220.76,Y 5201.44,Z 481.65,A -60.008,B -2.339,C 0.306,S 2,T 43,E1 -3250,E2 0,E3 0,E4 0,E5 0,E6 0}
DECL E6POS XD_s06r03o_15={X 2209.87,Y 5187.99,Z 481.82,A -60.008,B -2.339,C 0.306,S 2,T 43,E1 -3250,E2 0,E3 0,E4 0,E5 0,E6 0}
DECL E6POS XD_s06r03o_20={X 2201.33,Y 5178.47,Z 481.92,A -60.008,B -2.339,C 0.306,S 2,T 43,E1 -3250,E2 0,E3 0,E4 0,E5 0,E6 0}
DECL E6POS XD_s06r03o_25={X 2191.06,Y 5170.88,Z 481.89,A -60.008,B -2.339,C 0.306,S 2,T 43,E1 -3250,E2 0,E3 0,E4 0,E5 0,E6 0}
DECL E6POS XD_s06r03o_30={X 2139.13,Y 5140.87,Z 481.53,A -60.008,B -2.339,C 0.306,S 2,T 43,E1 -3250,E2 0,E3 0,E4 0,E5 0,E6 0}
DECL E6POS XD_s06r03o_35={X 2125.91,Y 5135.22,Z 481.37,A -60.008,B -2.339,C 0.306,S 2,T 43,E1 -3250,E2 0,E3 0,E4 0,E5 0,E6 0}
DECL E6POS XD_s06r03o_40={X 2111.72,Y 5132.86,Z 481.06,A -60.008,B -2.339,C 0.306,S 2,T 43,E1 -3250,E2 0,E3 0,E4 0,E5 0,E6 0}
DECL E6POS XD_s06r02u_5={X 1175.45,Y 4748.78,Z 465.23,A -60.031,B -3.469,C 0.447,S 2,T 35,E1 -2000,E2 0,E3 0,E4 0,E5 0,E6 0}
DECL E6POS XD_s06r02u_10={X 1153.93,Y 4744.13,Z 464.63,A -60.031,B -3.469,C 0.447,S 2,T 35,E1 -2000,E2 0,E3 0,E4 0,E5 0,E6 0}
DECL E6POS XD_s06r02u_15={X 1131.63,Y 4742.64,Z 463.83,A -60.031,B -3.469,C 0.447,S 2,T 35,E1 -2000,E2 0,E3 0,E4 0,E5 0,E6 0}
DECL E6POS XD_s06r02u_20={X 1112.38,Y 4741.48,Z 463.13,A -60.031,B -3.469,C 0.447,S 2,T 35,E1 -2000,E2 0,E3 0,E4 0,E5 0,E6 0}
DECL E6POS XD_s06r02u_25={X 1093.3,Y 4734.55,Z 462.72,A -60.031,B -3.469,C 0.447,S 2,T 35,E1 -2000,E2 0,E3 0,E4 0,E5 0,E6 0}
DECL E6POS XD_s06r02u_30={X 1040.07,Y 4703.77,Z 462.14,A -60.031,B -3.469,C 0.447,S 2,T 35,E1 -2000,E2 0,E3 0,E4 0,E5 0,E6 0}
DECL E6POS XD_s06r02u_35={X 1027.65,Y 4694.23,Z 462.12,A -60.031,B -3.469,C 0.447,S 2,T 35,E1 -2000,E2 0,E3 0,E4 0,E5 0,E6 0}
DECL E6POS XD_s06r02u_40={X 1018.11,Y 4681.8,Z 462.37,A -60.031,B -3.469,C 0.447,S 2,T 35,E1 -2000,E2 0,E3 0,E4 0,E5 0,E6 0}
DECL E6POS XD_s06r02o_5={X 1190.13,Y 4616.1,Z 471.98,A -60.023,B -3.142,C 0.402,S 2,T 43,E1 -2000,E2 0,E3 0,E4 0,E5 0,E6 0}
DECL E6POS XD_s06r02o_10={X 1175.03,Y 4600.58,Z 472.15,A -60.023,B -3.142,C 0.402,S 2,T 43,E1 -2000,E2 0,E3 0,E4 0,E5 0,E6 0}
DECL E6POS XD_s06r02o_15={X 1163.11,Y 4584.41,Z 472.45,A -60.023,B -3.142,C 0.402,S 2,T 43,E1 -2000,E2 0,E3 0,E4 0,E5 0,E6 0}
DECL E6POS XD_s06r02o_20={X 1153.98,Y 4573.23,Z 472.64,A -60.023,B -3.142,C 0.402,S 2,T 43,E1 -2000,E2 0,E3 0,E4 0,E5 0,E6 0}
DECL E6POS XD_s06r02o_25={X 1142.45,Y 4564.56,Z 472.62,A -60.023,B -3.142,C 0.402,S 2,T 43,E1 -2000,E2 0,E3 0,E4 0,E5 0,E6 0}
DECL E6POS XD_s06r02o_30={X 1082.59,Y 4529.95,Z 472.09,A -60.023,B -3.142,C 0.402,S 2,T 43,E1 -2000,E2 0,E3 0,E4 0,E5 0,E6 0}
DECL E6POS XD_s06r02o_35={X 1069.3,Y 4524.27,Z 471.89,A -60.023,B -3.142,C 0.402,S 2,T 43,E1 -2000,E2 0,E3 0,E4 0,E5 0,E6 0}
DECL E6POS XD_s06r02o_40={X 1055.06,Y 4521.94,Z 471.49,A -60.023,B -3.142,C 0.402,S 2,T 43,E1 -2000,E2 0,E3 0,E4 0,E5 0,E6 0}
DECL E6POS Xp10_s08r03u={X 2162.064042999,Y 5867.763633756,Z 299.142957505,A -60.06,B -3.967,C 0.645,S 2,T 35,E1 -4000,E2 0,E3 0,E4 0,E5 0,E6 0}
DECL E6POS Xp10_s08r03o={X 2187.294907536,Y 5732.512604736,Z 307.184137871,A -60.043,B -3.474,C 0.545,S 2,T 35,E1 -4000,E2 0,E3 0,E4 0,E5 0,E6 0}
DECL E6POS Xp10_s08r02u={X 1148.175491365,Y 5274.894951059,Z 284.576244321,A -60.081,B -4.467,C 0.758,S 2,T 35,E1 -2000,E2 0,E3 0,E4 0,E5 0,E6 0}
DECL E6POS Xp10_s08r02o={X 1164.029178992,Y 5144.466887832,Z 292.969674644,A -60.062,B -4.075,C 0.656,S 2,T 35,E1 -2000,E2 0,E3 0,E4 0,E5 0,E6 0}
DECL E6POS Xp10_s07r05u={X 3976.766853261,Y 6640.954151809,Z 327.977293723,A -59.994,B -2.207,C 0.164,S 2,T 43,E1 -5300,E2 0,E3 0,E4 0,E5 0,E6 0}
DECL E6POS Xp10_s07r05o={X 4018.026853261,Y 6518.504151809,Z 332.777293723,A -59.994,B -2.207,C 0.164,S 2,T 43,E1 -5300,E2 0,E3 0,E4 0,E5 0,E6 0}
DECL E6POS Xp10_s07r04u={X 3200.533228267,Y 6192.810471488,Z 323.177434909,A -60.023,B -2.948,C 0.408,S 2,T 43,E1 -4500,E2 0,E3 0,E4 0,E5 0,E6 0}
DECL E6POS Xp10_s07r04o={X 3236.496465997,Y 6064.740077922,Z 329.010977471,A -60.007,B -2.301,C 0.295,S 2,T 43,E1 -4500,E2 0,E3 0,E4 0,E5 0,E6 0}
DECL E6POS Xp10_s07r03u={X 2188.494907536,Y 5608.502604736,Z 313.214137871,A -60.043,B -3.474,C 0.545,S 2,T 35,E1 -3500,E2 0,E3 0,E4 0,E5 0,E6 0}
DECL E6POS Xp10_s07r03o={X 2212.09123448,Y 5470.067887951,Z 320.267300853,A -60.026,B -2.941,C 0.436,S 2,T 43,E1 -3500,E2 0,E3 0,E4 0,E5 0,E6 0}
DECL E6POS Xp10_s07r02u={X 1164.599178992,Y 5008.456887832,Z 300.579674644,A -60.062,B -4.075,C 0.656,S 2,T 35,E1 -2000,E2 0,E3 0,E4 0,E5 0,E6 0}
DECL E6POS Xp10_s07r02o={X 1178.319170553,Y 4875.824023073,Z 308.183134699,A -60.031,B -3.469,C 0.447,S 2,T 35,E1 -2000,E2 0,E3 0,E4 0,E5 0,E6 0}
DECL E6POS Xp10_s06r05u={X 4044.305103287,Y 6404.349443065,Z 336.313083019,A -59.982,B -1.31,C 0.044,S 2,T 43,E1 -5300,E2 0,E3 0,E4 0,E5 0,E6 0}
DECL E6POS Xp10_s06r05o={X 4085.745103287,Y 6282.189443065,Z 339.493083019,A -59.982,B -1.31,C 0.044,S 2,T 43,E1 -5300,E2 0,E3 0,E4 0,E5 0,E6 0}
DECL E6POS Xp10_s06r04u={X 3255.876465997,Y 5948.540077922,Z 333.310977471,A -60.007,B -2.301,C 0.295,S 2,T 43,E1 -4500,E2 0,E3 0,E4 0,E5 0,E6 0}
DECL E6POS Xp10_s06r04o={X 3291.098261671,Y 5820.472235458,Z 337.628426482,A -59.992,B -1.547,C 0.163,S 2,T 43,E1 -4500,E2 0,E3 0,E4 0,E5 0,E6 0}
DECL E6POS Xp10_s06r03u={X 2215.29123448,Y 5346.087887951,Z 325.967300853,A -60.026,B -2.941,C 0.436,S 2,T 43,E1 -3500,E2 0,E3 0,E4 0,E5 0,E6 0}
DECL E6POS Xp10_s06r03o={X 2238.081313484,Y 5209.266159842,Z 331.702370143,A -60.008,B -2.339,C 0.306,S 2,T 43,E1 -3250,E2 0,E3 0,E4 0,E5 0,E6 0}
DECL E6POS Xp10_s06r02u={X 1181.129170553,Y 4741.674023073,Z 315.513134699,A -60.031,B -3.469,C 0.447,S 2,T 35,E1 -2000,E2 0,E3 0,E4 0,E5 0,E6 0}
DECL E6POS Xp10_s06r02o={X 1195.49316184,Y 4609.231415039,Z 322.236390819,A -60.023,B -3.142,C 0.402,S 2,T 43,E1 -2000,E2 0,E3 0,E4 0,E5 0,E6 0}
DECL E6POS Xp10_s10r05u={X 3770.328047933,Y 7350.91202457,Z 287.555110316,A -60.047,B -4.18,C 0.527,S 2,T 35,E1 -5800,E2 0,E3 0,E4 0,E5 0,E6 0}
DECL E6POS Xp10_s10r05o={X 3812.67823815,Y 7229.114562691,Z 296.203617162,A -60.032,B -3.663,C 0.44,S 2,T 35,E1 -5800,E2 0,E3 0,E4 0,E5 0,E6 0}
DECL E6POS Xp10_s10r04u={X 3037.351191548,Y 6929.054536559,Z 277.824546616,A -60.066,B -4.459,C 0.65,S 2,T 35,E1 -5000,E2 0,E3 0,E4 0,E5 0,E6 0}
DECL E6POS Xp10_s10r04o={X 3075.046199524,Y 6797.21882213,Z 288.686740534,A -60.054,B -4.037,C 0.594,S 2,T 35,E1 -5000,E2 0,E3 0,E4 0,E5 0,E6 0}
DECL E6POS Xp10_s10r03u={X 2111.60306121,Y 6393.047176688,Z 265.559423828,A -60.09,B -4.79,C 0.795,S 2,T 35,E1 -4000,E2 0,E3 0,E4 0,E5 0,E6 0}
DECL E6POS Xp10_s10r03o={X 2135.748349752,Y 6256.327694903,Z 275.469707185,A -60.075,B -4.376,C 0.721,S 2,T 35,E1 -4000,E2 0,E3 0,E4 0,E5 0,E6 0}
DECL E6POS Xp10_s10r02u={X 1116.486302433,Y 5810.644918939,Z 247.656125203,A -60.115,B -5.121,C 0.929,S 2,T 35,E1 -2000,E2 0,E3 0,E4 0,E5 0,E6 0}
DECL E6POS Xp10_s10r02o={X 1130.165414057,Y 5677.894417425,Z 257.521904121,A -60.096,B -4.817,C 0.836,S 2,T 35,E1 -2000,E2 0,E3 0,E4 0,E5 0,E6 0}
DECL E6POS Xp10_s09r05u={X 3839.24823815,Y 7114.024562691,Z 303.313617162,A -60.032,B -3.663,C 0.44,S 2,T 35,E1 -5800,E2 0,E3 0,E4 0,E5 0,E6 0}
DECL E6POS Xp10_s09r05o={X 3882.756949312,Y 6993.27992081,Z 310.804929269,A -60.018,B -3.117,C 0.355,S 2,T 43,E1 -5800,E2 0,E3 0,E4 0,E5 0,E6 0}
DECL E6POS Xp10_s09r04u={X 3090.796199524,Y 6680.63882213,Z 295.926740534,A -60.054,B -4.037,C 0.594,S 2,T 35,E1 -5000,E2 0,E3 0,E4 0,E5 0,E6 0}
DECL E6POS Xp10_s09r04o={X 3126.605347343,Y 6554.510185702,Z 304.095434538,A -60.038,B -3.505,C 0.501,S 2,T 35,E1 -5000,E2 0,E3 0,E4 0,E5 0,E6 0}
DECL E6POS Xp10_s09r03u={X 2138.308349752,Y 6132.037694903,Z 283.139707185,A -60.075,B -4.376,C 0.721,S 2,T 35,E1 -4000,E2 0,E3 0,E4 0,E5 0,E6 0}
DECL E6POS Xp10_s09r03o={X 2160.594042999,Y 5992.873633756,Z 292.222957505,A -60.06,B -3.967,C 0.645,S 2,T 35,E1 -4000,E2 0,E3 0,E4 0,E5 0,E6 0}
DECL E6POS Xp10_s09r02u={X 1129.625414057,Y 5543.634417425,Z 266.341904121,A -60.096,B -4.817,C 0.836,S 2,T 35,E1 -2000,E2 0,E3 0,E4 0,E5 0,E6 0}
DECL E6POS Xp10_s09r02o={X 1145.645491365,Y 5406.774951059,Z 275.896244321,A -60.081,B -4.467,C 0.758,S 2,T 35,E1 -2000,E2 0,E3 0,E4 0,E5 0,E6 0}
DECL E6POS Xp10_s08r05u={X 3907.806949312,Y 6876.96992081,Z 316.884929269,A -60.018,B -3.117,C 0.355,S 2,T 43,E1 -5800,E2 0,E3 0,E4 0,E5 0,E6 0}
DECL E6POS Xp10_s08r05o={X 3949.782717461,Y 6754.979187603,Z 323.111575461,A -60.009,B -2.829,C 0.29,S 2,T 43,E1 -5800,E2 0,E3 0,E4 0,E5 0,E6 0}
DECL E6POS Xp10_s08r04u={X 3145.065347343,Y 6436.830185702,Z 310.605434538,A -60.038,B -3.505,C 0.501,S 2,T 35,E1 -5000,E2 0,E3 0,E4 0,E5 0,E6 0}
DECL E6POS Xp10_s08r04o={X 3181.423228267,Y 6309.850471488,Z 317.687434909,A -60.023,B -2.948,C 0.408,S 2,T 43,E1 -5000,E2 0,E3 0,E4 0,E5 0,E6 0}
DECL E6POS XD_s10r05u_45={X 3630.43,Y 7288.41,Z 435.41,A 52.9849358,B -1.97462249,C -8.1578064,S 22,T 27,E1 -30500,E2 0,E3 0,E4 0,E5 0,E6 0}
DECL E6POS Xp20_s10r05u={X 3637.078047933,Y 7279.63202457,Z 285.815110316,A 52.9849358,B -1.97462249,C -8.1578064,S 22,T 27,E1 -30500,E2 0,E3 0,E4 0,E5 0,E6 0}
DECL E6POS XD_s10r05o_50={X 3678.34,Y 7160.3,Z 444.77,A 15.8280153,B 0.745437324,C 0.174907386,S 18,T 42,E1 -26200,E2 0,E3 0,E4 0,E5 0,E6 0}
DECL E6POS Xp20_s10r05o={X 3684.43823815,Y 7152.164562691,Z 295.113617162,A 15.8280153,B 0.745437324,C 0.174907386,S 18,T 42,E1 -26200,E2 0,E3 0,E4 0,E5 0,E6 0}
DECL E6POS XD_s10r04u_45={X 2866.64,Y 6857.47,Z 425.63,A 59.253933,B -2.67764688,C -9.06977558,S 22,T 27,E1 -31400,E2 0,E3 0,E4 0,E5 0,E6 0}
DECL E6POS Xp20_s10r04u={X 2873.921191548,Y 6848.214536559,Z 276.094546616,A 59.253933,B -2.67764688,C -9.06977558,S 22,T 27,E1 -31400,E2 0,E3 0,E4 0,E5 0,E6 0}
DECL E6POS XD_s10r04o_45={X 2917.55,Y 6710.91,Z 436.89,A 9.81273556,B 2.44354486,C 1.07126415,S 18,T 42,E1 -26900,E2 0,E3 0,E4 0,E5 0,E6 0}
DECL E6POS Xp20_s10r04o={X 2924.346199524,Y 6702.26882213,Z 287.296740534,A 9.81273556,B 2.44354486,C 1.07126415,S 18,T 42,E1 -26900,E2 0,E3 0,E4 0,E5 0,E6 0}
DECL E6POS XD_s10r03u_45={X 1955.47,Y 6322.92,Z 412.3,A 58.5179329,B -2.789644,C -8.40977669,S 22,T 27,E1 -32600,E2 0,E3 0,E4 0,E5 0,E6 0}
DECL E6POS Xp20_s10r03u={X 1963.50306121,Y 6313.127176688,Z 262.839423828,A 58.5179329,B -2.789644,C -8.40977669,S 22,T 27,E1 -32600,E2 0,E3 0,E4 0,E5 0,E6 0}
DECL E6POS XD_s10r03o_50={X 1985.91,Y 6182.07,Z 422.93,A 10.4600153,B 0.82041961,C -0.531131446,S 18,T 42,E1 -28000,E2 0,E3 0,E4 0,E5 0,E6 0}
DECL E6POS Xp20_s10r03o={X 1993.488349752,Y 6172.777694903,Z 273.409707185,A 10.4600153,B 0.82041961,C -0.531131446,S 18,T 42,E1 -28000,E2 0,E3 0,E4 0,E5 0,E6 0}
DECL E6POS XD_s10r02u_50={X 942.75,Y 5744.04,Z 392.71,A 59.9419441,B -3.11965513,C -7.15276241,S 22,T 27,E1 -33800,E2 0,E3 0,E4 0,E5 0,E6 0}
DECL E6POS Xp20_s10r02u={X 951.556302433,Y 5733.544918939,Z 243.346125203,A 59.9419441,B -3.11965513,C -7.15276241,S 22,T 27,E1 -33800,E2 0,E3 0,E4 0,E5 0,E6 0}
DECL E6POS XD_s10r02o_45={X 977.12,Y 5593.96,Z 405.1,A 5.56302118,B 0.848397791,C -0.452163398,S 18,T 42,E1 -29000,E2 0,E3 0,E4 0,E5 0,E6 0}
DECL E6POS Xp20_s10r02o={X 985.515414057,Y 5583.904417425,Z 255.671904121,A 5.56302118,B 0.848397791,C -0.452163398,S 18,T 42,E1 -29000,E2 0,E3 0,E4 0,E5 0,E6 0}
DECL E6POS XD_s09r05u_45={X 3699.53,Y 7050.18,Z 451.51,A 47.6429596,B -1.67761409,C -7.70483398,S 22,T 27,E1 -30500,E2 0,E3 0,E4 0,E5 0,E6 0}
DECL E6POS Xp20_s09r05u={X 3705.30823815,Y 7042.454562691,Z 301.823617162,A 47.6429596,B -1.67761409,C -7.70483398,S 22,T 27,E1 -30500,E2 0,E3 0,E4 0,E5 0,E6 0}
DECL E6POS XD_s09r05o_50={X 3747.26,Y 6921.82,Z 459.68,A 20.2887592,B 1.21885538,C 1.27871025,S 18,T 42,E1 -26200,E2 0,E3 0,E4 0,E5 0,E6 0}
DECL E6POS Xp20_s09r05o={X 3752.456949312,Y 6914.75992081,Z 309.934929269,A 20.2887592,B 1.21885538,C 1.27871025,S 18,T 42,E1 -26200,E2 0,E3 0,E4 0,E5 0,E6 0}
DECL E6POS XD_s09r04u_45={X 2929.54,Y 6606.95,Z 443.35,A 47.1429558,B -1.80061829,C -9.0188427,S 22,T 27,E1 -31400,E2 0,E3 0,E4 0,E5 0,E6 0}
DECL E6POS Xp20_s09r04u={X 2936.156199524,Y 6598.57882213,Z 293.726740534,A 47.1429558,B -1.80061829,C -9.0188427,S 22,T 27,E1 -31400,E2 0,E3 0,E4 0,E5 0,E6 0}
DECL E6POS XD_s09r04o_45={X 2974.54,Y 6472.5,Z 452.47,A 10.7930298,B 0.593389511,C 1.29287887,S 18,T 10,E1 -26900,E2 0,E3 0,E4 0,E5 0,E6 0}
DECL E6POS Xp20_s09r04o={X 2980.545347343,Y 6464.820185702,Z 302.785434538,A 10.7930298,B 0.593389511,C 1.29287887,S 18,T 10,E1 -26900,E2 0,E3 0,E4 0,E5 0,E6 0}
DECL E6POS XD_s09r03u_45={X 1982.25,Y 6061.6,Z 430.15,A 59.0189438,B -2.5626545,C -8.0667572,S 22,T 27,E1 -32600,E2 0,E3 0,E4 0,E5 0,E6 0}
DECL E6POS Xp20_s09r03u={X 1989.598349752,Y 6052.627694903,Z 280.599707185,A 59.0189438,B -2.5626545,C -8.0667572,S 22,T 27,E1 -32600,E2 0,E3 0,E4 0,E5 0,E6 0}
DECL E6POS XD_s09r03o_50={X 2012.51,Y 5918.31,Z 440,A 7.95702648,B 0.872375607,C 0.936855853,S 18,T 10,E1 -28000,E2 0,E3 0,E4 0,E5 0,E6 0}
DECL E6POS Xp20_s09r03o={X 2019.374042999,Y 5909.863633756,Z 290.392957505,A 7.95702648,B 0.872375607,C 0.936855853,S 18,T 10,E1 -28000,E2 0,E3 0,E4 0,E5 0,E6 0}
DECL E6POS XD_s09r02u_45={X 959.56,Y 5476.59,Z 411.97,A 59.9539413,B -2.96566296,C -7.82175064,S 22,T 27,E1 -33800,E2 0,E3 0,E4 0,E5 0,E6 0}
DECL E6POS Xp20_s09r02u={X 967.735414057,Y 5466.764417425,Z 262.521904121,A 59.9539413,B -2.96566296,C -7.82175064,S 22,T 27,E1 -33800,E2 0,E3 0,E4 0,E5 0,E6 0}
DECL E6POS XD_s09r02o_45={X 997.18,Y 5319.64,Z 424.11,A 0.492038459,B 1.54036665,C 0.140822485,S 18,T 10,E1 -29000,E2 0,E3 0,E4 0,E5 0,E6 0}
DECL E6POS Xp20_s09r02o={X 1004.885491365,Y 5310.314951059,Z 274.596244321,A 0.492038459,B 1.54036665,C 0.140822485,S 18,T 10,E1 -29000,E2 0,E3 0,E4 0,E5 0,E6 0}
DECL E6POS XD_s08r05u_45={X 3769.38,Y 6811.98,Z 465.48,A 47.1989784,B -1.27262163,C -7.24582481,S 22,T 27,E1 -30500,E2 0,E3 0,E4 0,E5 0,E6 0}
DECL E6POS Xp20_s08r05u={X 3774.266949312,Y 6805.37992081,Z 315.704929269,A 47.1989784,B -1.27262163,C -7.24582481,S 22,T 27,E1 -30500,E2 0,E3 0,E4 0,E5 0,E6 0}
DECL E6POS XD_s08r05o_50={X 3817.82,Y 6683.53,Z 472.33,A 14.0010204,B 0.625360429,C 2.82589126,S 18,T 10,E1 -26200,E2 0,E3 0,E4 0,E5 0,E6 0}
DECL E6POS Xp20_s08r05o={X 3822.172717461,Y 6677.499187603,Z 322.511575461,A 14.0010204,B 0.625360429,C 2.82589126,S 18,T 10,E1 -26200,E2 0,E3 0,E4 0,E5 0,E6 0}
DECL E6POS XD_s08r04u_45={X 2985.17,Y 6363.63,Z 458.36,A 49.0529709,B -1.74062908,C -7.97881651,S 22,T 27,E1 -31400,E2 0,E3 0,E4 0,E5 0,E6 0}
DECL E6POS Xp20_s08r04u={X 2990.885347343,Y 6356.340185702,Z 308.645434538,A 49.0529709,B -1.74062908,C -7.97881651,S 22,T 27,E1 -31400,E2 0,E3 0,E4 0,E5 0,E6 0}
DECL E6POS XD_s08r04o_45={X 3031.63,Y 6227.31,Z 466.41,A 10.5690346,B 0.520378828,C 1.84889209,S 18,T 10,E1 -26900,E2 0,E3 0,E4 0,E5 0,E6 0}
DECL E6POS Xp20_s08r04o={X 3036.693228267,Y 6220.790471488,Z 316.637434909,A 10.5690346,B 0.520378828,C 1.84889209,S 18,T 10,E1 -26900,E2 0,E3 0,E4 0,E5 0,E6 0}
DECL E6POS XD_s08r03u_45={X 2009.16,Y 5799.05,Z 446.48,A 58.8009567,B -2.11866689,C -8.3107605,S 22,T 27,E1 -32600,E2 0,E3 0,E4 0,E5 0,E6 0}
DECL E6POS Xp20_s08r03u={X 2015.764042999,Y 5790.923633756,Z 296.852957505,A 58.8009567,B -2.11866689,C -8.3107605,S 22,T 27,E1 -32600,E2 0,E3 0,E4 0,E5 0,E6 0}
DECL E6POS XD_s08r03o_45={X 2040.33,Y 5656.48,Z 455.32,A 6.81703186,B 0.740363896,C 1.40086484,S 18,T 10,E1 -28000,E2 0,E3 0,E4 0,E5 0,E6 0}
DECL E6POS Xp20_s08r03o={X 2046.364907536,Y 5648.992604736,Z 305.624137871,A 6.81703186,B 0.740363896,C 1.40086484,S 18,T 10,E1 -28000,E2 0,E3 0,E4 0,E5 0,E6 0}
DECL E6POS XD_s08r02u_50={X 976.5,Y 5204.51,Z 430.7,A 59.6799698,B -2.43066335,C -7.71775,S 22,T 59,E1 -33800,E2 0,E3 0,E4 0,E5 0,E6 0}
DECL E6POS Xp20_s08r02u={X 984.035491365,Y 5195.374951059,Z 281.166244321,A 59.6799698,B -2.43066335,C -7.71775,S 22,T 59,E1 -33800,E2 0,E3 0,E4 0,E5 0,E6 0}
DECL E6POS XD_s08r02o_45={X 1008.5,Y 5057.72,Z 441.02,A 5.99504328,B 0.711370826,C 0.216872454,S 18,T 10,E1 -29000,E2 0,E3 0,E4 0,E5 0,E6 0}
DECL E6POS Xp20_s08r02o={X 1015.509178992,Y 5049.116887832,Z 291.429674644,A 5.99504328,B 0.711370826,C 0.216872454,S 18,T 10,E1 -29000,E2 0,E3 0,E4 0,E5 0,E6 0}
DECL E6POS XD_s07r05u_45={X 3838.55,Y 6573.2,Z 477.02,A 43.6009979,B -0.942621052,C -6.59785509,S 22,T 27,E1 -30500,E2 0,E3 0,E4 0,E5 0,E6 0}
DECL E6POS Xp20_s07r05u={X 3842.166853261,Y 6568.074151809,Z 327.157293723,A 43.6009979,B -0.942621052,C -6.59785509,S 22,T 27,E1 -30500,E2 0,E3 0,E4 0,E5 0,E6 0}
DECL E6POS XD_s07r05o_50={X 3886.76,Y 6445.48,Z 482.32,A 14.0030203,B 0.509344459,C 2.52190661,S 18,T 10,E1 -26200,E2 0,E3 0,E4 0,E5 0,E6 0}
DECL E6POS Xp20_s07r05o={X 3890.016853261,Y 6440.694151809,Z 332.437293723,A 14.0030203,B 0.509344459,C 2.52190661,S 18,T 10,E1 -26200,E2 0,E3 0,E4 0,E5 0,E6 0}
DECL E6POS XD_s07r04u_45={X 3041.71,Y 6118.78,Z 471.37,A 52.5939903,B -1.44564283,C -7.47780275,S 22,T 59,E1 -31400,E2 0,E3 0,E4 0,E5 0,E6 0}
DECL E6POS Xp20_s07r04u={X 3046.483228267,Y 6112.630471488,Z 321.577434909,A 52.5939903,B -1.44564283,C -7.47780275,S 22,T 59,E1 -31400,E2 0,E3 0,E4 0,E5 0,E6 0}
DECL E6POS XD_s07r04o_45={X 3089.58,Y 5979.95,Z 478.15,A 7.96703386,B 0.602355,C 0.516884625,S 18,T 10,E1 -26900,E2 0,E3 0,E4 0,E5 0,E6 0}
DECL E6POS Xp20_s07r04o={X 3093.576465997,Y 5974.710077922,Z 328.290977471,A 7.96703386,B 0.602355,C 0.516884625,S 18,T 10,E1 -26900,E2 0,E3 0,E4 0,E5 0,E6 0}
DECL E6POS XD_s07r03u_45={X 2036.03,Y 5537.92,Z 461,A 59.2269859,B -1.99866533,C -7.82176495,S 22,T 59,E1 -32600,E2 0,E3 0,E4 0,E5 0,E6 0}
DECL E6POS Xp20_s07r03u={X 2041.794907536,Y 5530.752604736,Z 311.284137871,A 59.2269859,B -1.99866533,C -7.82176495,S 22,T 59,E1 -32600,E2 0,E3 0,E4 0,E5 0,E6 0}
DECL E6POS XD_s07r03o_45={X 2066.06,Y 5393.44,Z 468.74,A 6.50304413,B 0.684358954,C 0.934884787,S 18,T 10,E1 -28000,E2 0,E3 0,E4 0,E5 0,E6 0}
DECL E6POS Xp20_s07r03o={X 2071.18123448,Y 5386.987887951,Z 318.967300853,A 6.50304413,B 0.684358954,C 0.934884787,S 18,T 10,E1 -28000,E2 0,E3 0,E4 0,E5 0,E6 0}
DECL E6POS XD_s07r02u_50={X 994,Y 4938.75,Z 447.14,A 59.9429855,B -2.33367538,C -7.19875431,S 22,T 59,E1 -33800,E2 0,E3 0,E4 0,E5 0,E6 0}
DECL E6POS Xp20_s07r02u={X 1000.809178992,Y 4930.376887832,Z 297.519674644,A 59.9429855,B -2.33367538,C -7.19875431,S 22,T 59,E1 -33800,E2 0,E3 0,E4 0,E5 0,E6 0}
DECL E6POS XD_s07r02o_45={X 1029.24,Y 4789.62,Z 456.77,A 4.70809889,B 0.740748584,C -0.836223722,S 18,T 10,E1 -29000,E2 0,E3 0,E4 0,E5 0,E6 0}
DECL E6POS Xp20_s07r02o={X 1035.329170553,Y 4781.644023073,Z 307.103134699,A 4.70809889,B 0.740748584,C -0.836223722,S 18,T 10,E1 -29000,E2 0,E3 0,E4 0,E5 0,E6 0}
DECL E6POS XD_s06r05u_45={X 3907.94,Y 6335.25,Z 485.8,A 48.2910042,B -0.609642804,C -7.02482939,S 22,T 59,E1 -30500,E2 0,E3 0,E4 0,E5 0,E6 0}
DECL E6POS Xp20_s06r05u={X 3910.235103287,Y 6331.769443065,Z 335.863083019,A 48.2910042,B -0.609642804,C -7.02482939,S 22,T 59,E1 -30500,E2 0,E3 0,E4 0,E5 0,E6 0}
DECL E6POS XD_s06r05o_50={X 3955.8,Y 6207.59,Z 489.38,A 14.0870237,B 0.342344612,C 2.77392292,S 18,T 10,E1 -26200,E2 0,E3 0,E4 0,E5 0,E6 0}
DECL E6POS Xp20_s06r05o={X 3957.685103287,Y 6204.589443065,Z 339.423083019,A 14.0870237,B 0.342344612,C 2.77392292,S 18,T 10,E1 -26200,E2 0,E3 0,E4 0,E5 0,E6 0}
DECL E6POS XD_s06r04u_45={X 3097.44,Y 5874.06,Z 481.96,A 55.521019,B -1.03666234,C -4.94579124,S 22,T 59,E1 -31400,E2 0,E3 0,E4 0,E5 0,E6 0}
DECL E6POS Xp20_s06r04u={X 3101.106465997,Y 5869.240077922,Z 332.090977471,A 55.521019,B -1.03666234,C -4.94579124,S 22,T 59,E1 -31400,E2 0,E3 0,E4 0,E5 0,E6 0}
DECL E6POS XD_s06r04o_45={X 3146.68,Y 5734.59,Z 487.14,A 7.57804346,B 0.464353532,C 1.23389935,S 18,T 10,E1 -26900,E2 0,E3 0,E4 0,E5 0,E6 0}
DECL E6POS Xp20_s06r04o={X 3149.448261671,Y 5730.822235458,Z 337.208426482,A 7.57804346,B 0.464353532,C 1.23389935,S 18,T 10,E1 -26900,E2 0,E3 0,E4 0,E5 0,E6 0}
DECL E6POS XD_s06r03u_45={X 2063.06,Y 5274.89,Z 474.16,A 58.7460175,B -1.51967371,C -5.45177126,S 22,T 59,E1 -32600,E2 0,E3 0,E4 0,E5 0,E6 0}
DECL E6POS Xp20_s06r03u={X 2067.89123448,Y 5268.797887951,Z 324.367300853,A 58.7460175,B -1.51967371,C -5.45177126,S 22,T 59,E1 -32600,E2 0,E3 0,E4 0,E5 0,E6 0}
DECL E6POS XD_s06r03o_45={X 2094.74,Y 5131.15,Z 480.64,A 5.77305746,B 0.645361245,C 1.55990243,S 18,T 10,E1 -28000,E2 0,E3 0,E4 0,E5 0,E6 0}
DECL E6POS Xp20_s06r03o={X 2098.781313484,Y 5125.916159842,Z 330.792370143,A 5.77305746,B 0.645361245,C 1.55990243,S 18,T 10,E1 -28000,E2 0,E3 0,E4 0,E5 0,E6 0}
DECL E6POS XD_s06r02u_45={X 1011.12,Y 4669.8,Z 462.69,A 59.7610321,B -1.86835647,C -6.41954184,S 22,T 59,E1 -33800,E2 0,E3 0,E4 0,E5 0,E6 0}
DECL E6POS Xp20_s06r02u={X 1016.659170553,Y 4662.514023073,Z 312.973134699,A 59.7610321,B -1.86835647,C -6.41954184,S 22,T 59,E1 -33800,E2 0,E3 0,E4 0,E5 0,E6 0}
DECL E6POS XD_s06r02o_45={X 1041.56,Y 4520.75,Z 471.05,A 5.00407553,B 0.911381245,C -0.2920807,S 18,T 10,E1 -29000,E2 0,E3 0,E4 0,E5 0,E6 0}
DECL E6POS Xp20_s06r02o={X 1046.86316184,Y 4514.011415039,Z 321.296390819,A 5.00407553,B 0.911381245,C -0.2920807,S 18,T 10,E1 -29000,E2 0,E3 0,E4 0,E5 0,E6 0}
