DECL E6POS Xvorpunkt={X -7452.10254,Y 10631.8096,Z -221.75267,A -142.211548,B -57.0335846,C 14.4388762,S 22,T 59,E1 -10000,E2 0,E3 0,E4 0,E5 0,E6 0}
DECL E6POS XP_Anfang={X -7117.06641,Y 10488.1953,Z 414.256409,A -142.199966,B -57.0352783,C 14.440052,S 22,T 59,E1 -10000,E2 0,E3 0,E4 0,E5 0,E6 0}
DECL E6POS XP_MITTE={X -7027.90771,Y 10436.5254,Z 415.593018,A -142.192108,B -57.0319,C 14.4371414,S 22,T 59,E1 -10000,E2 0,E3 0,E4 0,E5 0,E6 0}
DECL E6POS XP_CIRC1_1={X -6983.3374,Y 10369.0313,Z 417.442841,A -142.192932,B -57.0294075,C 14.4368763,S 22,T 59,E1 -10000,E2 0,E3 0,E4 0,E5 0,E6 0}
DECL E6POS XP_CIRC1_2={X -6949.65625,Y 10307.4453,Z 419.139709,A -142.194855,B -57.0273819,C 14.436924,S 22,T 59,E1 -10000,E2 0,E3 0,E4 0,E5 0,E6 0}
DECL E6POS XP_CIRC2_1={X -6946.96826,Y 10207.8643,Z 421.942688,A -142.197464,B -57.026104,C 14.4389009,S 22,T 59,E1 -10000,E2 0,E3 0,E4 0,E5 0,E6 0}
DECL E6POS XP_CIRC2_2={X -6903.39795,Y 10127.8193,Z 424.142517,A -142.196152,B -57.023674,C 14.4387541,S 22,T 59,E1 -10000,E2 0,E3 0,E4 0,E5 0,E6 0}
DECL E6POS XP_MITTE_2={X -6743.51514,Y 10035.2725,Z 426.567535,A -142.184708,B -57.0170364,C 14.4341183,S 22,T 59,E1 -10000,E2 0,E3 0,E4 0,E5 0,E6 0}
DECL E6POS XP_CIRC_3_1={X -6613.80762,Y 10033.2061,Z 426.498108,A -142.174728,B -57.0125771,C 14.4298134,S 22,T 59,E1 -10000,E2 0,E3 0,E4 0,E5 0,E6 0}
DECL E6POS XP_CIRC_3_2={X -6525.38379,Y 10034.2148,Z 426.395355,A -142.16803,B -57.0095558,C 14.4266405,S 22,T 59,E1 -10000,E2 0,E3 0,E4 0,E5 0,E6 0}
DECL E6POS XP_CIRC_4_1={X -6431.13623,Y 10051.6279,Z 425.834625,A -142.160629,B -57.0064621,C 14.4230518,S 22,T 59,E1 -10000,E2 0,E3 0,E4 0,E5 0,E6 0}
DECL E6POS XP_CIRC_4_2={X -6315.2627,Y 10038.0703,Z 426.144165,A -142.152618,B -57.0016365,C 14.4192505,S 22,T 59,E1 -10000,E2 0,E3 0,E4 0,E5 0,E6 0}
DECL E6POS XP_Ende={X -6177.80029,Y 9920.18,Z 429.400055,A -142.146591,B -56.9934082,C 14.4163113,S 22,T 59,E1 -10000,E2 0,E3 0,E4 0,E5 0,E6 0}
DECL E6POS XENTE={X -6048.98389,Y 9840.8877,Z 266.172394,A -142.129898,B -56.9763184,C 14.4125404,S 22,T 59,E1 -10000,E2 0,E3 0,E4 0,E5 0,E6 0}
