DECL LOCAL CONST robtarget pInPos_3810BH3_Holen_Start={X 220.55,Y -1.21,Z -1620.05,A 0.126270359,B 0.102787624,C -0.243583371,S 0,T 0,E1 -2649.82,E2 0,E3 0,E4 0,E5 0,E6 0}
DECL LOCAL CONST robtarget pInpos_3810BH3_Holen_Ende={X -0.01,Y -1.43,Z -3.35,A -173.080972378,B -5.68669931,C 40.022942741,S 0,T 0,E1 -2649.81,E2 0,E3 0,E4 0,E5 0,E6 0}
DECL LOCAL CONST robtarget pVorPos_3={X -1237.06,Y 1365.3,Z 2033.52,A -81.498998336,B -85.939671904,C -8.245876185,S 0,T 0,E1 -2649.68,E2 9,E3 9,E4 9,E5 9,E6 9}
DECL LOCAL CONST robtarget p10={X -4885.76,Y 135.06,Z 1338.87,A 175.36234179,B 82.268290776,C 55.665573506,S 0,T 0,E1 -2000,E2 9,E3 9,E4 9,E5 9,E6 9}
DECL LOCAL CONST robtarget p20={X -3400.86,Y -157.57,Z 2135.57,A 92.79766038,B 27.307186384,C -92.654799484,S 0,T 0,E1 -2800,E2 9,E3 9,E4 9,E5 9,E6 9}
DECL LOCAL CONST robtarget p30={X -2022.83,Y 608.47,Z 3446.14,A -96.247773086,B -69.975285951,C 2.242712657,S 0,T 0,E1 -2800,E2 9,E3 9,E4 9,E5 9,E6 9}
DECL LOCAL CONST robtarget p40={X -1456.46,Y 257.96,Z 3023.1,A 130.451314099,B -78.173274463,C 100.615904037,S 0,T 0,E1 -2740.46,E2 9,E3 9,E4 9,E5 9,E6 9}
DECL LOCAL CONST robtarget p50={X -1241.56,Y 970.82,Z 2217.6,A 156.194129205,B -79.710022175,C 116.965289442,S 0,T 0,E1 -2650,E2 9,E3 9,E4 9,E5 9,E6 9}
DECL LOCAL CONST robtarget p60={X -1237.13,Y 1183.56,Z 2103.48,A -81.484150519,B -85.940382102,C -8.260891177,S 0,T 0,E1 -2649.76,E2 9,E3 9,E4 9,E5 9,E6 9}
DECL LOCAL CONST robtarget p70={X -1261.48,Y 751.18,Z 2716.86,A 144.961917952,B -79.823738971,C 106.720760846,S 0,T 0,E1 -2706.96,E2 9,E3 9,E4 9,E5 9,E6 9}
DECL LOCAL CONST robtarget p80={X -1456.46,Y 257.96,Z 3023.1,A 130.451314099,B -78.173274463,C 100.615904037,S 0,T 0,E1 -2740.46,E2 9,E3 9,E4 9,E5 9,E6 9}
DECL LOCAL CONST robtarget p90={X -2022.82,Y 608.46,Z 3446.13,A -96.242966971,B -69.974945503,C 2.238363972,S 0,T 0,E1 -2800,E2 9,E3 9,E4 9,E5 9,E6 9}
DECL LOCAL CONST robtarget p100={X -3309.75,Y -179.72,Z 1920.64,A 91.555629978,B 27.980210839,C -95.331264792,S 0,T 0,E1 -2800,E2 9,E3 9,E4 9,E5 9,E6 9}
DECL LOCAL CONST robtarget p110={X -4885.76,Y 135.06,Z 1338.87,A 175.36234179,B 82.268290776,C 55.665573506,S 0,T 0,E1 -2000,E2 9,E3 9,E4 9,E5 9,E6 9}
