DECL E6POS XVorpos_15_VTC={X -2174.63,Y 7907.8,Z -2006.23,A -49.18,B 46.907,C -102.109,S 2,T 43,E1 -1500,E2 0,E3 0,E4 0,E5 0,E6 0}
DECL E6POS XP5={X 1204.02,Y 9855.26,Z -2052.34,A -49.18,B 46.907,C -102.109,S 2,T 43,E1 -5400,E2 0,E3 0,E4 0,E5 0,E6 0}
DECL E6POS XP10={X 3938.52,Y 6235.98,Z -35.96,A 124.166,B 26.206,C 7.853,S 6,T 27,E1 -5400,E2 0,E3 0,E4 0,E5 0,E6 0}
DECL E6POS XP15={X 3706.31,Y 6067.94,Z 319.96,A 119.13,B 26.379,C -2.209,S 6,T 27,E1 -5400,E2 0,E3 0,E4 0,E5 0,E6 0}
DECL E6POS XP20={X 3796.47,Y 6137.34,Z 481.89,A 121.071,B 26.371,C 0.474,S 6,T 27,E1 -5400,E2 0,E3 0,E4 0,E5 0,E6 0}
DECL E6POS XMP80605301={X 3834.27,Y 6159.18,Z 482.01,A 119.825,B 26.375,C -0.081,S 6,T 27,E1 -5400,E2 0,E3 0,E4 0,E5 0,E6 0}
DECL E6POS XP25={X 3872.12,Y 6181.05,Z 482.12,A 121.071,B 26.371,C 0.474,S 6,T 27,E1 -5400,E2 0,E3 0,E4 0,E5 0,E6 0}
DECL E6POS XP30={X 3932.58,Y 6209.02,Z 482.33,A 89.179,B 26.875,C -0.786,S 6,T 27,E1 -5400,E2 0,E3 0,E4 0,E5 0,E6 0}
DECL E6POS XMP80605302={X 3965.08,Y 6208.75,Z 482.73,A 89.179,B 26.875,C -0.786,S 6,T 27,E1 -5400,E2 0,E3 0,E4 0,E5 0,E6 0}
DECL E6POS XP35={X 3997.56,Y 6208.49,Z 483.13,A 89.179,B 26.875,C -0.786,S 6,T 27,E1 -5400,E2 0,E3 0,E4 0,E5 0,E6 0}
DECL E6POS XP40={X 3990.15,Y 6208.76,Z 482.9,A 119.806,B 26.383,C 0.305,S 6,T 27,E1 -5400,E2 0,E3 0,E4 0,E5 0,E6 0}
DECL E6POS XMP80605303={X 4017.51,Y 6224.23,Z 483.06,A 119.806,B 26.383,C 0.305,S 6,T 27,E1 -5400,E2 0,E3 0,E4 0,E5 0,E6 0}
DECL E6POS XP45={X 4044.86,Y 6239.67,Z 483.22,A 119.806,B 26.383,C 0.305,S 6,T 27,E1 -5400,E2 0,E3 0,E4 0,E5 0,E6 0}
DECL E6POS XP50={X 4041.47,Y 6238.01,Z 482.9,A 146.478,B 27.35,C 0.194,S 6,T 27,E1 -5400,E2 0,E3 0,E4 0,E5 0,E6 0}
DECL E6POS XMP80605304={X 4059.46,Y 6265.07,Z 482.79,A 146.478,B 27.35,C 0.194,S 6,T 27,E1 -5400,E2 0,E3 0,E4 0,E5 0,E6 0}
DECL E6POS XP55={X 4077.46,Y 6292.12,Z 482.69,A 146.478,B 27.35,C 0.194,S 6,T 27,E1 -5400,E2 0,E3 0,E4 0,E5 0,E6 0}
DECL E6POS XP60={X 4115.57,Y 6266.47,Z 393.87,A 146.478,B 27.35,C 0.194,S 6,T 27,E1 -5400,E2 0,E3 0,E4 0,E5 0,E6 0}
DECL E6POS XP65={X 4120.28,Y 6324.42,Z 482.44,A 120.616,B 26.387,C 0.919,S 6,T 27,E1 -5400,E2 0,E3 0,E4 0,E5 0,E6 0}
DECL E6POS XMP80605305={X 4159.46,Y 6347.05,Z 482.42,A 120.671,B 26.374,C -0.174,S 6,T 27,E1 -5400,E2 0,E3 0,E4 0,E5 0,E6 0}
DECL E6POS XP70={X 4198.43,Y 6369.56,Z 482.41,A 120.616,B 26.387,C 0.919,S 6,T 27,E1 -5400,E2 0,E3 0,E4 0,E5 0,E6 0}
DECL E6POS XP75={X 4097.75,Y 6311.68,Z 405.43,A 119.128,B 26.381,C -2.426,S 6,T 27,E1 -5400,E2 0,E3 0,E4 0,E5 0,E6 0}
DECL E6POS XP80={X 4034.82,Y 6552.9,Z 381.71,A 120.125,B 26.392,C 0.028,S 6,T 27,E1 -5400,E2 0,E3 0,E4 0,E5 0,E6 0}
DECL E6POS XP85={X 4128.49,Y 6606.96,Z 475.72,A 119.769,B 26.362,C -0.705,S 6,T 27,E1 -5400,E2 0,E3 0,E4 0,E5 0,E6 0}
DECL E6POS XMP80705305={X 4090.02,Y 6584.73,Z 475.64,A 119.769,B 26.362,C -0.705,S 6,T 27,E1 -5400,E2 0,E3 0,E4 0,E5 0,E6 0}
DECL E6POS XP90={X 4051.56,Y 6562.51,Z 475.56,A 119.769,B 26.362,C -0.705,S 6,T 27,E1 -5400,E2 0,E3 0,E4 0,E5 0,E6 0}
DECL E6POS XP95={X 4074.67,Y 6524.58,Z 385.96,A 119.769,B 26.362,C -0.705,S 6,T 27,E1 -5400,E2 0,E3 0,E4 0,E5 0,E6 0}
DECL E6POS XP100={X 4008.85,Y 6531.86,Z 475.41,A 146.724,B 28.492,C 1.765,S 6,T 27,E1 -5400,E2 0,E3 0,E4 0,E5 0,E6 0}
DECL E6POS XMP80705304={X 3990.93,Y 6503.84,Z 475.99,A 146.724,B 28.492,C 1.765,S 6,T 27,E1 -5400,E2 0,E3 0,E4 0,E5 0,E6 0}
DECL E6POS XP105={X 3973.01,Y 6475.81,Z 476.58,A 146.724,B 28.492,C 1.765,S 6,T 27,E1 -5400,E2 0,E3 0,E4 0,E5 0,E6 0}
DECL E6POS XP110={X 3973.78,Y 6476.31,Z 476.33,A 119.938,B 26.383,C 0.704,S 6,T 27,E1 -5400,E2 0,E3 0,E4 0,E5 0,E6 0}
DECL E6POS XMP80705303={X 3947.84,Y 6461.62,Z 476.35,A 119.938,B 26.383,C 0.704,S 6,T 27,E1 -5400,E2 0,E3 0,E4 0,E5 0,E6 0}
DECL E6POS XP115={X 3921.9,Y 6446.91,Z 476.36,A 119.938,B 26.383,C 0.704,S 6,T 27,E1 -5400,E2 0,E3 0,E4 0,E5 0,E6 0}
DECL E6POS XP120={X 3929.64,Y 6447.19,Z 476.41,A 91.086,B 26.314,C -1.279,S 6,T 27,E1 -5400,E2 0,E3 0,E4 0,E5 0,E6 0}
DECL E6POS XMP80705302={X 3892.46,Y 6446.43,Z 475.66,A 91.086,B 26.314,C -1.279,S 6,T 27,E1 -5400,E2 0,E3 0,E4 0,E5 0,E6 0}
DECL E6POS XP125={X 3855.28,Y 6445.64,Z 474.91,A 91.086,B 26.314,C -1.279,S 6,T 27,E1 -5400,E2 0,E3 0,E4 0,E5 0,E6 0}
DECL E6POS XP130={X 3789.93,Y 6411.33,Z 474.54,A 119.939,B 26.387,C 0.676,S 6,T 27,E1 -5400,E2 0,E3 0,E4 0,E5 0,E6 0}
DECL E6POS XMP80705301={X 3749.31,Y 6387.85,Z 474.32,A 119.939,B 26.387,C -0.527,S 6,T 27,E1 -5400,E2 0,E3 0,E4 0,E5 0,E6 0}
DECL E6POS XP135={X 3708.75,Y 6364.41,Z 474.1,A 119.939,B 26.387,C 0.676,S 6,T 27,E1 -5400,E2 0,E3 0,E4 0,E5 0,E6 0}
DECL E6POS XP140={X 3830.35,Y 6362.73,Z 250,A 121.428,B 26.35,C 4.027,S 6,T 27,E1 -5400,E2 0,E3 0,E4 0,E5 0,E6 0}
DECL E6POS XP145={X 3605.08,Y 6582.37,Z 388.7,A 120.392,B 26.39,C 0.63,S 6,T 27,E1 -5400,E2 0,E3 0,E4 0,E5 0,E6 0}
DECL E6POS XP150={X 3660.31,Y 6614.26,Z 463.66,A 119.858,B 26.385,C -0.518,S 6,T 27,E1 -5400,E2 0,E3 0,E4 0,E5 0,E6 0}
DECL E6POS XMP80805301={X 3694.98,Y 6634.3,Z 463.93,A 119.858,B 26.385,C -0.518,S 6,T 27,E1 -5400,E2 0,E3 0,E4 0,E5 0,E6 0}
DECL E6POS XP155={X 3729.6,Y 6654.3,Z 464.19,A 119.858,B 26.385,C -0.518,S 6,T 27,E1 -5400,E2 0,E3 0,E4 0,E5 0,E6 0}
DECL E6POS XP160={X 3791.04,Y 6684.48,Z 464.09,A 89.682,B 26.647,C -3.539,S 6,T 27,E1 -5400,E2 0,E3 0,E4 0,E5 0,E6 0}
DECL E6POS XMP80805302={X 3826.29,Y 6685.12,Z 465.75,A 89.682,B 26.647,C -3.539,S 6,T 27,E1 -5400,E2 0,E3 0,E4 0,E5 0,E6 0}
DECL E6POS XP165={X 3861.52,Y 6685.74,Z 467.39,A 89.682,B 26.647,C -3.539,S 6,T 27,E1 -5400,E2 0,E3 0,E4 0,E5 0,E6 0}
DECL E6POS XP170={X 3852.16,Y 6685.14,Z 466.44,A 119.891,B 26.387,C -0.391,S 6,T 27,E1 -5400,E2 0,E3 0,E4 0,E5 0,E6 0}
DECL E6POS XMP80805303={X 3878.13,Y 6700.18,Z 466.63,A 119.891,B 26.387,C -0.391,S 6,T 27,E1 -5400,E2 0,E3 0,E4 0,E5 0,E6 0}
DECL E6POS XP175={X 3904.08,Y 6715.2,Z 466.81,A 119.891,B 26.387,C -0.391,S 6,T 27,E1 -5400,E2 0,E3 0,E4 0,E5 0,E6 0}
DECL E6POS XP180={X 3902.22,Y 6712.97,Z 466.98,A 146.727,B 26.428,C 1.842,S 6,T 27,E1 -5400,E2 0,E3 0,E4 0,E5 0,E6 0}
DECL E6POS XMP80805304={X 3919.91,Y 6739.86,Z 466.27,A 146.727,B 26.428,C 1.842,S 6,T 27,E1 -5400,E2 0,E3 0,E4 0,E5 0,E6 0}
DECL E6POS XP185={X 3937.6,Y 6766.76,Z 465.55,A 146.727,B 26.428,C 1.842,S 6,T 27,E1 -5400,E2 0,E3 0,E4 0,E5 0,E6 0}
DECL E6POS XP190={X 3973.02,Y 6739.67,Z 376.05,A 146.727,B 26.428,C 1.842,S 6,T 27,E1 -5400,E2 0,E3 0,E4 0,E5 0,E6 0}
DECL E6POS XP195={X 3995.19,Y 6807.8,Z 465.78,A 119.388,B 26.364,C -0.549,S 6,T 27,E1 -5400,E2 0,E3 0,E4 0,E5 0,E6 0}
DECL E6POS XMP80805305={X 4025.93,Y 6825.57,Z 465.92,A 118.719,B 26.358,C -0.846,S 6,T 27,E1 -5400,E2 0,E3 0,E4 0,E5 0,E6 0}
DECL E6POS XP200={X 4056.9,Y 6843.46,Z 466.05,A 119.388,B 26.364,C -0.549,S 6,T 27,E1 -5400,E2 0,E3 0,E4 0,E5 0,E6 0}
DECL E6POS XP205={X 3956.79,Y 6785.39,Z 393.05,A 117.903,B 26.294,C -3.896,S 6,T 27,E1 -5400,E2 0,E3 0,E4 0,E5 0,E6 0}
DECL E6POS XP210={X 3908.13,Y 7035.51,Z 359.7,A 120.125,B 26.392,C 0.028,S 6,T 27,E1 -5400,E2 0,E3 0,E4 0,E5 0,E6 0}
DECL E6POS XP215={X 4002.36,Y 7089.89,Z 453.88,A 119.935,B 26.359,C -0.913,S 6,T 27,E1 -5400,E2 0,E3 0,E4 0,E5 0,E6 0}
DECL E6POS XMP80905305={X 3963.32,Y 7067.33,Z 453.62,A 119.935,B 26.359,C -0.913,S 6,T 27,E1 -5400,E2 0,E3 0,E4 0,E5 0,E6 0}
DECL E6POS XP220={X 3924.86,Y 7045.1,Z 453.37,A 119.935,B 26.359,C -0.913,S 6,T 27,E1 -5400,E2 0,E3 0,E4 0,E5 0,E6 0}
DECL E6POS XP225={X 3948.39,Y 7007.42,Z 363.78,A 119.935,B 26.359,C -0.913,S 6,T 27,E1 -5400,E2 0,E3 0,E4 0,E5 0,E6 0}
DECL E6POS XP230={X 3868.01,Y 7005.41,Z 453.21,A 147.641,B 28.536,C 2.017,S 6,T 27,E1 -5400,E2 0,E3 0,E4 0,E5 0,E6 0}
DECL E6POS XMP80905304={X 3850.48,Y 6977.14,Z 453.93,A 147.641,B 28.536,C 2.017,S 6,T 27,E1 -5400,E2 0,E3 0,E4 0,E5 0,E6 0}
DECL E6POS XP235={X 3832.95,Y 6948.88,Z 454.64,A 147.641,B 28.536,C 2.017,S 6,T 27,E1 -5400,E2 0,E3 0,E4 0,E5 0,E6 0}
DECL E6POS XP240={X 3836.07,Y 6953.57,Z 454.8,A 119.938,B 26.383,C -0.339,S 6,T 27,E1 -5400,E2 0,E3 0,E4 0,E5 0,E6 0}
DECL E6POS XMP80905303={X 3810.25,Y 6938.67,Z 454.33,A 119.938,B 26.383,C -0.339,S 6,T 27,E1 -5400,E2 0,E3 0,E4 0,E5 0,E6 0}
DECL E6POS XP245={X 3784.43,Y 6923.77,Z 453.86,A 119.938,B 26.383,C -0.339,S 6,T 27,E1 -5400,E2 0,E3 0,E4 0,E5 0,E6 0}
DECL E6POS XP250={X 3792.51,Y 6923.2,Z 454.39,A 90.017,B 26.995,C -2.119,S 6,T 27,E1 -5400,E2 0,E3 0,E4 0,E5 0,E6 0}
DECL E6POS XMP80905302={X 3755.35,Y 6922.86,Z 453.15,A 90.017,B 26.995,C -2.119,S 6,T 27,E1 -5400,E2 0,E3 0,E4 0,E5 0,E6 0}
DECL E6POS XP255={X 3718.16,Y 6922.52,Z 451.94,A 90.017,B 26.995,C -2.119,S 6,T 27,E1 -5400,E2 0,E3 0,E4 0,E5 0,E6 0}
DECL E6POS XP260={X 3665.02,Y 6894.9,Z 451.3,A 119.939,B 26.387,C -0.612,S 6,T 27,E1 -5400,E2 0,E3 0,E4 0,E5 0,E6 0}
DECL E6POS XMP80905301={X 3623.87,Y 6871.11,Z 450.91,A 119.939,B 26.387,C -0.612,S 6,T 27,E1 -5400,E2 0,E3 0,E4 0,E5 0,E6 0}
DECL E6POS XP265={X 3583.45,Y 6847.74,Z 450.53,A 119.939,B 26.387,C -0.612,S 6,T 27,E1 -5400,E2 0,E3 0,E4 0,E5 0,E6 0}
DECL E6POS XP270={X 3503.36,Y 6787.41,Z 373.83,A 120.052,B 26.392,C -0.136,S 6,T 27,E1 -5400,E2 0,E3 0,E4 0,E5 0,E6 0}
DECL E6POS XP275={X 3475.51,Y 7063.4,Z 360.57,A 120.392,B 26.39,C 0.63,S 6,T 27,E1 -5400,E2 0,E3 0,E4 0,E5 0,E6 0}
DECL E6POS XP280={X 3530.82,Y 7095.31,Z 435.45,A 119.858,B 26.385,C -0.518,S 6,T 27,E1 -5400,E2 0,E3 0,E4 0,E5 0,E6 0}
DECL E6POS XMP81005301={X 3565.42,Y 7115.32,Z 435.81,A 119.858,B 26.385,C -0.518,S 6,T 27,E1 -5400,E2 0,E3 0,E4 0,E5 0,E6 0}
DECL E6POS XP285={X 3600.09,Y 7135.36,Z 436.17,A 119.858,B 26.385,C -0.518,S 6,T 27,E1 -5400,E2 0,E3 0,E4 0,E5 0,E6 0}
DECL E6POS XP290={X 3652.34,Y 7161.17,Z 436.94,A 89.221,B 26.429,C -3.071,S 6,T 27,E1 -5400,E2 0,E3 0,E4 0,E5 0,E6 0}
DECL E6POS XMP81005302={X 3687.6,Y 7161.37,Z 438.33,A 89.221,B 26.429,C -3.071,S 6,T 27,E1 -5400,E2 0,E3 0,E4 0,E5 0,E6 0}
DECL E6POS XP295={X 3722.85,Y 7161.59,Z 439.74,A 89.221,B 26.429,C -3.071,S 6,T 27,E1 -5400,E2 0,E3 0,E4 0,E5 0,E6 0}
DECL E6POS XP300={X 3727.61,Y 7117.07,Z 350.32,A 88.773,B 33.419,C -3.294,S 6,T 27,E1 -5400,E2 0,E3 0,E4 0,E5 0,E6 0}
DECL E6POS XP305={X 3740.34,Y 7120.4,Z 340.95,A 119.891,B 26.387,C -0.391,S 6,T 27,E1 -5400,E2 0,E3 0,E4 0,E5 0,E6 0}
DECL E6POS XP310={X 3715.33,Y 7162.4,Z 439.49,A 119.891,B 26.387,C -0.391,S 6,T 27,E1 -5400,E2 0,E3 0,E4 0,E5 0,E6 0}
DECL E6POS XMP81005303={X 3741.29,Y 7177.43,Z 439.67,A 119.891,B 26.387,C -0.391,S 6,T 27,E1 -5400,E2 0,E3 0,E4 0,E5 0,E6 0}
DECL E6POS XP315={X 3767.26,Y 7192.46,Z 439.86,A 119.891,B 26.387,C -0.391,S 6,T 27,E1 -5400,E2 0,E3 0,E4 0,E5 0,E6 0}
DECL E6POS XP320={X 3764.01,Y 7188.4,Z 439.94,A 147.977,B 26.218,C 1.886,S 6,T 27,E1 -5400,E2 0,E3 0,E4 0,E5 0,E6 0}
DECL E6POS XMP81005304={X 3781.1,Y 7215.67,Z 439.22,A 147.977,B 26.218,C 1.886,S 6,T 27,E1 -5400,E2 0,E3 0,E4 0,E5 0,E6 0}
DECL E6POS XP325={X 3798.22,Y 7242.94,Z 438.48,A 147.977,B 26.218,C 1.886,S 6,T 27,E1 -5400,E2 0,E3 0,E4 0,E5 0,E6 0}
DECL E6POS XP330={X 3839.44,Y 7273.74,Z 438.5,A 119.793,B 26.341,C -1.212,S 6,T 27,E1 -5400,E2 0,E3 0,E4 0,E5 0,E6 0}
DECL E6POS XMP81005305={X 3870.12,Y 7291.47,Z 438.78,A 119.793,B 26.341,C -1.212,S 6,T 27,E1 -5400,E2 0,E3 0,E4 0,E5 0,E6 0}
DECL E6POS XP335={X 3901.03,Y 7309.34,Z 439.05,A 119.793,B 26.341,C -1.212,S 6,T 27,E1 -5400,E2 0,E3 0,E4 0,E5 0,E6 0}
DECL E6POS XP340={X 3853.31,Y 7284.67,Z 343.31,A 118.862,B 26.347,C -2.735,S 6,T 27,E1 -5400,E2 0,E3 0,E4 0,E5 0,E6 0}
DECL E6POS XP345={X 2846.91,Y 5588.59,Z 314.98,A 119.13,B 26.379,C -2.209,S 6,T 27,E1 -4400,E2 0,E3 0,E4 0,E5 0,E6 0}
DECL E6POS XP350={X 2976.65,Y 5663.61,Z 478.78,A 119.825,B 26.375,C 1.03,S 6,T 27,E1 -4400,E2 0,E3 0,E4 0,E5 0,E6 0}
DECL E6POS XMP80604301={X 3014.32,Y 5685.38,Z 479.01,A 119.825,B 26.375,C 1.03,S 6,T 27,E1 -4400,E2 0,E3 0,E4 0,E5 0,E6 0}
DECL E6POS XP355={X 3052.02,Y 5707.16,Z 479.24,A 119.825,B 26.375,C 1.03,S 6,T 27,E1 -4400,E2 0,E3 0,E4 0,E5 0,E6 0}
DECL E6POS XP360={X 3116.99,Y 5736.72,Z 479.71,A 90.215,B 26.96,C -1.316,S 6,T 27,E1 -4400,E2 0,E3 0,E4 0,E5 0,E6 0}
DECL E6POS XMP80604302={X 3149.48,Y 5737.19,Z 480.37,A 90.215,B 26.96,C -1.316,S 6,T 27,E1 -4400,E2 0,E3 0,E4 0,E5 0,E6 0}
DECL E6POS XP365={X 3181.97,Y 5737.65,Z 481.04,A 90.215,B 26.96,C -1.316,S 6,T 27,E1 -4400,E2 0,E3 0,E4 0,E5 0,E6 0}
DECL E6POS XP370={X 3186.87,Y 5740.5,Z 480.97,A 119.806,B 26.383,C 0.305,S 6,T 27,E1 -4400,E2 0,E3 0,E4 0,E5 0,E6 0}
DECL E6POS XMP80604303={X 3214.22,Y 5755.95,Z 481.12,A 119.806,B 26.383,C 0.305,S 6,T 27,E1 -4400,E2 0,E3 0,E4 0,E5 0,E6 0}
DECL E6POS XP375={X 3241.58,Y 5771.4,Z 481.28,A 119.806,B 26.383,C 0.305,S 6,T 27,E1 -4400,E2 0,E3 0,E4 0,E5 0,E6 0}
DECL E6POS XP380={X 3243.05,Y 5773.41,Z 481.22,A 149.361,B 27.346,C 0.744,S 6,T 27,E1 -4400,E2 0,E3 0,E4 0,E5 0,E6 0}
DECL E6POS XMP80604304={X 3259.79,Y 5801.27,Z 480.83,A 149.361,B 27.346,C 0.744,S 6,T 27,E1 -4400,E2 0,E3 0,E4 0,E5 0,E6 0}
DECL E6POS XP385={X 3276.5,Y 5829.12,Z 480.47,A 149.361,B 27.346,C 0.744,S 6,T 27,E1 -4400,E2 0,E3 0,E4 0,E5 0,E6 0}
DECL E6POS XP390={X 3315.36,Y 5804.6,Z 391.65,A 149.361,B 27.346,C 0.744,S 6,T 27,E1 -4400,E2 0,E3 0,E4 0,E5 0,E6 0}
DECL E6POS XP395={X 3322.78,Y 5863.65,Z 480.5,A 120.616,B 26.387,C 0.919,S 6,T 27,E1 -4400,E2 0,E3 0,E4 0,E5 0,E6 0}
DECL E6POS XMP80604305={X 3361.4,Y 5885.96,Z 480.61,A 120.671,B 26.374,C -0.174,S 6,T 27,E1 -4400,E2 0,E3 0,E4 0,E5 0,E6 0}
DECL E6POS XP400={X 3400.24,Y 5908.4,Z 480.73,A 120.616,B 26.387,C 0.919,S 6,T 27,E1 -4400,E2 0,E3 0,E4 0,E5 0,E6 0}
DECL E6POS XP405={X 3385.12,Y 5899.2,Z 392.06,A 120.282,B 26.391,C 0.383,S 6,T 27,E1 -4400,E2 0,E3 0,E4 0,E5 0,E6 0}
DECL E6POS XP410={X 3270.67,Y 6111.31,Z 378.11,A 120.125,B 26.392,C 0.028,S 6,T 27,E1 -4400,E2 0,E3 0,E4 0,E5 0,E6 0}
DECL E6POS XP415={X 3364.26,Y 6165.32,Z 472.23,A 119.769,B 26.362,C 0.557,S 6,T 27,E1 -4400,E2 0,E3 0,E4 0,E5 0,E6 0}
DECL E6POS XMP80704305={X 3325.88,Y 6143.14,Z 472.03,A 119.769,B 26.362,C 0.557,S 6,T 27,E1 -4400,E2 0,E3 0,E4 0,E5 0,E6 0}
DECL E6POS XP420={X 3287.37,Y 6120.89,Z 471.82,A 119.769,B 26.362,C 0.557,S 6,T 27,E1 -4400,E2 0,E3 0,E4 0,E5 0,E6 0}
DECL E6POS XP425={X 3224.18,Y 6076.56,Z 471.62,A 145.638,B 28.572,C 1.588,S 6,T 27,E1 -4400,E2 0,E3 0,E4 0,E5 0,E6 0}
DECL E6POS XMP80704304={X 3205.76,Y 6048.85,Z 472.12,A 145.638,B 28.572,C 1.588,S 6,T 27,E1 -4400,E2 0,E3 0,E4 0,E5 0,E6 0}
DECL E6POS XP430={X 3187.35,Y 6021.15,Z 472.62,A 145.638,B 28.572,C 1.588,S 6,T 27,E1 -4400,E2 0,E3 0,E4 0,E5 0,E6 0}
DECL E6POS XP435={X 3181.66,Y 6013.8,Z 472.49,A 119.938,B 26.383,C 0.704,S 6,T 27,E1 -4400,E2 0,E3 0,E4 0,E5 0,E6 0}
DECL E6POS XMP80704303={X 3155.72,Y 5999.12,Z 472.51,A 119.938,B 26.383,C -0.303,S 6,T 27,E1 -4400,E2 0,E3 0,E4 0,E5 0,E6 0}
DECL E6POS XP440={X 3129.77,Y 5984.41,Z 472.52,A 119.938,B 26.383,C 0.704,S 6,T 27,E1 -4400,E2 0,E3 0,E4 0,E5 0,E6 0}
DECL E6POS XP445={X 3125.85,Y 5982,Z 472.36,A 89.854,B 26.718,C -1.817,S 6,T 27,E1 -4400,E2 0,E3 0,E4 0,E5 0,E6 0}
DECL E6POS XMP80704302={X 3088.66,Y 5981.85,Z 471.3,A 89.854,B 26.718,C -1.817,S 6,T 27,E1 -4400,E2 0,E3 0,E4 0,E5 0,E6 0}
DECL E6POS XP450={X 3051.48,Y 5981.73,Z 470.24,A 89.854,B 26.718,C -1.817,S 6,T 27,E1 -4400,E2 0,E3 0,E4 0,E5 0,E6 0}
DECL E6POS XP455={X 2982.53,Y 5944.69,Z 469.68,A 119.939,B 26.387,C 0.676,S 6,T 27,E1 -4400,E2 0,E3 0,E4 0,E5 0,E6 0}
DECL E6POS XMP80704301={X 2941.96,Y 5921.23,Z 469.33,A 119.939,B 26.387,C -0.527,S 6,T 27,E1 -4400,E2 0,E3 0,E4 0,E5 0,E6 0}
DECL E6POS XP460={X 2901.5,Y 5897.85,Z 468.98,A 119.939,B 26.387,C 0.676,S 6,T 27,E1 -4400,E2 0,E3 0,E4 0,E5 0,E6 0}
DECL E6POS XP465={X 2801.02,Y 5833.72,Z 394.51,A 120.052,B 26.392,C -0.136,S 6,T 27,E1 -4400,E2 0,E3 0,E4 0,E5 0,E6 0}
DECL E6POS XP470={X 2796.35,Y 6114.88,Z 381.99,A 120.392,B 26.39,C 0.63,S 6,T 27,E1 -4400,E2 0,E3 0,E4 0,E5 0,E6 0}
DECL E6POS XP475={X 2851.63,Y 6146.78,Z 456.85,A 119.858,B 26.385,C -0.518,S 6,T 27,E1 -4400,E2 0,E3 0,E4 0,E5 0,E6 0}
DECL E6POS XMP80804301={X 2886.26,Y 6166.8,Z 457.22,A 119.858,B 26.385,C -0.518,S 6,T 27,E1 -4400,E2 0,E3 0,E4 0,E5 0,E6 0}
DECL E6POS XP480={X 2920.84,Y 6186.79,Z 457.58,A 119.858,B 26.385,C -0.518,S 6,T 27,E1 -4400,E2 0,E3 0,E4 0,E5 0,E6 0}
DECL E6POS XP485={X 2999.96,Y 6227.91,Z 458.53,A 90.161,B 26.618,C -2.678,S 6,T 27,E1 -4400,E2 0,E3 0,E4 0,E5 0,E6 0}
DECL E6POS XMP80804302={X 3035.22,Y 6228.6,Z 459.72,A 90.161,B 26.618,C -2.678,S 6,T 27,E1 -4400,E2 0,E3 0,E4 0,E5 0,E6 0}
DECL E6POS XP490={X 3070.48,Y 6229.29,Z 460.9,A 90.161,B 26.618,C -2.678,S 6,T 27,E1 -4400,E2 0,E3 0,E4 0,E5 0,E6 0}
DECL E6POS XP495={X 3072.47,Y 6230.47,Z 460.96,A 119.891,B 26.387,C -0.391,S 6,T 27,E1 -4400,E2 0,E3 0,E4 0,E5 0,E6 0}
DECL E6POS XMP80804303={X 3098.45,Y 6245.5,Z 461.14,A 119.891,B 26.387,C -0.391,S 6,T 27,E1 -4400,E2 0,E3 0,E4 0,E5 0,E6 0}
DECL E6POS XP500={X 3124.4,Y 6260.52,Z 461.33,A 119.891,B 26.387,C -0.391,S 6,T 27,E1 -4400,E2 0,E3 0,E4 0,E5 0,E6 0}
DECL E6POS XP505={X 3129.2,Y 6264.49,Z 461.32,A 146.633,B 26.371,C 1.51,S 6,T 27,E1 -4400,E2 0,E3 0,E4 0,E5 0,E6 0}
DECL E6POS XMP80804304={X 3146.87,Y 6291.41,Z 460.78,A 146.633,B 26.371,C 1.51,S 6,T 27,E1 -4400,E2 0,E3 0,E4 0,E5 0,E6 0}
DECL E6POS XP510={X 3164.53,Y 6318.32,Z 460.23,A 146.633,B 26.371,C 1.51,S 6,T 27,E1 -4400,E2 0,E3 0,E4 0,E5 0,E6 0}
DECL E6POS XP515={X 3227.57,Y 6364.12,Z 460.39,A 119.388,B 26.376,C -1.649,S 6,T 27,E1 -4400,E2 0,E3 0,E4 0,E5 0,E6 0}
DECL E6POS XMP80804305={X 3258.15,Y 6381.79,Z 460.62,A 118.719,B 26.358,C -0.846,S 6,T 27,E1 -4400,E2 0,E3 0,E4 0,E5 0,E6 0}
DECL E6POS XP520={X 3288.74,Y 6399.47,Z 460.85,A 119.388,B 26.376,C -1.649,S 6,T 27,E1 -4400,E2 0,E3 0,E4 0,E5 0,E6 0}
DECL E6POS XP525={X 3240.18,Y 6374.33,Z 365.31,A 118.862,B 26.347,C -2.735,S 6,T 27,E1 -4400,E2 0,E3 0,E4 0,E5 0,E6 0}
DECL E6POS XP530={X 3143.31,Y 6593.38,Z 352.98,A 120.125,B 26.392,C 0.028,S 6,T 27,E1 -4400,E2 0,E3 0,E4 0,E5 0,E6 0}
DECL E6POS XP535={X 3237.7,Y 6647.86,Z 447.27,A 119.935,B 26.359,C -0.913,S 6,T 27,E1 -4400,E2 0,E3 0,E4 0,E5 0,E6 0}
DECL E6POS XMP80904305={X 3198.52,Y 6625.21,Z 446.91,A 119.935,B 26.359,C -0.913,S 6,T 27,E1 -4400,E2 0,E3 0,E4 0,E5 0,E6 0}
DECL E6POS XP540={X 3160.07,Y 6602.98,Z 446.54,A 119.935,B 26.359,C -0.913,S 6,T 27,E1 -4400,E2 0,E3 0,E4 0,E5 0,E6 0}
DECL E6POS XP545={X 3111.58,Y 6568.21,Z 446.26,A 146.529,B 28.624,C 2.113,S 6,T 27,E1 -4400,E2 0,E3 0,E4 0,E5 0,E6 0}
DECL E6POS XMP80904304={X 3093.48,Y 6540.31,Z 447.03,A 146.529,B 28.624,C 2.113,S 6,T 27,E1 -4400,E2 0,E3 0,E4 0,E5 0,E6 0}
DECL E6POS XP550={X 3075.4,Y 6512.4,Z 447.8,A 146.529,B 28.624,C 2.113,S 6,T 27,E1 -4400,E2 0,E3 0,E4 0,E5 0,E6 0}
DECL E6POS XP555={X 3070.08,Y 6505.81,Z 448.04,A 119.938,B 26.383,C -0.339,S 6,T 27,E1 -4400,E2 0,E3 0,E4 0,E5 0,E6 0}
DECL E6POS XMP80904303={X 3044.25,Y 6490.91,Z 447.58,A 119.938,B 26.383,C -0.339,S 6,T 27,E1 -4400,E2 0,E3 0,E4 0,E5 0,E6 0}
DECL E6POS XP560={X 3018.43,Y 6476.01,Z 447.09,A 119.938,B 26.383,C -0.339,S 6,T 27,E1 -4400,E2 0,E3 0,E4 0,E5 0,E6 0}
DECL E6POS XP565={X 3016.24,Y 6472.72,Z 447.32,A 89.166,B 26.795,C -2.502,S 6,T 27,E1 -4400,E2 0,E3 0,E4 0,E5 0,E6 0}
DECL E6POS XMP80904302={X 2979.07,Y 6472.82,Z 445.88,A 89.166,B 26.795,C -2.502,S 6,T 27,E1 -4400,E2 0,E3 0,E4 0,E5 0,E6 0}
DECL E6POS XP570={X 2941.89,Y 6472.93,Z 444.42,A 89.166,B 26.795,C -2.502,S 6,T 27,E1 -4400,E2 0,E3 0,E4 0,E5 0,E6 0}
DECL E6POS XP575={X 2888.58,Y 6446,Z 443.6,A 119.939,B 26.387,C -0.612,S 6,T 27,E1 -4400,E2 0,E3 0,E4 0,E5 0,E6 0}
DECL E6POS XMP80904301={X 2848.02,Y 6422.55,Z 443.1,A 119.939,B 26.387,C -0.612,S 6,T 27,E1 -4400,E2 0,E3 0,E4 0,E5 0,E6 0}
DECL E6POS XP580={X 2807.46,Y 6399.09,Z 442.61,A 119.939,B 26.387,C -0.612,S 6,T 27,E1 -4400,E2 0,E3 0,E4 0,E5 0,E6 0}
DECL E6POS XP585={X 2730.52,Y 6340.62,Z 366.72,A 120.052,B 26.392,C -0.136,S 6,T 27,E1 -4400,E2 0,E3 0,E4 0,E5 0,E6 0}
DECL E6POS XP590={X 2694.62,Y 6611.83,Z 351.01,A 120.392,B 26.39,C 0.63,S 6,T 27,E1 -4400,E2 0,E3 0,E4 0,E5 0,E6 0}
DECL E6POS XP595={X 2749.96,Y 6643.76,Z 425.8,A 119.833,B 28.769,C -0.529,S 6,T 27,E1 -4400,E2 0,E3 0,E4 0,E5 0,E6 0}
DECL E6POS XMP81004301={X 2784.53,Y 6663.75,Z 426.24,A 119.858,B 26.385,C -0.518,S 6,T 27,E1 -4400,E2 0,E3 0,E4 0,E5 0,E6 0}
DECL E6POS XP600={X 2819.18,Y 6683.79,Z 426.69,A 119.858,B 26.385,C -0.518,S 6,T 27,E1 -4400,E2 0,E3 0,E4 0,E5 0,E6 0}
DECL E6POS XP605={X 2875.42,Y 6710.83,Z 427.72,A 88.821,B 26.626,C -3.385,S 6,T 27,E1 -4400,E2 0,E3 0,E4 0,E5 0,E6 0}
DECL E6POS XMP81004302={X 2910.66,Y 6710.89,Z 429.29,A 88.821,B 26.626,C -3.385,S 6,T 27,E1 -4400,E2 0,E3 0,E4 0,E5 0,E6 0}
DECL E6POS XP610={X 2945.92,Y 6710.95,Z 430.87,A 88.821,B 26.626,C -3.385,S 6,T 27,E1 -4400,E2 0,E3 0,E4 0,E5 0,E6 0}
DECL E6POS XP615={X 2965.36,Y 6716.15,Z 431.62,A 119.891,B 26.387,C -0.391,S 6,T 27,E1 -4400,E2 0,E3 0,E4 0,E5 0,E6 0}
DECL E6POS XMP81004303={X 2991.33,Y 6731.18,Z 431.8,A 119.891,B 26.387,C -0.391,S 6,T 27,E1 -4400,E2 0,E3 0,E4 0,E5 0,E6 0}
DECL E6POS XP620={X 3017.29,Y 6746.21,Z 431.99,A 119.891,B 26.387,C -0.391,S 6,T 27,E1 -4400,E2 0,E3 0,E4 0,E5 0,E6 0}
DECL E6POS XP625={X 3029.69,Y 6760.63,Z 431.86,A 148.742,B 26.319,C 2.101,S 6,T 27,E1 -4400,E2 0,E3 0,E4 0,E5 0,E6 0}
DECL E6POS XMP81004304={X 3046.46,Y 6788.09,Z 431.02,A 148.742,B 26.319,C 2.101,S 6,T 27,E1 -4400,E2 0,E3 0,E4 0,E5 0,E6 0}
DECL E6POS XP630={X 3063.25,Y 6815.55,Z 430.18,A 148.742,B 26.319,C 2.101,S 6,T 27,E1 -4400,E2 0,E3 0,E4 0,E5 0,E6 0}
DECL E6POS XP635={X 3109.29,Y 6851.55,Z 430.26,A 119.721,B 26.339,C -1.53,S 6,T 27,E1 -4400,E2 0,E3 0,E4 0,E5 0,E6 0}
DECL E6POS XMP81004305={X 3139.97,Y 6869.3,Z 430.62,A 119.721,B 26.339,C -1.53,S 6,T 27,E1 -4400,E2 0,E3 0,E4 0,E5 0,E6 0}
DECL E6POS XP640={X 3170.56,Y 6886.98,Z 430.98,A 119.721,B 26.339,C -1.53,S 6,T 27,E1 -4400,E2 0,E3 0,E4 0,E5 0,E6 0}
DECL E6POS XP645={X 3114.74,Y 6843.38,Z 335.62,A 118.862,B 26.347,C -2.735,S 6,T 27,E1 -4400,E2 0,E3 0,E4 0,E5 0,E6 0}
DECL E6POS XP650={X 1805.03,Y 4986.39,Z 307.88,A 119.13,B 26.379,C -2.209,S 6,T 27,E1 -3400,E2 0,E3 0,E4 0,E5 0,E6 0}
DECL E6POS XP655={X 1933.47,Y 5060.66,Z 471.59,A 119.825,B 26.375,C -0.228,S 6,T 27,E1 -3400,E2 0,E3 0,E4 0,E5 0,E6 0}
DECL E6POS XMP80603301={X 1972.44,Y 5083.19,Z 471.91,A 119.825,B 26.375,C -0.228,S 6,T 27,E1 -3400,E2 0,E3 0,E4 0,E5 0,E6 0}
DECL E6POS XP660={X 2010.22,Y 5105.03,Z 472.22,A 119.825,B 26.375,C -0.228,S 6,T 27,E1 -3400,E2 0,E3 0,E4 0,E5 0,E6 0}
DECL E6POS XP665={X 2069.74,Y 5129.71,Z 472.9,A 90.046,B 27.074,C -1.927,S 6,T 27,E1 -3400,E2 0,E3 0,E4 0,E5 0,E6 0}
DECL E6POS XMP80603302={X 2102.23,Y 5130.24,Z 473.87,A 90.046,B 27.074,C -1.927,S 6,T 27,E1 -3400,E2 0,E3 0,E4 0,E5 0,E6 0}
DECL E6POS XP670={X 2134.71,Y 5130.77,Z 474.84,A 90.046,B 27.074,C -1.927,S 6,T 27,E1 -3400,E2 0,E3 0,E4 0,E5 0,E6 0}
DECL E6POS XP675={X 2136.33,Y 5133.2,Z 474.76,A 119.806,B 26.383,C 0.305,S 6,T 27,E1 -3400,E2 0,E3 0,E4 0,E5 0,E6 0}
DECL E6POS XMP80603303={X 2163.7,Y 5148.65,Z 474.91,A 119.806,B 26.383,C 0.305,S 6,T 27,E1 -3400,E2 0,E3 0,E4 0,E5 0,E6 0}
DECL E6POS XP680={X 2191.05,Y 5164.1,Z 475.08,A 119.806,B 26.383,C 0.305,S 6,T 27,E1 -3400,E2 0,E3 0,E4 0,E5 0,E6 0}
DECL E6POS XP685={X 2193.99,Y 5167.66,Z 475.06,A 149.67,B 26.983,C 1.02,S 6,T 27,E1 -3400,E2 0,E3 0,E4 0,E5 0,E6 0}
DECL E6POS XMP80603304={X 2210.63,Y 5195.58,Z 474.55,A 149.67,B 26.983,C 1.02,S 6,T 27,E1 -3400,E2 0,E3 0,E4 0,E5 0,E6 0}
DECL E6POS XP690={X 2227.27,Y 5223.49,Z 474.03,A 149.67,B 26.983,C 1.02,S 6,T 27,E1 -3400,E2 0,E3 0,E4 0,E5 0,E6 0}
DECL E6POS XP695={X 2265.52,Y 5199.04,Z 384.94,A 149.67,B 26.983,C 1.02,S 6,T 27,E1 -3400,E2 0,E3 0,E4 0,E5 0,E6 0}
DECL E6POS XP700={X 2316.52,Y 5282.09,Z 474.73,A 120.616,B 26.387,C 0.919,S 6,T 27,E1 -3400,E2 0,E3 0,E4 0,E5 0,E6 0}
DECL E6POS XMP80603305={X 2355.32,Y 5304.51,Z 474.97,A 120.671,B 26.374,C -0.174,S 6,T 27,E1 -3400,E2 0,E3 0,E4 0,E5 0,E6 0}
DECL E6POS XP705={X 2394.13,Y 5326.95,Z 475.21,A 120.616,B 26.387,C 0.919,S 6,T 27,E1 -3400,E2 0,E3 0,E4 0,E5 0,E6 0}
DECL E6POS XP710={X 2375.66,Y 5321.53,Z 385.28,A 120.282,B 26.391,C 0.383,S 6,T 27,E1 -3400,E2 0,E3 0,E4 0,E5 0,E6 0}
DECL E6POS XP715={X 2273.8,Y 5535.06,Z 370.18,A 120.125,B 26.392,C 0.028,S 6,T 27,E1 -3400,E2 0,E3 0,E4 0,E5 0,E6 0}
DECL E6POS XP720={X 2367.63,Y 5589.23,Z 464.45,A 119.769,B 26.362,C 0.557,S 6,T 27,E1 -3400,E2 0,E3 0,E4 0,E5 0,E6 0}
DECL E6POS XMP80703305={X 2329.01,Y 5566.9,Z 464.1,A 119.769,B 26.362,C 0.557,S 6,T 27,E1 -3400,E2 0,E3 0,E4 0,E5 0,E6 0}
DECL E6POS XP725={X 2290.65,Y 5544.72,Z 463.75,A 119.769,B 26.362,C 0.557,S 6,T 27,E1 -3400,E2 0,E3 0,E4 0,E5 0,E6 0}
DECL E6POS XP730={X 2204.04,Y 5487.26,Z 462.96,A 146.531,B 28.507,C 1.754,S 6,T 27,E1 -3400,E2 0,E3 0,E4 0,E5 0,E6 0}
DECL E6POS XMP80703304={X 2186.03,Y 5459.29,Z 463.53,A 146.531,B 28.507,C 1.754,S 6,T 27,E1 -3400,E2 0,E3 0,E4 0,E5 0,E6 0}
DECL E6POS XP735={X 2168,Y 5431.33,Z 464.11,A 146.531,B 28.507,C 1.754,S 6,T 27,E1 -3400,E2 0,E3 0,E4 0,E5 0,E6 0}
DECL E6POS XP740={X 2163.01,Y 5423.68,Z 463.99,A 119.938,B 26.383,C 0.704,S 6,T 27,E1 -3400,E2 0,E3 0,E4 0,E5 0,E6 0}
DECL E6POS XMP80703303={X 2137.06,Y 5408.99,Z 464.01,A 119.938,B 26.383,C -0.303,S 6,T 27,E1 -3400,E2 0,E3 0,E4 0,E5 0,E6 0}
DECL E6POS XP745={X 2111.11,Y 5394.31,Z 464.02,A 119.938,B 26.383,C 0.704,S 6,T 27,E1 -3400,E2 0,E3 0,E4 0,E5 0,E6 0}
DECL E6POS XP750={X 2108.7,Y 5390.69,Z 463.84,A 89.577,B 26.579,C -2.246,S 6,T 27,E1 -3400,E2 0,E3 0,E4 0,E5 0,E6 0}
DECL E6POS XMP80703302={X 2071.53,Y 5390.62,Z 462.54,A 89.577,B 26.579,C -2.246,S 6,T 27,E1 -3400,E2 0,E3 0,E4 0,E5 0,E6 0}
DECL E6POS XP755={X 2034.35,Y 5390.54,Z 461.24,A 89.577,B 26.579,C -2.246,S 6,T 27,E1 -3400,E2 0,E3 0,E4 0,E5 0,E6 0}
DECL E6POS XP760={X 1976.65,Y 5363.18,Z 460.44,A 119.939,B 26.387,C 0.676,S 6,T 27,E1 -3400,E2 0,E3 0,E4 0,E5 0,E6 0}
DECL E6POS XMP80703301={X 1936.07,Y 5339.71,Z 460,A 119.939,B 26.387,C -0.527,S 6,T 27,E1 -3400,E2 0,E3 0,E4 0,E5 0,E6 0}
DECL E6POS XP765={X 1895.57,Y 5316.3,Z 459.57,A 119.939,B 26.387,C 0.676,S 6,T 27,E1 -3400,E2 0,E3 0,E4 0,E5 0,E6 0}
DECL E6POS XP770={X 1814.09,Y 5258.92,Z 386.08,A 120.052,B 26.392,C -0.136,S 6,T 27,E1 -3400,E2 0,E3 0,E4 0,E5 0,E6 0}
DECL E6POS XP775={X 1827.54,Y 5554.69,Z 371.02,A 120.392,B 26.39,C 0.63,S 6,T 27,E1 -3400,E2 0,E3 0,E4 0,E5 0,E6 0}
DECL E6POS XP780={X 1882.83,Y 5586.59,Z 445.81,A 119.858,B 26.385,C -0.518,S 6,T 27,E1 -3400,E2 0,E3 0,E4 0,E5 0,E6 0}
DECL E6POS XMP80803301={X 1917.44,Y 5606.61,Z 446.25,A 119.858,B 26.385,C -0.518,S 6,T 27,E1 -3400,E2 0,E3 0,E4 0,E5 0,E6 0}
DECL E6POS XP785={X 1952.05,Y 5626.63,Z 446.7,A 119.858,B 26.385,C -0.518,S 6,T 27,E1 -3400,E2 0,E3 0,E4 0,E5 0,E6 0}
DECL E6POS XP790={X 2012.09,Y 5653.83,Z 447.81,A 89.3,B 26.437,C -3.045,S 6,T 27,E1 -3400,E2 0,E3 0,E4 0,E5 0,E6 0}
DECL E6POS XMP80803302={X 2047.34,Y 5654.09,Z 449.2,A 89.3,B 26.437,C -3.045,S 6,T 27,E1 -3400,E2 0,E3 0,E4 0,E5 0,E6 0}
DECL E6POS XP795={X 2082.6,Y 5654.36,Z 450.58,A 89.3,B 26.437,C -3.045,S 6,T 27,E1 -3400,E2 0,E3 0,E4 0,E5 0,E6 0}
DECL E6POS XP800={X 2082.25,Y 5656.27,Z 450.63,A 119.891,B 26.387,C -0.391,S 6,T 27,E1 -3400,E2 0,E3 0,E4 0,E5 0,E6 0}
DECL E6POS XMP80803303={X 2108.21,Y 5671.31,Z 450.81,A 119.891,B 26.387,C -0.391,S 6,T 27,E1 -3400,E2 0,E3 0,E4 0,E5 0,E6 0}
DECL E6POS XP805={X 2134.17,Y 5686.34,Z 450.99,A 119.891,B 26.387,C -0.391,S 6,T 27,E1 -3400,E2 0,E3 0,E4 0,E5 0,E6 0}
DECL E6POS XP810={X 2140.9,Y 5690.09,Z 451.16,A 150.971,B 25.936,C 1.873,S 6,T 27,E1 -3400,E2 0,E3 0,E4 0,E5 0,E6 0}
DECL E6POS XMP80803304={X 2156.56,Y 5718.22,Z 450.43,A 150.971,B 25.936,C 1.873,S 6,T 27,E1 -3400,E2 0,E3 0,E4 0,E5 0,E6 0}
DECL E6POS XP815={X 2172.21,Y 5746.34,Z 449.7,A 150.971,B 25.936,C 1.873,S 6,T 27,E1 -3400,E2 0,E3 0,E4 0,E5 0,E6 0}
DECL E6POS XP820={X 2245.48,Y 5698.2,Z 269.94,A 150.971,B 25.936,C 1.873,S 6,T 27,E1 -3400,E2 0,E3 0,E4 0,E5 0,E6 0}
DECL E6POS XP825={X 2265.99,Y 5808.17,Z 450.68,A 119.388,B 26.376,C -1.649,S 6,T 27,E1 -3400,E2 0,E3 0,E4 0,E5 0,E6 0}
DECL E6POS XMP80803305={X 2296.6,Y 5825.87,Z 451,A 120.012,B 26.368,C -0.271,S 6,T 27,E1 -3400,E2 0,E3 0,E4 0,E5 0,E6 0}
DECL E6POS XP830={X 2327.28,Y 5843.61,Z 451.32,A 119.388,B 26.376,C -1.649,S 6,T 27,E1 -3400,E2 0,E3 0,E4 0,E5 0,E6 0}
DECL E6POS XP835={X 2272.69,Y 5820.71,Z 354.62,A 118.862,B 26.347,C -2.735,S 6,T 27,E1 -3400,E2 0,E3 0,E4 0,E5 0,E6 0}
DECL E6POS XP840={X 2217.15,Y 6057.82,Z 342.13,A 120.125,B 26.392,C 0.028,S 6,T 27,E1 -3400,E2 0,E3 0,E4 0,E5 0,E6 0}
DECL E6POS XP845={X 2311.19,Y 6112.11,Z 436.51,A 119.935,B 26.359,C -2.452,S 6,T 27,E1 -3400,E2 0,E3 0,E4 0,E5 0,E6 0}
DECL E6POS XMP80903305={X 2272.35,Y 6089.65,Z 436.04,A 119.935,B 26.359,C -2.452,S 6,T 27,E1 -3400,E2 0,E3 0,E4 0,E5 0,E6 0}
DECL E6POS XP850={X 2233.89,Y 6067.41,Z 435.58,A 119.935,B 26.359,C -2.452,S 6,T 27,E1 -3400,E2 0,E3 0,E4 0,E5 0,E6 0}
DECL E6POS XP855={X 2259.73,Y 6031.11,Z 346.06,A 119.935,B 26.359,C -2.452,S 6,T 27,E1 -3400,E2 0,E3 0,E4 0,E5 0,E6 0}
DECL E6POS XP860={X 2149.48,Y 6012.19,Z 434.8,A 149.383,B 28.38,C 1.699,S 6,T 27,E1 -3400,E2 0,E3 0,E4 0,E5 0,E6 0}
DECL E6POS XMP80903304={X 2132.9,Y 5983.35,Z 435.36,A 149.383,B 28.38,C 1.699,S 6,T 27,E1 -3400,E2 0,E3 0,E4 0,E5 0,E6 0}
DECL E6POS XP865={X 2116.31,Y 5954.52,Z 435.9,A 149.383,B 28.38,C 1.699,S 6,T 27,E1 -3400,E2 0,E3 0,E4 0,E5 0,E6 0}
DECL E6POS XP870={X 2110.56,Y 5948.18,Z 436.42,A 119.938,B 26.383,C -0.339,S 6,T 27,E1 -3400,E2 0,E3 0,E4 0,E5 0,E6 0}
DECL E6POS XMP80903303={X 2084.74,Y 5933.28,Z 435.96,A 119.938,B 26.383,C -0.339,S 6,T 27,E1 -3400,E2 0,E3 0,E4 0,E5 0,E6 0}
DECL E6POS XP875={X 2058.92,Y 5918.38,Z 435.48,A 119.938,B 26.383,C -0.339,S 6,T 27,E1 -3400,E2 0,E3 0,E4 0,E5 0,E6 0}
DECL E6POS XP880={X 2056.14,Y 5915.24,Z 435.65,A 90.611,B 27.029,C -2.856,S 6,T 27,E1 -3400,E2 0,E3 0,E4 0,E5 0,E6 0}
DECL E6POS XMP80903302={X 2019,Y 5914.31,Z 434,A 90.611,B 27.029,C -2.856,S 6,T 27,E1 -3400,E2 0,E3 0,E4 0,E5 0,E6 0}
DECL E6POS XP885={X 1981.85,Y 5913.36,Z 432.34,A 90.611,B 27.029,C -2.856,S 6,T 27,E1 -3400,E2 0,E3 0,E4 0,E5 0,E6 0}
DECL E6POS XP890={X 1930.37,Y 5891.87,Z 431.2,A 119.939,B 26.387,C -0.612,S 6,T 27,E1 -3400,E2 0,E3 0,E4 0,E5 0,E6 0}
DECL E6POS XMP80903301={X 1889.44,Y 5868.19,Z 430.49,A 119.939,B 26.387,C -0.612,S 6,T 27,E1 -3400,E2 0,E3 0,E4 0,E5 0,E6 0}
DECL E6POS XP895={X 1847.73,Y 5844.07,Z 429.98,A 119.939,B 26.387,C -0.612,S 6,T 27,E1 -3400,E2 0,E3 0,E4 0,E5 0,E6 0}
DECL E6POS XP900={X 1789.26,Y 5790.56,Z 355.47,A 120.052,B 26.392,C -0.136,S 6,T 27,E1 -3400,E2 0,E3 0,E4 0,E5 0,E6 0}
DECL E6POS XP905={X 1777.43,Y 6081.38,Z 338.12,A 120.392,B 26.39,C 0.63,S 6,T 27,E1 -3400,E2 0,E3 0,E4 0,E5 0,E6 0}
DECL E6POS XP910={X 1832.79,Y 6113.3,Z 412.8,A 119.83,B 29.055,C -0.53,S 6,T 27,E1 -3400,E2 0,E3 0,E4 0,E5 0,E6 0}
DECL E6POS XMP81003301={X 1867.34,Y 6133.29,Z 413.36,A 119.858,B 26.385,C -0.518,S 6,T 27,E1 -3400,E2 0,E3 0,E4 0,E5 0,E6 0}
DECL E6POS XP915={X 1901.95,Y 6153.31,Z 413.93,A 119.858,B 26.385,C -0.518,S 6,T 27,E1 -3400,E2 0,E3 0,E4 0,E5 0,E6 0}
DECL E6POS XP920={X 1961.2,Y 6180.12,Z 415.28,A 89.308,B 26.533,C -3.729,S 6,T 27,E1 -3400,E2 0,E3 0,E4 0,E5 0,E6 0}
DECL E6POS XMP81003302={X 1996.44,Y 6180.56,Z 417.04,A 89.308,B 26.533,C -3.729,S 6,T 27,E1 -3400,E2 0,E3 0,E4 0,E5 0,E6 0}
DECL E6POS XP925={X 2031.68,Y 6181.02,Z 418.81,A 89.308,B 26.533,C -3.729,S 6,T 27,E1 -3400,E2 0,E3 0,E4 0,E5 0,E6 0}
DECL E6POS XP930={X 2028.66,Y 6182.76,Z 418.76,A 119.891,B 26.387,C -0.391,S 6,T 27,E1 -3400,E2 0,E3 0,E4 0,E5 0,E6 0}
DECL E6POS XMP81003303={X 2054.62,Y 6197.79,Z 418.93,A 119.891,B 26.387,C -0.391,S 6,T 27,E1 -3400,E2 0,E3 0,E4 0,E5 0,E6 0}
DECL E6POS XP935={X 2080.59,Y 6212.82,Z 419.12,A 119.891,B 26.387,C -0.391,S 6,T 27,E1 -3400,E2 0,E3 0,E4 0,E5 0,E6 0}
DECL E6POS XP940={X 2083.26,Y 6212.87,Z 419.41,A 148.121,B 25.571,C 2.018,S 6,T 27,E1 -3400,E2 0,E3 0,E4 0,E5 0,E6 0}
DECL E6POS XMP81003304={X 2100.32,Y 6240.18,Z 418.63,A 148.121,B 25.571,C 2.018,S 6,T 27,E1 -3400,E2 0,E3 0,E4 0,E5 0,E6 0}
DECL E6POS XP945={X 2117.37,Y 6267.47,Z 417.82,A 148.121,B 25.571,C 2.018,S 6,T 27,E1 -3400,E2 0,E3 0,E4 0,E5 0,E6 0}
DECL E6POS XP950={X 2202.8,Y 6327.34,Z 418.73,A 119.803,B 27.927,C -2.851,S 6,T 27,E1 -3400,E2 0,E3 0,E4 0,E5 0,E6 0}
DECL E6POS XMP81003305={X 2233.5,Y 6345.1,Z 419.17,A 119.891,B 26.343,C -2.811,S 6,T 27,E1 -3400,E2 0,E3 0,E4 0,E5 0,E6 0}
DECL E6POS XP955={X 2264.23,Y 6362.87,Z 419.61,A 119.891,B 26.343,C -2.811,S 6,T 27,E1 -3400,E2 0,E3 0,E4 0,E5 0,E6 0}
DECL E6POS XP960={X 1983.03,Y 6201.39,Z 199.44,A 114.959,B 27.929,C -13.063,S 6,T 27,E1 -3400,E2 0,E3 0,E4 0,E5 0,E6 0}
DECL E6POS XP965={X 789.78,Y 4625.14,Z 63.72,A 125.39,B 29.397,C 0.189,S 6,T 27,E1 -2400,E2 0,E3 0,E4 0,E5 0,E6 0}
DECL E6POS XP970={X 879.6,Y 4451.58,Z 460.66,A 119.825,B 26.375,C -0.228,S 6,T 27,E1 -2400,E2 0,E3 0,E4 0,E5 0,E6 0}
DECL E6POS XMP80602301={X 917.49,Y 4473.26,Z 461.26,A 119.825,B 26.375,C -0.228,S 6,T 27,E1 -2400,E2 0,E3 0,E4 0,E5 0,E6 0}
DECL E6POS XP975={X 955.34,Y 4495.14,Z 461.63,A 119.825,B 26.375,C -0.228,S 6,T 27,E1 -2400,E2 0,E3 0,E4 0,E5 0,E6 0}
DECL E6POS XP980={X 1009.02,Y 4519.57,Z 462.42,A 89.039,B 26.935,C -2.255,S 6,T 27,E1 -2400,E2 0,E3 0,E4 0,E5 0,E6 0}
DECL E6POS XMP80602302={X 1041.49,Y 4519.61,Z 463.56,A 89.039,B 26.935,C -2.255,S 6,T 27,E1 -2400,E2 0,E3 0,E4 0,E5 0,E6 0}
DECL E6POS XP985={X 1073.97,Y 4519.64,Z 464.71,A 89.039,B 26.935,C -2.255,S 6,T 27,E1 -2400,E2 0,E3 0,E4 0,E5 0,E6 0}
DECL E6POS XP990={X 1082.02,Y 4522.8,Z 464.95,A 119.806,B 26.383,C 0.305,S 6,T 27,E1 -2400,E2 0,E3 0,E4 0,E5 0,E6 0}
DECL E6POS XMP80602303={X 1109.38,Y 4538.24,Z 465.12,A 119.806,B 26.383,C 0.305,S 6,T 27,E1 -2400,E2 0,E3 0,E4 0,E5 0,E6 0}
DECL E6POS XP995={X 1136.72,Y 4553.69,Z 465.27,A 119.806,B 26.383,C 0.305,S 6,T 27,E1 -2400,E2 0,E3 0,E4 0,E5 0,E6 0}
DECL E6POS XP1000={X 1141.33,Y 4557.17,Z 465.47,A 148.3,B 27.229,C 1.417,S 6,T 27,E1 -2400,E2 0,E3 0,E4 0,E5 0,E6 0}
DECL E6POS XMP80602304={X 1158.72,Y 4584.62,Z 464.75,A 148.3,B 27.229,C 1.417,S 6,T 27,E1 -2400,E2 0,E3 0,E4 0,E5 0,E6 0}
DECL E6POS XP1005={X 1176.11,Y 4612.06,Z 464.03,A 148.3,B 27.229,C 1.417,S 6,T 27,E1 -2400,E2 0,E3 0,E4 0,E5 0,E6 0}
DECL E6POS XP1010={X 1251.34,Y 4559.78,Z 286.25,A 148.3,B 27.229,C 1.417,S 6,T 27,E1 -2400,E2 0,E3 0,E4 0,E5 0,E6 0}
DECL E6POS XP1015={X 1305.57,Y 4697.52,Z 466.28,A 120.616,B 26.387,C 0.919,S 6,T 27,E1 -2400,E2 0,E3 0,E4 0,E5 0,E6 0}
DECL E6POS XMP80602305={X 1344.29,Y 4720.08,Z 466.71,A 120.671,B 26.374,C -0.174,S 6,T 27,E1 -2400,E2 0,E3 0,E4 0,E5 0,E6 0}
DECL E6POS XP1020={X 1383.13,Y 4742.53,Z 467.03,A 120.616,B 26.387,C 0.919,S 6,T 27,E1 -2400,E2 0,E3 0,E4 0,E5 0,E6 0}
DECL E6POS XP1025={X 1355.15,Y 4725.82,Z 376.62,A 120.282,B 26.391,C 0.383,S 6,T 27,E1 -2400,E2 0,E3 0,E4 0,E5 0,E6 0}
DECL E6POS XP1030={X 1273.27,Y 4956.58,Z 359.51,A 120.125,B 26.392,C 0.028,S 6,T 27,E1 -2400,E2 0,E3 0,E4 0,E5 0,E6 0}
DECL E6POS XP1035={X 1366.87,Y 5010.61,Z 453.85,A 119.769,B 26.362,C -1.978,S 6,T 27,E1 -2400,E2 0,E3 0,E4 0,E5 0,E6 0}
DECL E6POS XMP80702305={X 1328.48,Y 4988.41,Z 453.44,A 119.769,B 26.362,C -1.978,S 6,T 27,E1 -2400,E2 0,E3 0,E4 0,E5 0,E6 0}
DECL E6POS XP1040={X 1290.16,Y 4966.25,Z 453.03,A 119.769,B 26.362,C -1.978,S 6,T 27,E1 -2400,E2 0,E3 0,E4 0,E5 0,E6 0}
DECL E6POS XP1045={X 1315.19,Y 4929.44,Z 363.49,A 119.769,B 26.362,C -1.978,S 6,T 27,E1 -2400,E2 0,E3 0,E4 0,E5 0,E6 0}
DECL E6POS XP1050={X 1198.38,Y 4855.98,Z 362.53,A 147.556,B 28.638,C 2.089,S 6,T 27,E1 -2400,E2 0,E3 0,E4 0,E5 0,E6 0}
DECL E6POS XP1055={X 1159.92,Y 4884.75,Z 450.24,A 147.556,B 28.638,C 2.089,S 6,T 27,E1 -2400,E2 0,E3 0,E4 0,E5 0,E6 0}
DECL E6POS XMP80702304={X 1142.33,Y 4856.5,Z 450.98,A 147.556,B 28.638,C 2.089,S 6,T 27,E1 -2400,E2 0,E3 0,E4 0,E5 0,E6 0}
DECL E6POS XP1060={X 1124.74,Y 4828.28,Z 451.73,A 147.556,B 28.638,C 2.089,S 6,T 27,E1 -2400,E2 0,E3 0,E4 0,E5 0,E6 0}
DECL E6POS XP1065={X 1119.4,Y 4824.97,Z 451.71,A 119.938,B 26.383,C -0.096,S 6,T 27,E1 -2400,E2 0,E3 0,E4 0,E5 0,E6 0}
DECL E6POS XMP80702303={X 1093.55,Y 4810.13,Z 451.35,A 119.938,B 26.383,C -1.103,S 6,T 27,E1 -2400,E2 0,E3 0,E4 0,E5 0,E6 0}
DECL E6POS XP1070={X 1067.7,Y 4795.26,Z 451.01,A 119.938,B 26.383,C -0.096,S 6,T 27,E1 -2400,E2 0,E3 0,E4 0,E5 0,E6 0}
DECL E6POS XP1075={X 1068.32,Y 4790.59,Z 451.29,A 88.903,B 26.4,C -2.65,S 6,T 27,E1 -2400,E2 0,E3 0,E4 0,E5 0,E6 0}
DECL E6POS XMP80702302={X 1031.14,Y 4790.83,Z 449.75,A 88.903,B 26.4,C -2.65,S 6,T 27,E1 -2400,E2 0,E3 0,E4 0,E5 0,E6 0}
DECL E6POS XP1080={X 993.98,Y 4791.09,Z 448.2,A 88.903,B 26.4,C -2.65,S 6,T 27,E1 -2400,E2 0,E3 0,E4 0,E5 0,E6 0}
DECL E6POS XP1085={X 943.22,Y 4765.56,Z 447.41,A 119.939,B 26.387,C 0.676,S 6,T 27,E1 -2400,E2 0,E3 0,E4 0,E5 0,E6 0}
DECL E6POS XMP80702301={X 902.69,Y 4742.12,Z 446.9,A 119.939,B 26.387,C -0.527,S 6,T 27,E1 -2400,E2 0,E3 0,E4 0,E5 0,E6 0}
DECL E6POS XP1090={X 862.71,Y 4719,Z 446.4,A 119.939,B 26.387,C 0.676,S 6,T 27,E1 -2400,E2 0,E3 0,E4 0,E5 0,E6 0}
DECL E6POS XP1095={X 993,Y 4753.65,Z 304.33,A 121.14,B 25.686,C 5.12,S 6,T 27,E1 -2400,E2 0,E3 0,E4 0,E5 0,E6 0}
DECL E6POS XP1100={X 801.43,Y 4961.21,Z 355.78,A 120.392,B 26.39,C 0.63,S 6,T 27,E1 -2400,E2 0,E3 0,E4 0,E5 0,E6 0}
DECL E6POS XP1105={X 856.75,Y 4993.11,Z 430.49,A 119.858,B 26.385,C -0.518,S 6,T 27,E1 -2400,E2 0,E3 0,E4 0,E5 0,E6 0}
DECL E6POS XMP80802301={X 891.34,Y 5013.12,Z 431.01,A 119.858,B 26.385,C -0.518,S 6,T 27,E1 -2400,E2 0,E3 0,E4 0,E5 0,E6 0}
DECL E6POS XP1110={X 925.98,Y 5033.15,Z 431.52,A 119.858,B 26.385,C -0.518,S 6,T 27,E1 -2400,E2 0,E3 0,E4 0,E5 0,E6 0}
DECL E6POS XP1115={X 978.55,Y 5058.7,Z 432.53,A 89.715,B 26.641,C -3.462,S 6,T 27,E1 -2400,E2 0,E3 0,E4 0,E5 0,E6 0}
DECL E6POS XMP80802302={X 1013.8,Y 5059.33,Z 434.14,A 89.715,B 26.641,C -3.462,S 6,T 27,E1 -2400,E2 0,E3 0,E4 0,E5 0,E6 0}
DECL E6POS XP1120={X 1049.02,Y 5059.97,Z 435.75,A 89.715,B 26.641,C -3.462,S 6,T 27,E1 -2400,E2 0,E3 0,E4 0,E5 0,E6 0}
DECL E6POS XP1125={X 1051.22,Y 5063.8,Z 435.63,A 119.891,B 26.387,C -0.791,S 6,T 27,E1 -2400,E2 0,E3 0,E4 0,E5 0,E6 0}
DECL E6POS XMP80802303={X 1077.14,Y 5078.9,Z 436,A 119.891,B 26.387,C -0.791,S 6,T 27,E1 -2400,E2 0,E3 0,E4 0,E5 0,E6 0}
DECL E6POS XP1130={X 1103.06,Y 5094.01,Z 436.37,A 119.891,B 26.387,C -0.791,S 6,T 27,E1 -2400,E2 0,E3 0,E4 0,E5 0,E6 0}
DECL E6POS XP1135={X 1107.26,Y 5097.53,Z 436.3,A 146.118,B 26.454,C 1.689,S 6,T 27,E1 -2400,E2 0,E3 0,E4 0,E5 0,E6 0}
DECL E6POS XMP80802304={X 1125.2,Y 5124.27,Z 435.66,A 146.118,B 26.454,C 1.689,S 6,T 27,E1 -2400,E2 0,E3 0,E4 0,E5 0,E6 0}
DECL E6POS XP1140={X 1143.13,Y 5150.99,Z 435.02,A 146.118,B 26.454,C 1.689,S 6,T 27,E1 -2400,E2 0,E3 0,E4 0,E5 0,E6 0}
DECL E6POS XP1145={X 1178.46,Y 5123.72,Z 345.53,A 146.118,B 26.454,C 1.689,S 6,T 27,E1 -2400,E2 0,E3 0,E4 0,E5 0,E6 0}
DECL E6POS XP1150={X 1271.91,Y 5233.3,Z 437.9,A 118.895,B 26.319,C -3.1,S 6,T 27,E1 -2400,E2 0,E3 0,E4 0,E5 0,E6 0}
DECL E6POS XMP80802305={X 1302.53,Y 5251.01,Z 438.3,A 118.895,B 26.319,C -3.1,S 6,T 27,E1 -2400,E2 0,E3 0,E4 0,E5 0,E6 0}
DECL E6POS XP1155={X 1333.58,Y 5268.97,Z 438.7,A 118.895,B 26.319,C -3.1,S 6,T 27,E1 -2400,E2 0,E3 0,E4 0,E5 0,E6 0}
DECL E6POS XP1160={X 1268.56,Y 5234.23,Z 341.34,A 118.862,B 26.347,C -2.735,S 6,T 27,E1 -2400,E2 0,E3 0,E4 0,E5 0,E6 0}
DECL E6POS XP1165={X 1238.07,Y 5491.55,Z 327.85,A 120.125,B 26.392,C 0.028,S 6,T 27,E1 -2400,E2 0,E3 0,E4 0,E5 0,E6 0}
DECL E6POS XP1170={X 1331.81,Y 5545.66,Z 422.35,A 118.804,B 26.311,C -2.953,S 6,T 27,E1 -2400,E2 0,E3 0,E4 0,E5 0,E6 0}
DECL E6POS XMP80902305={X 1293.28,Y 5523.38,Z 421.78,A 118.804,B 26.311,C -2.953,S 6,T 27,E1 -2400,E2 0,E3 0,E4 0,E5 0,E6 0}
DECL E6POS XP1175={X 1255.15,Y 5501.32,Z 421.21,A 118.804,B 26.311,C -2.953,S 6,T 27,E1 -2400,E2 0,E3 0,E4 0,E5 0,E6 0}
DECL E6POS XP1180={X 1126.55,Y 5420.59,Z 417.97,A 146.649,B 28.685,C 2.262,S 6,T 27,E1 -2400,E2 0,E3 0,E4 0,E5 0,E6 0}
DECL E6POS XMP80902304={X 1108.46,Y 5392.67,Z 418.8,A 146.649,B 28.685,C 2.262,S 6,T 27,E1 -2400,E2 0,E3 0,E4 0,E5 0,E6 0}
DECL E6POS XP1185={X 1090.39,Y 5364.75,Z 419.65,A 146.649,B 28.685,C 2.262,S 6,T 27,E1 -2400,E2 0,E3 0,E4 0,E5 0,E6 0}
DECL E6POS XP1190={X 1084.81,Y 5361.36,Z 419.59,A 119.938,B 26.383,C -0.339,S 6,T 27,E1 -2400,E2 0,E3 0,E4 0,E5 0,E6 0}
DECL E6POS XMP80902303={X 1058.99,Y 5346.45,Z 419.12,A 119.938,B 26.383,C -0.339,S 6,T 27,E1 -2400,E2 0,E3 0,E4 0,E5 0,E6 0}
DECL E6POS XP1195={X 1033.16,Y 5331.56,Z 418.65,A 119.938,B 26.383,C -0.339,S 6,T 27,E1 -2400,E2 0,E3 0,E4 0,E5 0,E6 0}
DECL E6POS XP1200={X 1033.02,Y 5327.56,Z 418.94,A 89.499,B 26.88,C -3.26,S 6,T 27,E1 -2400,E2 0,E3 0,E4 0,E5 0,E6 0}
DECL E6POS XMP80902302={X 995.86,Y 5327.23,Z 417.03,A 89.499,B 26.88,C -3.26,S 6,T 27,E1 -2400,E2 0,E3 0,E4 0,E5 0,E6 0}
DECL E6POS XP1205={X 958.72,Y 5326.9,Z 415.15,A 89.499,B 26.88,C -3.26,S 6,T 27,E1 -2400,E2 0,E3 0,E4 0,E5 0,E6 0}
DECL E6POS XP1210={X 911.43,Y 5302.42,Z 414.21,A 119.939,B 26.387,C -0.612,S 6,T 27,E1 -2400,E2 0,E3 0,E4 0,E5 0,E6 0}
DECL E6POS XMP80902301={X 870.82,Y 5278.93,Z 413.53,A 119.939,B 26.387,C -0.612,S 6,T 27,E1 -2400,E2 0,E3 0,E4 0,E5 0,E6 0}
DECL E6POS XP1215={X 830.21,Y 5255.44,Z 412.85,A 119.939,B 26.387,C -0.612,S 6,T 27,E1 -2400,E2 0,E3 0,E4 0,E5 0,E6 0}
DECL E6POS XP1220={X 907.33,Y 5264.01,Z 290,A 120.933,B 26.371,C 1.625,S 6,T 27,E1 -2400,E2 0,E3 0,E4 0,E5 0,E6 0}
DECL E6POS XP1225={X 772.33,Y 5499.84,Z 319.68,A 120.392,B 26.39,C 0.63,S 6,T 27,E1 -2400,E2 0,E3 0,E4 0,E5 0,E6 0}
DECL E6POS XP1230={X 827.65,Y 5531.75,Z 394.27,A 119.819,B 30.054,C -0.536,S 6,T 27,E1 -2400,E2 0,E3 0,E4 0,E5 0,E6 0}
DECL E6POS XMP81002301={X 862.24,Y 5551.76,Z 394.91,A 119.858,B 26.385,C -0.518,S 6,T 27,E1 -2400,E2 0,E3 0,E4 0,E5 0,E6 0}
DECL E6POS XP1235={X 896.84,Y 5571.79,Z 395.55,A 119.858,B 26.385,C -0.518,S 6,T 27,E1 -2400,E2 0,E3 0,E4 0,E5 0,E6 0}
DECL E6POS XP1240={X 943.11,Y 5593.09,Z 396.77,A 89.95,B 26.422,C -3.915,S 6,T 27,E1 -2400,E2 0,E3 0,E4 0,E5 0,E6 0}
DECL E6POS XMP81002302={X 978.32,Y 5593.99,Z 398.63,A 89.95,B 26.422,C -3.915,S 6,T 27,E1 -2400,E2 0,E3 0,E4 0,E5 0,E6 0}
DECL E6POS XP1245={X 1013.54,Y 5594.88,Z 400.5,A 89.95,B 26.422,C -3.915,S 6,T 27,E1 -2400,E2 0,E3 0,E4 0,E5 0,E6 0}
DECL E6POS XP1250={X 1015.32,Y 5597.44,Z 400.62,A 119.891,B 26.387,C -0.691,S 6,T 27,E1 -2400,E2 0,E3 0,E4 0,E5 0,E6 0}
DECL E6POS XMP81002303={X 1041.26,Y 5612.54,Z 400.94,A 119.891,B 26.387,C -0.691,S 6,T 27,E1 -2400,E2 0,E3 0,E4 0,E5 0,E6 0}
DECL E6POS XP1255={X 1067.18,Y 5627.62,Z 401.27,A 119.891,B 26.387,C -0.691,S 6,T 27,E1 -2400,E2 0,E3 0,E4 0,E5 0,E6 0}
DECL E6POS XP1260={X 1075,Y 5632.16,Z 401.34,A 148.634,B 27.718,C 1.915,S 6,T 27,E1 -2400,E2 0,E3 0,E4 0,E5 0,E6 0}
DECL E6POS XMP81002304={X 1091.82,Y 5659.6,Z 400.62,A 148.634,B 27.718,C 1.915,S 6,T 27,E1 -2400,E2 0,E3 0,E4 0,E5 0,E6 0}
DECL E6POS XP1265={X 1108.65,Y 5687.05,Z 399.89,A 148.634,B 27.718,C 1.915,S 6,T 27,E1 -2400,E2 0,E3 0,E4 0,E5 0,E6 0}
DECL E6POS XP1270={X 1228.45,Y 5763.71,Z 402.91,A 119.648,B 29.49,C -3.957,S 6,T 27,E1 -2400,E2 0,E3 0,E4 0,E5 0,E6 0}
DECL E6POS XMP81002305={X 1259.05,Y 5781.41,Z 403.41,A 119.815,B 27.341,C -3.878,S 6,T 27,E1 -2400,E2 0,E3 0,E4 0,E5 0,E6 0}
DECL E6POS XP1275={X 1289.96,Y 5799.29,Z 403.91,A 119.815,B 27.341,C -3.878,S 6,T 27,E1 -2400,E2 0,E3 0,E4 0,E5 0,E6 0}
DECL E6POS XP1280={X 1350.13,Y 5722.86,Z 217.8,A 119.815,B 27.341,C -3.878,S 6,T 27,E1 -2400,E2 0,E3 0,E4 0,E5 0,E6 0}
DECL E6POS XP1285={X 3895.96,Y 6304.26,Z 303.61,A 115.892,B -33.388,C 7.638,S 6,T 27,E1 -6000,E2 0,E3 0,E4 0,E5 0,E6 0}
DECL E6POS XP1290={X 3761.73,Y 6226.95,Z 479.2,A 120.138,B -33.565,C 0.492,S 6,T 27,E1 -6000,E2 0,E3 0,E4 0,E5 0,E6 0}
DECL E6POS XMP80605401={X 3801.82,Y 6250.12,Z 479.35,A 120.138,B -33.565,C 0.492,S 6,T 27,E1 -6000,E2 0,E3 0,E4 0,E5 0,E6 0}
DECL E6POS XP1295={X 3841.84,Y 6273.24,Z 479.51,A 120.138,B -33.565,C 0.492,S 6,T 27,E1 -6000,E2 0,E3 0,E4 0,E5 0,E6 0}
DECL E6POS XP1300={X 3896.38,Y 6309.63,Z 479.5,A 150.096,B -34.269,C 0.961,S 6,T 27,E1 -6000,E2 0,E3 0,E4 0,E5 0,E6 0}
DECL E6POS XMP80605402={X 3913.55,Y 6340.14,Z 479.02,A 150.096,B -34.269,C 0.961,S 6,T 27,E1 -6000,E2 0,E3 0,E4 0,E5 0,E6 0}
DECL E6POS XP1305={X 3930.7,Y 6370.64,Z 478.52,A 150.096,B -34.269,C 0.961,S 6,T 27,E1 -6000,E2 0,E3 0,E4 0,E5 0,E6 0}
DECL E6POS XP1310={X 3932.19,Y 6370.39,Z 477.83,A 120.544,B -33.582,C -0.824,S 6,T 27,E1 -6000,E2 0,E3 0,E4 0,E5 0,E6 0}
DECL E6POS XMP80605403={X 3955.98,Y 6384.16,Z 478.63,A 120.544,B -33.582,C -0.824,S 6,T 27,E1 -6000,E2 0,E3 0,E4 0,E5 0,E6 0}
DECL E6POS XP1315={X 3979.77,Y 6397.92,Z 479.42,A 120.544,B -33.582,C -0.824,S 6,T 27,E1 -6000,E2 0,E3 0,E4 0,E5 0,E6 0}
DECL E6POS XP1320={X 3976.37,Y 6401.35,Z 478.37,A 90.241,B -30.666,C -1.823,S 6,T 27,E1 -6000,E2 0,E3 0,E4 0,E5 0,E6 0}
DECL E6POS XMP80605404={X 4012.19,Y 6400.81,Z 479.17,A 90.241,B -30.666,C -1.823,S 6,T 27,E1 -6000,E2 0,E3 0,E4 0,E5 0,E6 0}
DECL E6POS XP1325={X 4048,Y 6400.26,Z 479.97,A 90.241,B -30.666,C -1.823,S 6,T 27,E1 -6000,E2 0,E3 0,E4 0,E5 0,E6 0}
DECL E6POS XP1330={X 4107.65,Y 6426.82,Z 480.12,A 120.132,B -33.606,C 0.461,S 6,T 27,E1 -6000,E2 0,E3 0,E4 0,E5 0,E6 0}
DECL E6POS XMP80605405={X 4147.75,Y 6449.98,Z 480.14,A 120.132,B -33.606,C 0.461,S 6,T 27,E1 -6000,E2 0,E3 0,E4 0,E5 0,E6 0}
DECL E6POS XP1335={X 4187.88,Y 6473.17,Z 480.16,A 120.132,B -33.606,C 0.461,S 6,T 27,E1 -6000,E2 0,E3 0,E4 0,E5 0,E6 0}
DECL E6POS XP1340={X 4260.56,Y 6503.11,Z 382.42,A 117.443,B -33.524,C 4.825,S 6,T 27,E1 -6000,E2 0,E3 0,E4 0,E5 0,E6 0}
DECL E6POS XP1345={X 4161.49,Y 6735.54,Z 401,A 118.795,B -23.581,C 3.29,S 6,T 27,E1 -6000,E2 0,E3 0,E4 0,E5 0,E6 0}
DECL E6POS XP1350={X 4127.37,Y 6715.95,Z 472.33,A 120.485,B -23.588,C -0.827,S 6,T 27,E1 -6000,E2 0,E3 0,E4 0,E5 0,E6 0}
DECL E6POS XMP80705405={X 4084.18,Y 6691,Z 472.2,A 120.485,B -23.588,C -0.827,S 6,T 27,E1 -6000,E2 0,E3 0,E4 0,E5 0,E6 0}
DECL E6POS XP1355={X 4040.98,Y 6666.04,Z 472.07,A 120.485,B -23.588,C -0.827,S 6,T 27,E1 -6000,E2 0,E3 0,E4 0,E5 0,E6 0}
DECL E6POS XP1360={X 3975.32,Y 6639.96,Z 471.3,A 90.088,B -21.005,C -0.762,S 6,T 27,E1 -6000,E2 0,E3 0,E4 0,E5 0,E6 0}
DECL E6POS XMP80705404={X 3940.33,Y 6639.16,Z 470.51,A 90.088,B -21.005,C -0.762,S 6,T 27,E1 -6000,E2 0,E3 0,E4 0,E5 0,E6 0}
DECL E6POS XP1365={X 3905.32,Y 6638.33,Z 469.71,A 90.088,B -21.005,C -0.762,S 6,T 27,E1 -6000,E2 0,E3 0,E4 0,E5 0,E6 0}
DECL E6POS XP1370={X 3914.15,Y 6638.49,Z 470.15,A 119.667,B -23.585,C -0.012,S 6,T 27,E1 -6000,E2 0,E3 0,E4 0,E5 0,E6 0}
DECL E6POS XMP80705403={X 3888.48,Y 6623.56,Z 469.75,A 119.667,B -23.585,C -0.012,S 6,T 27,E1 -6000,E2 0,E3 0,E4 0,E5 0,E6 0}
DECL E6POS XP1375={X 3862.8,Y 6608.65,Z 469.37,A 119.667,B -23.585,C -0.012,S 6,T 27,E1 -6000,E2 0,E3 0,E4 0,E5 0,E6 0}
DECL E6POS XP1380={X 3861.16,Y 6606.83,Z 469.63,A 148.72,B -23.25,C 1.099,S 6,T 27,E1 -6000,E2 0,E3 0,E4 0,E5 0,E6 0}
DECL E6POS XMP80705402={X 3843.23,Y 6576.79,Z 470.25,A 148.72,B -23.25,C 1.099,S 6,T 27,E1 -6000,E2 0,E3 0,E4 0,E5 0,E6 0}
DECL E6POS XP1385={X 3825.28,Y 6546.74,Z 470.88,A 148.72,B -23.25,C 1.099,S 6,T 27,E1 -6000,E2 0,E3 0,E4 0,E5 0,E6 0}
DECL E6POS XP1390={X 3780.09,Y 6515.27,Z 470.87,A 120.47,B -23.613,C -0.321,S 6,T 27,E1 -6000,E2 0,E3 0,E4 0,E5 0,E6 0}
DECL E6POS XMP80705401={X 3750.28,Y 6498.04,Z 470.68,A 120.47,B -23.613,C -0.321,S 6,T 27,E1 -6000,E2 0,E3 0,E4 0,E5 0,E6 0}
DECL E6POS XP1395={X 3720.44,Y 6480.8,Z 470.49,A 120.47,B -23.613,C -0.321,S 6,T 27,E1 -6000,E2 0,E3 0,E4 0,E5 0,E6 0}
DECL E6POS XP1400={X 3765.21,Y 6499.99,Z 363.54,A 117.984,B -23.53,C 6.126,S 6,T 27,E1 -6000,E2 0,E3 0,E4 0,E5 0,E6 0}
DECL E6POS XP1405={X 3765.17,Y 6784.14,Z 283.55,A 115.892,B -33.388,C 7.638,S 6,T 27,E1 -6000,E2 0,E3 0,E4 0,E5 0,E6 0}
DECL E6POS XP1410={X 3630.85,Y 6706.81,Z 458.78,A 120.204,B -33.577,C -1.092,S 6,T 27,E1 -6000,E2 0,E3 0,E4 0,E5 0,E6 0}
DECL E6POS XMP80805401={X 3671.4,Y 6730.24,Z 459.12,A 120.204,B -33.577,C -1.092,S 6,T 27,E1 -6000,E2 0,E3 0,E4 0,E5 0,E6 0}
DECL E6POS XP1415={X 3711.47,Y 6753.41,Z 459.45,A 120.204,B -33.577,C -1.092,S 6,T 27,E1 -6000,E2 0,E3 0,E4 0,E5 0,E6 0}
DECL E6POS XP1420={X 3761.15,Y 6791.15,Z 459.4,A 149.502,B -34.02,C 1.643,S 6,T 27,E1 -6000,E2 0,E3 0,E4 0,E5 0,E6 0}
DECL E6POS XMP80805402={X 3774.73,Y 6815.06,Z 458.75,A 149.502,B -34.02,C 1.643,S 6,T 27,E1 -6000,E2 0,E3 0,E4 0,E5 0,E6 0}
DECL E6POS XP1425={X 3788.29,Y 6838.99,Z 458.1,A 149.502,B -34.02,C 1.643,S 6,T 27,E1 -6000,E2 0,E3 0,E4 0,E5 0,E6 0}
DECL E6POS XP1430={X 3790.57,Y 6844.32,Z 457.87,A 120.191,B -33.586,C -0.686,S 6,T 27,E1 -6000,E2 0,E3 0,E4 0,E5 0,E6 0}
DECL E6POS XMP80805403={X 3816.6,Y 6859.23,Z 458.17,A 120.191,B -33.585,C -0.686,S 6,T 27,E1 -6000,E2 0,E3 0,E4 0,E5 0,E6 0}
DECL E6POS XP1435={X 3842.64,Y 6874.14,Z 458.47,A 120.191,B -33.585,C -0.686,S 6,T 27,E1 -6000,E2 0,E3 0,E4 0,E5 0,E6 0}
DECL E6POS XP1440={X 3842.73,Y 6874.77,Z 458.49,A 94.343,B -29.701,C -1.708,S 6,T 27,E1 -6000,E2 0,E3 0,E4 0,E5 0,E6 0}
DECL E6POS XMP80805404={X 3875.79,Y 6876.47,Z 459.33,A 94.343,B -29.701,C -1.708,S 6,T 27,E1 -6000,E2 0,E3 0,E4 0,E5 0,E6 0}
DECL E6POS XP1445={X 3908.86,Y 6878.17,Z 460.16,A 94.343,B -29.701,C -1.708,S 6,T 27,E1 -6000,E2 0,E3 0,E4 0,E5 0,E6 0}
DECL E6POS XP1450={X 3966.23,Y 6900.66,Z 461.18,A 120.067,B -33.588,C 0.843,S 6,T 27,E1 -6000,E2 0,E3 0,E4 0,E5 0,E6 0}
DECL E6POS XMP80805405={X 4006.4,Y 6923.87,Z 461.4,A 120.067,B -33.588,C -0.184,S 6,T 27,E1 -6000,E2 0,E3 0,E4 0,E5 0,E6 0}
DECL E6POS XP1455={X 4046.68,Y 6947.15,Z 461.61,A 120.067,B -33.588,C 0.843,S 6,T 27,E1 -6000,E2 0,E3 0,E4 0,E5 0,E6 0}
DECL E6POS XP1460={X 4136.31,Y 6998.34,Z 351,A 117.5,B -33.528,C 4.722,S 6,T 27,E1 -6000,E2 0,E3 0,E4 0,E5 0,E6 0}
DECL E6POS XP1465={X 4009.09,Y 7203.2,Z 377.01,A 118.795,B -23.581,C 3.29,S 6,T 27,E1 -6000,E2 0,E3 0,E4 0,E5 0,E6 0}
DECL E6POS XP1470={X 3980.04,Y 7186.54,Z 448.48,A 120.395,B -23.591,C -0.652,S 6,T 27,E1 -6000,E2 0,E3 0,E4 0,E5 0,E6 0}
DECL E6POS XMP80905405={X 3936.71,Y 7161.5,Z 448.14,A 120.395,B -23.591,C -0.652,S 6,T 27,E1 -6000,E2 0,E3 0,E4 0,E5 0,E6 0}
DECL E6POS XP1475={X 3893.39,Y 7136.46,Z 447.81,A 120.395,B -23.591,C -0.652,S 6,T 27,E1 -6000,E2 0,E3 0,E4 0,E5 0,E6 0}
DECL E6POS XP1480={X 3841.4,Y 7116.51,Z 446.85,A 91.676,B -21.134,C -1.652,S 6,T 27,E1 -6000,E2 0,E3 0,E4 0,E5 0,E6 0}
DECL E6POS XMP80905404={X 3806.44,Y 7114.93,Z 445.55,A 91.676,B -21.134,C -1.652,S 6,T 27,E1 -6000,E2 0,E3 0,E4 0,E5 0,E6 0}
DECL E6POS XP1485={X 3771.49,Y 7113.33,Z 444.24,A 91.676,B -21.134,C -1.652,S 6,T 27,E1 -6000,E2 0,E3 0,E4 0,E5 0,E6 0}
DECL E6POS XP1490={X 3776.44,Y 7114.89,Z 444.77,A 120.291,B -23.594,C -0.415,S 6,T 27,E1 -6000,E2 0,E3 0,E4 0,E5 0,E6 0}
DECL E6POS XMP80905403={X 3750.89,Y 7099.77,Z 444.18,A 120.291,B -23.594,C -0.415,S 6,T 27,E1 -6000,E2 0,E3 0,E4 0,E5 0,E6 0}
DECL E6POS XP1495={X 3725.33,Y 7084.65,Z 443.61,A 120.291,B -23.594,C -0.415,S 6,T 27,E1 -6000,E2 0,E3 0,E4 0,E5 0,E6 0}
DECL E6POS XP1500={X 3722.79,Y 7081.31,Z 444.08,A 147.457,B -20.463,C 1.358,S 6,T 27,E1 -6000,E2 0,E3 0,E4 0,E5 0,E6 0}
DECL E6POS XMP80905402={X 3705.54,Y 7053.78,Z 444.8,A 147.457,B -20.463,C 1.358,S 6,T 27,E1 -6000,E2 0,E3 0,E4 0,E5 0,E6 0}
DECL E6POS XP1505={X 3688.28,Y 7026.25,Z 445.51,A 147.457,B -20.463,C 1.358,S 6,T 27,E1 -6000,E2 0,E3 0,E4 0,E5 0,E6 0}
DECL E6POS XP1510={X 3643.68,Y 6992.1,Z 445.64,A 120.079,B -23.594,C -0.666,S 6,T 27,E1 -6000,E2 0,E3 0,E4 0,E5 0,E6 0}
DECL E6POS XMP80905401={X 3613.85,Y 6974.86,Z 445.36,A 120.079,B -23.594,C -0.666,S 6,T 27,E1 -6000,E2 0,E3 0,E4 0,E5 0,E6 0}
DECL E6POS XP1515={X 3584.03,Y 6957.62,Z 445.08,A 120.079,B -23.594,C -0.666,S 6,T 27,E1 -6000,E2 0,E3 0,E4 0,E5 0,E6 0}
DECL E6POS XP1520={X 3692.17,Y 7020.2,Z 345.04,A 118.887,B -23.57,C 3.352,S 6,T 27,E1 -6000,E2 0,E3 0,E4 0,E5 0,E6 0}
DECL E6POS XP1525={X 3637.38,Y 7266.13,Z 253.7,A 115.892,B -33.388,C 7.638,S 6,T 27,E1 -6000,E2 0,E3 0,E4 0,E5 0,E6 0}
DECL E6POS XP1530={X 3496.08,Y 7184.72,Z 428.74,A 120.204,B -33.577,C -1.092,S 6,T 27,E1 -6000,E2 0,E3 0,E4 0,E5 0,E6 0}
DECL E6POS XMP81005401={X 3536.11,Y 7207.97,Z 429.07,A 120.204,B -33.577,C -1.092,S 6,T 27,E1 -6000,E2 0,E3 0,E4 0,E5 0,E6 0}
DECL E6POS XP1535={X 3576.45,Y 7231.19,Z 429.66,A 120.204,B -33.577,C -1.092,S 6,T 27,E1 -6000,E2 0,E3 0,E4 0,E5 0,E6 0}
DECL E6POS XP1540={X 3621.43,Y 7266.85,Z 429.54,A 147.569,B -33.5,C 1.889,S 6,T 27,E1 -6000,E2 0,E3 0,E4 0,E5 0,E6 0}
DECL E6POS XMP81005402={X 3635.74,Y 7290.32,Z 428.77,A 147.569,B -33.5,C 1.889,S 6,T 27,E1 -6000,E2 0,E3 0,E4 0,E5 0,E6 0}
DECL E6POS XP1545={X 3650.07,Y 7313.78,Z 428.01,A 147.569,B -33.5,C 1.889,S 6,T 27,E1 -6000,E2 0,E3 0,E4 0,E5 0,E6 0}
DECL E6POS XP1550={X 3652.35,Y 7320.59,Z 427.73,A 120.191,B -33.585,C -0.686,S 6,T 27,E1 -6000,E2 0,E3 0,E4 0,E5 0,E6 0}
DECL E6POS XMP81005403={X 3678.38,Y 7335.5,Z 428.02,A 120.191,B -33.585,C -0.686,S 6,T 27,E1 -6000,E2 0,E3 0,E4 0,E5 0,E6 0}
DECL E6POS XP1555={X 3704.41,Y 7350.42,Z 428.33,A 120.191,B -33.585,C -0.686,S 6,T 27,E1 -6000,E2 0,E3 0,E4 0,E5 0,E6 0}
DECL E6POS XP1560={X 3701.52,Y 7352.21,Z 428.53,A 92.293,B -30.715,C -2.038,S 6,T 27,E1 -6000,E2 0,E3 0,E4 0,E5 0,E6 0}
DECL E6POS XMP81005404={X 3734.62,Y 7352.61,Z 429.51,A 92.293,B -30.715,C -2.038,S 6,T 27,E1 -6000,E2 0,E3 0,E4 0,E5 0,E6 0}
DECL E6POS XP1565={X 3767.74,Y 7353.02,Z 430.5,A 92.293,B -30.715,C -2.038,S 6,T 27,E1 -6000,E2 0,E3 0,E4 0,E5 0,E6 0}
DECL E6POS XP1570={X 3825.92,Y 7375.43,Z 432.24,A 120.067,B -33.588,C 0.843,S 6,T 27,E1 -6000,E2 0,E3 0,E4 0,E5 0,E6 0}
DECL E6POS XMP81005405={X 3866.08,Y 7398.64,Z 432.61,A 120.067,B -33.588,C -0.184,S 6,T 27,E1 -6000,E2 0,E3 0,E4 0,E5 0,E6 0}
DECL E6POS XP1575={X 3906,Y 7421.73,Z 432.98,A 120.067,B -33.588,C 0.843,S 6,T 27,E1 -6000,E2 0,E3 0,E4 0,E5 0,E6 0}
DECL E6POS XP1580={X 4000.89,Y 7475.9,Z 321.25,A 117.5,B -33.528,C 4.722,S 6,T 27,E1 -6000,E2 0,E3 0,E4 0,E5 0,E6 0}
DECL E6POS XP1585={X 3086.81,Y 5836.67,Z 299.84,A 115.892,B -33.388,C 7.638,S 6,T 27,E1 -5000,E2 0,E3 0,E4 0,E5 0,E6 0}
DECL E6POS XP1590={X 2952.59,Y 5759.36,Z 475.29,A 120.138,B -33.565,C 1.504,S 6,T 27,E1 -5000,E2 0,E3 0,E4 0,E5 0,E6 0}
DECL E6POS XMP80604401={X 2992.66,Y 5782.52,Z 475.57,A 120.138,B -33.565,C 1.504,S 6,T 27,E1 -5000,E2 0,E3 0,E4 0,E5 0,E6 0}
DECL E6POS XP1595={X 3032.42,Y 5805.5,Z 475.86,A 120.138,B -33.565,C 1.504,S 6,T 27,E1 -5000,E2 0,E3 0,E4 0,E5 0,E6 0}
DECL E6POS XP1600={X 3085.57,Y 5844.71,Z 475.97,A 149.335,B -34.631,C 1.339,S 6,T 27,E1 -5000,E2 0,E3 0,E4 0,E5 0,E6 0}
DECL E6POS XMP80604402={X 3103.03,Y 5875.06,Z 475.31,A 149.335,B -34.631,C 1.339,S 6,T 27,E1 -5000,E2 0,E3 0,E4 0,E5 0,E6 0}
DECL E6POS XP1605={X 3120.48,Y 5905.38,Z 474.62,A 149.335,B -34.631,C 1.339,S 6,T 27,E1 -5000,E2 0,E3 0,E4 0,E5 0,E6 0}
DECL E6POS XP1610={X 3130.3,Y 5914.45,Z 474.87,A 119.584,B -33.577,C 1.207,S 6,T 27,E1 -5000,E2 0,E3 0,E4 0,E5 0,E6 0}
DECL E6POS XMP80604403={X 3154.06,Y 5928.3,Z 474.85,A 119.584,B -33.577,C 1.207,S 6,T 27,E1 -5000,E2 0,E3 0,E4 0,E5 0,E6 0}
DECL E6POS XP1615={X 3177.82,Y 5942.14,Z 474.83,A 119.584,B -33.577,C 1.207,S 6,T 27,E1 -5000,E2 0,E3 0,E4 0,E5 0,E6 0}
DECL E6POS XP1620={X 3190,Y 5946.19,Z 475.06,A 91.587,B -31.054,C -2.13,S 6,T 27,E1 -5000,E2 0,E3 0,E4 0,E5 0,E6 0}
DECL E6POS XMP80604404={X 3225.81,Y 5946.38,Z 476.01,A 91.587,B -31.054,C -2.13,S 6,T 27,E1 -5000,E2 0,E3 0,E4 0,E5 0,E6 0}
DECL E6POS XP1625={X 3261.63,Y 5946.57,Z 476.99,A 91.587,B -31.054,C -2.13,S 6,T 27,E1 -5000,E2 0,E3 0,E4 0,E5 0,E6 0}
DECL E6POS XP1630={X 3314.12,Y 5968.3,Z 477.43,A 120.132,B -33.606,C 0.461,S 6,T 27,E1 -5000,E2 0,E3 0,E4 0,E5 0,E6 0}
DECL E6POS XMP80604405={X 3354.84,Y 5991.85,Z 477.58,A 120.132,B -33.606,C 0.461,S 6,T 27,E1 -5000,E2 0,E3 0,E4 0,E5 0,E6 0}
DECL E6POS XP1635={X 3394.96,Y 6015.01,Z 477.75,A 120.132,B -33.606,C 0.461,S 6,T 27,E1 -5000,E2 0,E3 0,E4 0,E5 0,E6 0}
DECL E6POS XP1640={X 3463.1,Y 6052,Z 378.89,A 117.443,B -33.524,C 4.825,S 6,T 27,E1 -5000,E2 0,E3 0,E4 0,E5 0,E6 0}
DECL E6POS XP1645={X 3380.25,Y 6284.03,Z 396.65,A 118.795,B -23.581,C 3.29,S 6,T 27,E1 -5000,E2 0,E3 0,E4 0,E5 0,E6 0}
DECL E6POS XP1650={X 3346.2,Y 6264.5,Z 468.14,A 120.485,B -23.588,C -0.827,S 6,T 27,E1 -5000,E2 0,E3 0,E4 0,E5 0,E6 0}
DECL E6POS XMP80704405={X 3302.95,Y 6239.5,Z 467.87,A 120.485,B -23.588,C -0.827,S 6,T 27,E1 -5000,E2 0,E3 0,E4 0,E5 0,E6 0}
DECL E6POS XP1655={X 3259.83,Y 6214.58,Z 467.6,A 120.485,B -23.588,C -0.827,S 6,T 27,E1 -5000,E2 0,E3 0,E4 0,E5 0,E6 0}
DECL E6POS XP1660={X 3197.52,Y 6193.12,Z 466.23,A 90.41,B -21.141,C -0.701,S 6,T 27,E1 -5000,E2 0,E3 0,E4 0,E5 0,E6 0}
DECL E6POS XMP80704404={X 3162.52,Y 6192.09,Z 465.45,A 90.41,B -21.141,C -0.701,S 6,T 27,E1 -5000,E2 0,E3 0,E4 0,E5 0,E6 0}
DECL E6POS XP1665={X 3127.54,Y 6191.06,Z 464.7,A 90.41,B -21.141,C -0.701,S 6,T 27,E1 -5000,E2 0,E3 0,E4 0,E5 0,E6 0}
DECL E6POS XP1670={X 3123.26,Y 6188.46,Z 464.21,A 119.012,B -23.58,C 0.65,S 6,T 27,E1 -5000,E2 0,E3 0,E4 0,E5 0,E6 0}
DECL E6POS XMP80704403={X 3097.49,Y 6173.72,Z 464.15,A 119.012,B -23.58,C 0.65,S 6,T 27,E1 -5000,E2 0,E3 0,E4 0,E5 0,E6 0}
DECL E6POS XP1675={X 3071.7,Y 6158.98,Z 464.07,A 119.012,B -23.58,C 0.65,S 6,T 27,E1 -5000,E2 0,E3 0,E4 0,E5 0,E6 0}
DECL E6POS XP1680={X 3062.46,Y 6147.83,Z 464.04,A 149.355,B -24.235,C 1.303,S 6,T 27,E1 -5000,E2 0,E3 0,E4 0,E5 0,E6 0}
DECL E6POS XMP80704402={X 3044.92,Y 6117.56,Z 464.76,A 149.355,B -24.235,C 1.303,S 6,T 27,E1 -5000,E2 0,E3 0,E4 0,E5 0,E6 0}
DECL E6POS XP1685={X 3027.36,Y 6087.29,Z 465.5,A 149.355,B -24.235,C 1.303,S 6,T 27,E1 -5000,E2 0,E3 0,E4 0,E5 0,E6 0}
DECL E6POS XP1690={X 2964.39,Y 6043.8,Z 465.25,A 120.47,B -23.613,C -0.321,S 6,T 27,E1 -5000,E2 0,E3 0,E4 0,E5 0,E6 0}
DECL E6POS XMP80704401={X 2934.49,Y 6026.51,Z 464.97,A 120.47,B -23.613,C -0.321,S 6,T 27,E1 -5000,E2 0,E3 0,E4 0,E5 0,E6 0}
DECL E6POS XP1695={X 2904.6,Y 6009.24,Z 464.69,A 120.47,B -23.613,C -0.321,S 6,T 27,E1 -5000,E2 0,E3 0,E4 0,E5 0,E6 0}
DECL E6POS XP1700={X 2945.69,Y 6034.69,Z 357.68,A 117.984,B -23.53,C 6.126,S 6,T 27,E1 -5000,E2 0,E3 0,E4 0,E5 0,E6 0}
DECL E6POS XP1705={X 2976.65,Y 6328.46,Z 276.27,A 115.892,B -33.388,C 7.638,S 6,T 27,E1 -5000,E2 0,E3 0,E4 0,E5 0,E6 0}
DECL E6POS XP1710={X 2842.89,Y 6251.28,Z 451.58,A 120.204,B -33.577,C -1.092,S 6,T 27,E1 -5000,E2 0,E3 0,E4 0,E5 0,E6 0}
DECL E6POS XMP80804401={X 2882.87,Y 6274.54,Z 451.85,A 120.204,B -33.577,C -1.092,S 6,T 27,E1 -5000,E2 0,E3 0,E4 0,E5 0,E6 0}
DECL E6POS XP1715={X 2923.13,Y 6297.67,Z 452.49,A 120.204,B -33.577,C -1.092,S 6,T 27,E1 -5000,E2 0,E3 0,E4 0,E5 0,E6 0}
DECL E6POS XP1720={X 2975.16,Y 6340.56,Z 452.27,A 147.931,B -33.954,C 1.306,S 6,T 27,E1 -5000,E2 0,E3 0,E4 0,E5 0,E6 0}
DECL E6POS XMP80804402={X 2989.46,Y 6364.03,Z 451.74,A 147.931,B -33.954,C 1.306,S 6,T 27,E1 -5000,E2 0,E3 0,E4 0,E5 0,E6 0}
DECL E6POS XP1725={X 3003.76,Y 6387.52,Z 451.22,A 147.931,B -33.954,C 1.306,S 6,T 27,E1 -5000,E2 0,E3 0,E4 0,E5 0,E6 0}
DECL E6POS XP1730={X 3015.22,Y 6403.67,Z 450.77,A 120.191,B -33.585,C -0.686,S 6,T 27,E1 -5000,E2 0,E3 0,E4 0,E5 0,E6 0}
DECL E6POS XMP80804403={X 3041.25,Y 6418.59,Z 451.07,A 120.191,B -33.585,C -0.686,S 6,T 27,E1 -5000,E2 0,E3 0,E4 0,E5 0,E6 0}
DECL E6POS XP1735={X 3067.27,Y 6433.5,Z 451.37,A 120.191,B -33.585,C -0.686,S 6,T 27,E1 -5000,E2 0,E3 0,E4 0,E5 0,E6 0}
DECL E6POS XP1740={X 3079.58,Y 6437.32,Z 451.6,A 91.261,B -30.725,C -2.659,S 6,T 27,E1 -5000,E2 0,E3 0,E4 0,E5 0,E6 0}
DECL E6POS XMP80804404={X 3112.68,Y 6436.96,Z 452.89,A 91.261,B -30.725,C -2.659,S 6,T 27,E1 -5000,E2 0,E3 0,E4 0,E5 0,E6 0}
DECL E6POS XP1745={X 3145.77,Y 6436.57,Z 454.2,A 91.261,B -30.725,C -2.659,S 6,T 27,E1 -5000,E2 0,E3 0,E4 0,E5 0,E6 0}
DECL E6POS XP1750={X 3199.45,Y 6457.43,Z 455.2,A 120.067,B -33.588,C 0.843,S 6,T 27,E1 -5000,E2 0,E3 0,E4 0,E5 0,E6 0}
DECL E6POS XMP80804405={X 3239.49,Y 6480.57,Z 455.53,A 120.067,B -33.588,C -0.184,S 6,T 27,E1 -5000,E2 0,E3 0,E4 0,E5 0,E6 0}
DECL E6POS XP1755={X 3279.43,Y 6503.66,Z 455.86,A 120.067,B -33.588,C 0.843,S 6,T 27,E1 -5000,E2 0,E3 0,E4 0,E5 0,E6 0}
DECL E6POS XP1760={X 3370.09,Y 6555.39,Z 344.3,A 117.5,B -33.528,C 4.722,S 6,T 27,E1 -5000,E2 0,E3 0,E4 0,E5 0,E6 0}
DECL E6POS XP1765={X 3265.79,Y 6773.46,Z 370.02,A 118.795,B -23.581,C 3.29,S 6,T 27,E1 -5000,E2 0,E3 0,E4 0,E5 0,E6 0}
DECL E6POS XP1770={X 3236.76,Y 6756.84,Z 441.59,A 120.395,B -23.591,C -0.652,S 6,T 27,E1 -5000,E2 0,E3 0,E4 0,E5 0,E6 0}
DECL E6POS XMP80904405={X 3193.4,Y 6731.77,Z 441.13,A 120.395,B -23.591,C -0.652,S 6,T 27,E1 -5000,E2 0,E3 0,E4 0,E5 0,E6 0}
DECL E6POS XP1775={X 3149.99,Y 6706.67,Z 440.67,A 120.395,B -23.591,C -0.652,S 6,T 27,E1 -5000,E2 0,E3 0,E4 0,E5 0,E6 0}
DECL E6POS XP1780={X 3082.18,Y 6683.09,Z 438.42,A 89.32,B -21.174,C -0.973,S 6,T 27,E1 -5000,E2 0,E3 0,E4 0,E5 0,E6 0}
DECL E6POS XMP80904404={X 3047.17,Y 6682.8,Z 437.51,A 89.32,B -21.174,C -0.973,S 6,T 27,E1 -5000,E2 0,E3 0,E4 0,E5 0,E6 0}
DECL E6POS XP1785={X 3012.19,Y 6682.49,Z 436.6,A 89.32,B -21.174,C -0.973,S 6,T 27,E1 -5000,E2 0,E3 0,E4 0,E5 0,E6 0}
DECL E6POS XP1790={X 3010.59,Y 6678.84,Z 436.64,A 118.981,B -23.593,C -0.991,S 6,T 27,E1 -5000,E2 0,E3 0,E4 0,E5 0,E6 0}
DECL E6POS XMP80904403={X 2984.65,Y 6664.41,Z 435.8,A 117.77,B -23.609,C -1.609,S 6,T 27,E1 -5000,E2 0,E3 0,E4 0,E5 0,E6 0}
DECL E6POS XP1795={X 2958.7,Y 6649.99,Z 434.94,A 118.981,B -23.593,C -0.991,S 6,T 27,E1 -5000,E2 0,E3 0,E4 0,E5 0,E6 0}
DECL E6POS XP1800={X 2949.07,Y 6637.01,Z 435.76,A 148.315,B -23.094,C 1.569,S 6,T 27,E1 -5000,E2 0,E3 0,E4 0,E5 0,E6 0}
DECL E6POS XMP80904402={X 2932.3,Y 6609.17,Z 436.58,A 148.315,B -23.094,C 1.569,S 6,T 27,E1 -5000,E2 0,E3 0,E4 0,E5 0,E6 0}
DECL E6POS XP1805={X 2915.53,Y 6581.34,Z 437.4,A 148.315,B -23.094,C 1.569,S 6,T 27,E1 -5000,E2 0,E3 0,E4 0,E5 0,E6 0}
DECL E6POS XP1810={X 2869.48,Y 6544.47,Z 437.48,A 120.079,B -23.594,C -0.666,S 6,T 27,E1 -5000,E2 0,E3 0,E4 0,E5 0,E6 0}
DECL E6POS XMP80904401={X 2839.72,Y 6527.26,Z 437.11,A 120.079,B -23.594,C -0.666,S 6,T 27,E1 -5000,E2 0,E3 0,E4 0,E5 0,E6 0}
DECL E6POS XP1815={X 2810.07,Y 6510.12,Z 436.75,A 120.079,B -23.594,C -0.666,S 6,T 27,E1 -5000,E2 0,E3 0,E4 0,E5 0,E6 0}
DECL E6POS XP1820={X 2960.69,Y 6614.68,Z 338.54,A 118.887,B -23.57,C 3.352,S 6,T 27,E1 -5000,E2 0,E3 0,E4 0,E5 0,E6 0}
DECL E6POS XP1825={X 2855.31,Y 6813.85,Z 243.73,A 115.892,B -33.388,C 7.638,S 6,T 27,E1 -5000,E2 0,E3 0,E4 0,E5 0,E6 0}
DECL E6POS XP1830={X 2721.46,Y 6736.76,Z 418.76,A 120.204,B -33.577,C -1.092,S 6,T 27,E1 -5000,E2 0,E3 0,E4 0,E5 0,E6 0}
DECL E6POS XMP81004401={X 2761.53,Y 6759.93,Z 419.3,A 120.204,B -33.577,C -1.092,S 6,T 27,E1 -5000,E2 0,E3 0,E4 0,E5 0,E6 0}
DECL E6POS XP1835={X 2801.98,Y 6783.33,Z 419.85,A 120.204,B -33.577,C -1.092,S 6,T 27,E1 -5000,E2 0,E3 0,E4 0,E5 0,E6 0}
DECL E6POS XP1840={X 2855.64,Y 6832.79,Z 419.33,A 148.003,B -34.034,C 1.88,S 6,T 27,E1 -5000,E2 0,E3 0,E4 0,E5 0,E6 0}
DECL E6POS XMP81004402={X 2869.78,Y 6856.38,Z 418.58,A 148.003,B -34.034,C 1.88,S 6,T 27,E1 -5000,E2 0,E3 0,E4 0,E5 0,E6 0}
DECL E6POS XP1845={X 2883.91,Y 6879.95,Z 417.82,A 148.003,B -34.034,C 1.88,S 6,T 27,E1 -5000,E2 0,E3 0,E4 0,E5 0,E6 0}
DECL E6POS XP1850={X 2899.01,Y 6899.65,Z 417.37,A 120.191,B -33.585,C -0.686,S 6,T 27,E1 -5000,E2 0,E3 0,E4 0,E5 0,E6 0}
DECL E6POS XMP81004403={X 2925.03,Y 6914.56,Z 417.67,A 120.191,B -33.585,C -0.686,S 6,T 27,E1 -5000,E2 0,E3 0,E4 0,E5 0,E6 0}
DECL E6POS XP1855={X 2951.06,Y 6929.47,Z 417.97,A 120.191,B -33.585,C -0.686,S 6,T 27,E1 -5000,E2 0,E3 0,E4 0,E5 0,E6 0}
DECL E6POS XP1860={X 2969.09,Y 6935.66,Z 418.5,A 91.774,B -30.685,C -3.354,S 6,T 27,E1 -5000,E2 0,E3 0,E4 0,E5 0,E6 0}
DECL E6POS XMP81004404={X 3002.16,Y 6935.39,Z 420.14,A 91.774,B -30.685,C -3.354,S 6,T 27,E1 -5000,E2 0,E3 0,E4 0,E5 0,E6 0}
DECL E6POS XP1865={X 3035.26,Y 6935.08,Z 421.78,A 91.774,B -30.685,C -3.354,S 6,T 27,E1 -5000,E2 0,E3 0,E4 0,E5 0,E6 0}
DECL E6POS XP1870={X 3182.19,Y 7003.22,Z 425.16,A 120.067,B -33.588,C 0.843,S 6,T 27,E1 -5000,E2 0,E3 0,E4 0,E5 0,E6 0}
DECL E6POS XMP81004405={X 3222.26,Y 7026.39,Z 425.62,A 120.067,B -33.588,C -0.184,S 6,T 27,E1 -5000,E2 0,E3 0,E4 0,E5 0,E6 0}
DECL E6POS XP1875={X 3262.25,Y 7049.51,Z 426.07,A 120.067,B -33.588,C 0.843,S 6,T 27,E1 -5000,E2 0,E3 0,E4 0,E5 0,E6 0}
DECL E6POS XP1880={X 3422.1,Y 7135.4,Z 227.58,A 116.065,B -33.416,C 7.115,S 6,T 27,E1 -5000,E2 0,E3 0,E4 0,E5 0,E6 0}
DECL E6POS XP1885={X 2143.15,Y 5286.13,Z 216.65,A 113.763,B -33.118,C 11.205,S 6,T 27,E1 -4000,E2 0,E3 0,E4 0,E5 0,E6 0}
DECL E6POS XP1890={X 1916.94,Y 5160.7,Z 467.09,A 120.138,B -33.565,C -0.796,S 6,T 27,E1 -4000,E2 0,E3 0,E4 0,E5 0,E6 0}
DECL E6POS XMP80603401={X 1956.99,Y 5183.85,Z 467.46,A 120.138,B -33.565,C -0.796,S 6,T 27,E1 -4000,E2 0,E3 0,E4 0,E5 0,E6 0}
DECL E6POS XP1895={X 1997.33,Y 5207.17,Z 467.84,A 120.138,B -33.565,C -0.796,S 6,T 27,E1 -4000,E2 0,E3 0,E4 0,E5 0,E6 0}
DECL E6POS XP1900={X 2045.83,Y 5238.52,Z 468.12,A 150.517,B -34.84,C 1.505,S 6,T 27,E1 -4000,E2 0,E3 0,E4 0,E5 0,E6 0}
DECL E6POS XMP80603402={X 2062.6,Y 5269.22,Z 467.36,A 150.517,B -34.84,C 1.505,S 6,T 27,E1 -4000,E2 0,E3 0,E4 0,E5 0,E6 0}
DECL E6POS XP1905={X 2079.36,Y 5299.95,Z 466.61,A 150.517,B -34.84,C 1.505,S 6,T 27,E1 -4000,E2 0,E3 0,E4 0,E5 0,E6 0}
DECL E6POS XP1910={X 2094.62,Y 5317.1,Z 465.95,A 120.184,B -33.586,C -0.625,S 6,T 27,E1 -4000,E2 0,E3 0,E4 0,E5 0,E6 0}
DECL E6POS XMP80603403={X 2118.48,Y 5330.77,Z 466.66,A 120.184,B -33.586,C -0.625,S 6,T 27,E1 -4000,E2 0,E3 0,E4 0,E5 0,E6 0}
DECL E6POS XP1915={X 2142.33,Y 5344.43,Z 467.38,A 120.184,B -33.586,C -0.625,S 6,T 27,E1 -4000,E2 0,E3 0,E4 0,E5 0,E6 0}
DECL E6POS XP1920={X 2149.16,Y 5348.8,Z 466.91,A 91.399,B -30.465,C -2.475,S 6,T 27,E1 -4000,E2 0,E3 0,E4 0,E5 0,E6 0}
DECL E6POS XMP80603404={X 2184.97,Y 5348.77,Z 468.07,A 91.399,B -30.465,C -2.475,S 6,T 27,E1 -4000,E2 0,E3 0,E4 0,E5 0,E6 0}
DECL E6POS XP1925={X 2220.79,Y 5348.75,Z 469.22,A 91.399,B -30.465,C -2.475,S 6,T 27,E1 -4000,E2 0,E3 0,E4 0,E5 0,E6 0}
DECL E6POS XP1930={X 2306.87,Y 5386.12,Z 470.67,A 121.368,B -33.557,C -3.082,S 6,T 27,E1 -4000,E2 0,E3 0,E4 0,E5 0,E6 0}
DECL E6POS XMP80603405={X 2346.98,Y 5409.31,Z 470.97,A 121.368,B -33.557,C -3.082,S 6,T 27,E1 -4000,E2 0,E3 0,E4 0,E5 0,E6 0}
DECL E6POS XP1935={X 2387.33,Y 5432.63,Z 471.26,A 121.368,B -33.557,C -3.082,S 6,T 27,E1 -4000,E2 0,E3 0,E4 0,E5 0,E6 0}
DECL E6POS XP1940={X 2455.49,Y 5469.97,Z 371.41,A 117.443,B -33.524,C 4.825,S 6,T 27,E1 -4000,E2 0,E3 0,E4 0,E5 0,E6 0}
DECL E6POS XP1945={X 2397.04,Y 5715.64,Z 388.07,A 118.795,B -23.581,C 3.29,S 6,T 27,E1 -4000,E2 0,E3 0,E4 0,E5 0,E6 0}
DECL E6POS XP1950={X 2363.37,Y 5696.34,Z 459.62,A 120.485,B -23.588,C -0.827,S 6,T 27,E1 -4000,E2 0,E3 0,E4 0,E5 0,E6 0}
DECL E6POS XMP80703405={X 2319.86,Y 5671.19,Z 459.21,A 120.485,B -23.588,C -0.827,S 6,T 27,E1 -4000,E2 0,E3 0,E4 0,E5 0,E6 0}
DECL E6POS XP1955={X 2276.52,Y 5646.13,Z 458.8,A 120.485,B -23.588,C -0.827,S 6,T 27,E1 -4000,E2 0,E3 0,E4 0,E5 0,E6 0}
DECL E6POS XP1960={X 2194.39,Y 5612.91,Z 457.03,A 90.359,B -21.161,C -1.727,S 6,T 27,E1 -4000,E2 0,E3 0,E4 0,E5 0,E6 0}
DECL E6POS XMP80703404={X 2159.41,Y 5612.15,Z 455.68,A 90.359,B -21.161,C -1.727,S 6,T 27,E1 -4000,E2 0,E3 0,E4 0,E5 0,E6 0}
DECL E6POS XP1965={X 2124.43,Y 5611.36,Z 454.34,A 90.359,B -21.161,C -1.727,S 6,T 27,E1 -4000,E2 0,E3 0,E4 0,E5 0,E6 0}
DECL E6POS XP1970={X 2115.7,Y 5608.1,Z 454.31,A 119.667,B -23.585,C -0.012,S 6,T 27,E1 -4000,E2 0,E3 0,E4 0,E5 0,E6 0}
DECL E6POS XMP80703403={X 2090.01,Y 5593.19,Z 453.92,A 121.019,B -23.557,C -1.573,S 6,T 27,E1 -4000,E2 0,E3 0,E4 0,E5 0,E6 0}
DECL E6POS XP1975={X 2064.34,Y 5578.27,Z 453.52,A 119.667,B -23.585,C -0.012,S 6,T 27,E1 -4000,E2 0,E3 0,E4 0,E5 0,E6 0}
DECL E6POS XP1980={X 2057.69,Y 5568.87,Z 453.88,A 148.139,B -24.315,C 1.224,S 6,T 27,E1 -4000,E2 0,E3 0,E4 0,E5 0,E6 0}
DECL E6POS XMP80703402={X 2039.49,Y 5539,Z 454.56,A 148.139,B -24.315,C 1.224,S 6,T 27,E1 -4000,E2 0,E3 0,E4 0,E5 0,E6 0}
DECL E6POS XP1985={X 2021.28,Y 5509.1,Z 455.24,A 148.139,B -24.315,C 1.224,S 6,T 27,E1 -4000,E2 0,E3 0,E4 0,E5 0,E6 0}
DECL E6POS XP1990={X 1953.4,Y 5459.3,Z 455.09,A 120.47,B -23.613,C -0.321,S 6,T 27,E1 -4000,E2 0,E3 0,E4 0,E5 0,E6 0}
DECL E6POS XMP80703401={X 1923.56,Y 5442.04,Z 454.74,A 120.47,B -23.613,C -0.321,S 6,T 27,E1 -4000,E2 0,E3 0,E4 0,E5 0,E6 0}
DECL E6POS XP1995={X 1893.72,Y 5424.79,Z 454.39,A 120.47,B -23.613,C -0.321,S 6,T 27,E1 -4000,E2 0,E3 0,E4 0,E5 0,E6 0}
DECL E6POS XP2000={X 1936.41,Y 5456.99,Z 348,A 117.984,B -23.53,C 6.126,S 6,T 27,E1 -4000,E2 0,E3 0,E4 0,E5 0,E6 0}
DECL E6POS XP2005={X 1995.97,Y 5761.23,Z 264.66,A 115.892,B -33.388,C 7.638,S 6,T 27,E1 -4000,E2 0,E3 0,E4 0,E5 0,E6 0}
DECL E6POS XP2010={X 1861.9,Y 5684.57,Z 439.06,A 120.204,B -33.577,C -1.092,S 6,T 27,E1 -4000,E2 0,E3 0,E4 0,E5 0,E6 0}
DECL E6POS XMP80803401={X 1902.21,Y 5707.32,Z 440.23,A 120.204,B -33.577,C -1.241,S 6,T 27,E1 -4000,E2 0,E3 0,E4 0,E5 0,E6 0}
DECL E6POS XP2015={X 1942.18,Y 5730.44,Z 440.77,A 120.204,B -33.577,C -1.092,S 6,T 27,E1 -4000,E2 0,E3 0,E4 0,E5 0,E6 0}
DECL E6POS XP2020={X 1997.74,Y 5775.12,Z 440.75,A 147.967,B -33.944,C 1.614,S 6,T 27,E1 -4000,E2 0,E3 0,E4 0,E5 0,E6 0}
DECL E6POS XMP80803402={X 2011.94,Y 5798.66,Z 440.11,A 147.967,B -33.944,C 1.614,S 6,T 27,E1 -4000,E2 0,E3 0,E4 0,E5 0,E6 0}
DECL E6POS XP2025={X 2026.16,Y 5822.19,Z 439.46,A 147.967,B -33.944,C 1.614,S 6,T 27,E1 -4000,E2 0,E3 0,E4 0,E5 0,E6 0}
DECL E6POS XP2030={X 2038.48,Y 5840.18,Z 439.08,A 120.191,B -33.585,C -0.686,S 6,T 27,E1 -4000,E2 0,E3 0,E4 0,E5 0,E6 0}
DECL E6POS XMP80803403={X 2064.51,Y 5855.09,Z 439.37,A 120.191,B -33.585,C -0.686,S 6,T 27,E1 -4000,E2 0,E3 0,E4 0,E5 0,E6 0}
DECL E6POS XP2035={X 2090.54,Y 5870.01,Z 439.67,A 120.191,B -33.585,C -0.686,S 6,T 27,E1 -4000,E2 0,E3 0,E4 0,E5 0,E6 0}
DECL E6POS XP2040={X 2101.29,Y 5874.45,Z 439.86,A 90.438,B -30.327,C -3.258,S 6,T 27,E1 -4000,E2 0,E3 0,E4 0,E5 0,E6 0}
DECL E6POS XMP80803404={X 2134.37,Y 5873.43,Z 441.46,A 90.438,B -30.327,C -3.258,S 6,T 27,E1 -4000,E2 0,E3 0,E4 0,E5 0,E6 0}
DECL E6POS XP2045={X 2167.43,Y 5872.41,Z 443.06,A 90.438,B -30.327,C -3.258,S 6,T 27,E1 -4000,E2 0,E3 0,E4 0,E5 0,E6 0}
DECL E6POS XP2050={X 2247.73,Y 5907.15,Z 444.87,A 121.356,B -33.535,C -3.116,S 6,T 27,E1 -4000,E2 0,E3 0,E4 0,E5 0,E6 0}
DECL E6POS XMP80803405={X 2287.94,Y 5930.4,Z 445.33,A 121.356,B -33.535,C -3.116,S 6,T 27,E1 -4000,E2 0,E3 0,E4 0,E5 0,E6 0}
DECL E6POS XP2055={X 2329.65,Y 5954.52,Z 445.8,A 121.356,B -33.535,C -3.116,S 6,T 27,E1 -4000,E2 0,E3 0,E4 0,E5 0,E6 0}
DECL E6POS XP2060={X 2416.17,Y 6005.71,Z 333.12,A 117.5,B -33.528,C 4.722,S 6,T 27,E1 -4000,E2 0,E3 0,E4 0,E5 0,E6 0}
DECL E6POS XP2065={X 2336.86,Y 6236.3,Z 358.66,A 118.795,B -23.581,C 3.29,S 6,T 27,E1 -4000,E2 0,E3 0,E4 0,E5 0,E6 0}
DECL E6POS XP2070={X 2308.08,Y 6219.82,Z 430.29,A 120.395,B -23.591,C -0.652,S 6,T 27,E1 -4000,E2 0,E3 0,E4 0,E5 0,E6 0}
DECL E6POS XMP80903405={X 2264.82,Y 6194.8,Z 429.71,A 120.395,B -23.591,C -3.032,S 6,T 27,E1 -4000,E2 0,E3 0,E4 0,E5 0,E6 0}
DECL E6POS XP2075={X 2221.52,Y 6169.76,Z 429.14,A 120.395,B -23.591,C -0.652,S 6,T 27,E1 -4000,E2 0,E3 0,E4 0,E5 0,E6 0}
DECL E6POS XP2080={X 2139.2,Y 6137.06,Z 426.8,A 89.321,B -21.293,C -2.387,S 6,T 27,E1 -4000,E2 0,E3 0,E4 0,E5 0,E6 0}
DECL E6POS XMP80903404={X 2104.23,Y 6137.07,Z 425.09,A 89.321,B -21.293,C -2.387,S 6,T 27,E1 -4000,E2 0,E3 0,E4 0,E5 0,E6 0}
DECL E6POS XP2085={X 2069.26,Y 6137.07,Z 423.35,A 89.321,B -21.293,C -2.387,S 6,T 27,E1 -4000,E2 0,E3 0,E4 0,E5 0,E6 0}
DECL E6POS XP2090={X 2064.17,Y 6134.06,Z 423.38,A 119.636,B -23.609,C -0.153,S 6,T 27,E1 -4000,E2 0,E3 0,E4 0,E5 0,E6 0}
DECL E6POS XMP80903403={X 2038.47,Y 6119.18,Z 422.93,A 120.132,B -23.577,C -1.452,S 6,T 27,E1 -4000,E2 0,E3 0,E4 0,E5 0,E6 0}
DECL E6POS XP2095={X 2012.77,Y 6104.3,Z 422.48,A 119.636,B -23.609,C -0.153,S 6,T 27,E1 -4000,E2 0,E3 0,E4 0,E5 0,E6 0}
DECL E6POS XP2100={X 1999.21,Y 6085.39,Z 423.08,A 148.191,B -24.116,C 1.552,S 6,T 27,E1 -4000,E2 0,E3 0,E4 0,E5 0,E6 0}
DECL E6POS XMP80903402={X 1982.39,Y 6057.59,Z 423.87,A 148.191,B -24.116,C 1.552,S 6,T 27,E1 -4000,E2 0,E3 0,E4 0,E5 0,E6 0}
DECL E6POS XP2105={X 1965.57,Y 6029.8,Z 424.68,A 148.191,B -24.116,C 1.552,S 6,T 27,E1 -4000,E2 0,E3 0,E4 0,E5 0,E6 0}
DECL E6POS XP2110={X 1914.91,Y 5992.42,Z 424.52,A 120.079,B -23.594,C -0.666,S 6,T 27,E1 -4000,E2 0,E3 0,E4 0,E5 0,E6 0}
DECL E6POS XMP80903401={X 1884.98,Y 5975.1,Z 424.06,A 120.079,B -23.594,C -0.666,S 6,T 27,E1 -4000,E2 0,E3 0,E4 0,E5 0,E6 0}
DECL E6POS XP2115={X 1855.02,Y 5957.77,Z 423.6,A 120.079,B -23.594,C -0.666,S 6,T 27,E1 -4000,E2 0,E3 0,E4 0,E5 0,E6 0}
DECL E6POS XP2120={X 1988.49,Y 6040.84,Z 325.27,A 118.887,B -23.57,C 3.352,S 6,T 27,E1 -4000,E2 0,E3 0,E4 0,E5 0,E6 0}
DECL E6POS XP2125={X 1943.82,Y 6286.56,Z 230.55,A 115.892,B -33.388,C 7.638,S 6,T 27,E1 -4000,E2 0,E3 0,E4 0,E5 0,E6 0}
DECL E6POS XP2130={X 1809.96,Y 6209.56,Z 405.34,A 120.204,B -33.577,C -1.092,S 6,T 27,E1 -4000,E2 0,E3 0,E4 0,E5 0,E6 0}
DECL E6POS XMP81003401={X 1849.99,Y 6232.71,Z 406.02,A 120.204,B -33.577,C -1.092,S 6,T 27,E1 -4000,E2 0,E3 0,E4 0,E5 0,E6 0}
DECL E6POS XP2135={X 1890.12,Y 6255.93,Z 406.69,A 120.204,B -33.577,C -1.092,S 6,T 27,E1 -4000,E2 0,E3 0,E4 0,E5 0,E6 0}
DECL E6POS XP2140={X 1943.87,Y 6298.66,Z 406.76,A 148.45,B -33.584,C 2.074,S 6,T 27,E1 -4000,E2 0,E3 0,E4 0,E5 0,E6 0}
DECL E6POS XMP81003402={X 1957.79,Y 6322.37,Z 405.93,A 148.45,B -33.584,C 2.074,S 6,T 27,E1 -4000,E2 0,E3 0,E4 0,E5 0,E6 0}
DECL E6POS XP2145={X 1971.69,Y 6346.06,Z 405.11,A 148.45,B -33.584,C 2.074,S 6,T 27,E1 -4000,E2 0,E3 0,E4 0,E5 0,E6 0}
DECL E6POS XP2150={X 1982.92,Y 6363.89,Z 404.68,A 120.191,B -33.585,C -0.686,S 6,T 27,E1 -4000,E2 0,E3 0,E4 0,E5 0,E6 0}
DECL E6POS XMP81003403={X 2008.95,Y 6378.8,Z 404.98,A 120.191,B -33.585,C -0.686,S 6,T 27,E1 -4000,E2 0,E3 0,E4 0,E5 0,E6 0}
DECL E6POS XP2155={X 2034.98,Y 6393.72,Z 405.28,A 120.191,B -33.585,C -0.686,S 6,T 27,E1 -4000,E2 0,E3 0,E4 0,E5 0,E6 0}
DECL E6POS XP2160={X 2045.39,Y 6398.38,Z 405.68,A 92.247,B -28.883,C -3.474,S 6,T 27,E1 -4000,E2 0,E3 0,E4 0,E5 0,E6 0}
DECL E6POS XMP81003404={X 2078.48,Y 6398.39,Z 407.44,A 92.247,B -28.883,C -3.474,S 6,T 27,E1 -4000,E2 0,E3 0,E4 0,E5 0,E6 0}
DECL E6POS XP2165={X 2111.55,Y 6398.39,Z 409.17,A 92.247,B -28.883,C -3.474,S 6,T 27,E1 -4000,E2 0,E3 0,E4 0,E5 0,E6 0}
DECL E6POS XP2170={X 2198.58,Y 6434.36,Z 411.76,A 121.387,B -33.523,C -3.705,S 6,T 27,E1 -4000,E2 0,E3 0,E4 0,E5 0,E6 0}
DECL E6POS XMP81003405={X 2239.26,Y 6457.9,Z 412.35,A 121.387,B -33.523,C -3.705,S 6,T 27,E1 -4000,E2 0,E3 0,E4 0,E5 0,E6 0}
DECL E6POS XP2175={X 2279.95,Y 6481.43,Z 412.94,A 121.387,B -33.523,C -3.705,S 6,T 27,E1 -4000,E2 0,E3 0,E4 0,E5 0,E6 0}
DECL E6POS XP2180={X 2408.33,Y 6538.48,Z 92.57,A 114.64,B -33.254,C 9.497,S 6,T 27,E1 -4000,E2 0,E3 0,E4 0,E5 0,E6 0}
DECL E6POS XP2185={X 1105.47,Y 4685.43,Z 194.62,A 113.058,B -33.003,C 12.392,S 6,T 27,E1 -3000,E2 0,E3 0,E4 0,E5 0,E6 0}
DECL E6POS XP2190={X 850.62,Y 4544.14,Z 455.12,A 120.138,B -33.565,C -0.796,S 6,T 27,E1 -3000,E2 0,E3 0,E4 0,E5 0,E6 0}
DECL E6POS XMP80602401={X 890.68,Y 4567.3,Z 455.56,A 120.138,B -33.565,C -0.796,S 6,T 27,E1 -3000,E2 0,E3 0,E4 0,E5 0,E6 0}
DECL E6POS XP2195={X 930.84,Y 4590.52,Z 456.01,A 120.138,B -33.565,C -0.796,S 6,T 27,E1 -3000,E2 0,E3 0,E4 0,E5 0,E6 0}
DECL E6POS XP2200={X 993.54,Y 4633.29,Z 456.32,A 148.417,B -34.766,C 1.649,S 6,T 27,E1 -3000,E2 0,E3 0,E4 0,E5 0,E6 0}
DECL E6POS XMP80602402={X 1011.37,Y 4663.39,Z 455.48,A 148.417,B -34.766,C 1.649,S 6,T 27,E1 -3000,E2 0,E3 0,E4 0,E5 0,E6 0}
DECL E6POS XP2205={X 1029.2,Y 4693.5,Z 454.65,A 148.417,B -34.766,C 1.649,S 6,T 27,E1 -3000,E2 0,E3 0,E4 0,E5 0,E6 0}
DECL E6POS XP2210={X 1047.68,Y 4714.9,Z 454.33,A 120.184,B -33.586,C 0.475,S 6,T 27,E1 -3000,E2 0,E3 0,E4 0,E5 0,E6 0}
DECL E6POS XMP80602403={X 1071.4,Y 4728.82,Z 454.59,A 120.184,B -33.586,C 0.475,S 6,T 27,E1 -3000,E2 0,E3 0,E4 0,E5 0,E6 0}
DECL E6POS XP2215={X 1095.11,Y 4742.74,Z 454.86,A 120.184,B -33.586,C 0.475,S 6,T 27,E1 -3000,E2 0,E3 0,E4 0,E5 0,E6 0}
DECL E6POS XP2220={X 1107.56,Y 4747.77,Z 455.04,A 91.877,B -31.367,C -3.037,S 6,T 27,E1 -3000,E2 0,E3 0,E4 0,E5 0,E6 0}
DECL E6POS XMP80602404={X 1143.36,Y 4747.83,Z 456.49,A 91.877,B -31.367,C -3.037,S 6,T 27,E1 -3000,E2 0,E3 0,E4 0,E5 0,E6 0}
DECL E6POS XP2225={X 1179.17,Y 4747.9,Z 457.93,A 91.877,B -31.367,C -3.037,S 6,T 27,E1 -3000,E2 0,E3 0,E4 0,E5 0,E6 0}
DECL E6POS XP2230={X 1303.58,Y 4806.1,Z 461.37,A 120.649,B -33.566,C -0.637,S 6,T 27,E1 -3000,E2 0,E3 0,E4 0,E5 0,E6 0}
DECL E6POS XMP80602405={X 1343.68,Y 4829.29,Z 461.75,A 121.368,B -33.557,C -1.033,S 6,T 27,E1 -3000,E2 0,E3 0,E4 0,E5 0,E6 0}
DECL E6POS XP2235={X 1383.74,Y 4852.45,Z 462.13,A 120.649,B -33.566,C -0.637,S 6,T 27,E1 -3000,E2 0,E3 0,E4 0,E5 0,E6 0}
DECL E6POS XP2240={X 1443.59,Y 4890.74,Z 361.44,A 117.443,B -33.524,C 4.825,S 6,T 27,E1 -3000,E2 0,E3 0,E4 0,E5 0,E6 0}
DECL E6POS XP2245={X 1397.54,Y 5137.71,Z 376.54,A 118.795,B -23.581,C 3.29,S 6,T 27,E1 -3000,E2 0,E3 0,E4 0,E5 0,E6 0}
DECL E6POS XP2250={X 1363.85,Y 5118.39,Z 448.2,A 120.485,B -23.588,C -0.827,S 6,T 27,E1 -3000,E2 0,E3 0,E4 0,E5 0,E6 0}
DECL E6POS XMP80702405={X 1320.35,Y 5093.24,Z 447.69,A 120.485,B -23.588,C -0.827,S 6,T 27,E1 -3000,E2 0,E3 0,E4 0,E5 0,E6 0}
DECL E6POS XP2255={X 1277.08,Y 5068.22,Z 447.17,A 120.485,B -23.588,C -0.827,S 6,T 27,E1 -3000,E2 0,E3 0,E4 0,E5 0,E6 0}
DECL E6POS XP2260={X 1158.26,Y 5015.55,Z 443.34,A 90.452,B -21.185,C -2.217,S 6,T 27,E1 -3000,E2 0,E3 0,E4 0,E5 0,E6 0}
DECL E6POS XMP80702404={X 1123.28,Y 5014.84,Z 441.72,A 90.452,B -21.185,C -2.217,S 6,T 27,E1 -3000,E2 0,E3 0,E4 0,E5 0,E6 0}
DECL E6POS XP2265={X 1088.32,Y 5014.11,Z 440.09,A 90.452,B -21.185,C -2.217,S 6,T 27,E1 -3000,E2 0,E3 0,E4 0,E5 0,E6 0}
DECL E6POS XP2270={X 1081.7,Y 5011.4,Z 440.08,A 119.667,B -23.585,C -0.012,S 6,T 27,E1 -3000,E2 0,E3 0,E4 0,E5 0,E6 0}
DECL E6POS XMP80702403={X 1056.01,Y 4996.48,Z 439.69,A 121.019,B -23.557,C -0.181,S 6,T 27,E1 -3000,E2 0,E3 0,E4 0,E5 0,E6 0}
DECL E6POS XP2275={X 1030.34,Y 4981.57,Z 439.3,A 119.667,B -23.585,C -0.012,S 6,T 27,E1 -3000,E2 0,E3 0,E4 0,E5 0,E6 0}
DECL E6POS XP2280={X 1015.76,Y 4964.75,Z 439.65,A 147.614,B -24.174,C 1.468,S 6,T 27,E1 -3000,E2 0,E3 0,E4 0,E5 0,E6 0}
DECL E6POS XMP80702402={X 997.34,Y 4934.99,Z 440.46,A 147.614,B -24.174,C 1.468,S 6,T 27,E1 -3000,E2 0,E3 0,E4 0,E5 0,E6 0}
DECL E6POS XP2285={X 978.91,Y 4905.25,Z 441.3,A 147.614,B -24.174,C 1.468,S 6,T 27,E1 -3000,E2 0,E3 0,E4 0,E5 0,E6 0}
DECL E6POS XP2290={X 917.18,Y 4860.01,Z 441.07,A 120.47,B -23.613,C -0.321,S 6,T 27,E1 -3000,E2 0,E3 0,E4 0,E5 0,E6 0}
DECL E6POS XMP80702401={X 887.33,Y 4842.75,Z 440.67,A 120.47,B -23.613,C -0.321,S 6,T 27,E1 -3000,E2 0,E3 0,E4 0,E5 0,E6 0}
DECL E6POS XP2295={X 857.64,Y 4825.58,Z 440.26,A 120.47,B -23.613,C -0.321,S 6,T 27,E1 -3000,E2 0,E3 0,E4 0,E5 0,E6 0}
DECL E6POS XP2300={X 910.28,Y 4865.47,Z 333.91,A 117.984,B -23.53,C 6.126,S 6,T 27,E1 -3000,E2 0,E3 0,E4 0,E5 0,E6 0}
DECL E6POS XP2305={X 957.64,Y 5160.62,Z 248.41,A 115.892,B -33.388,C 7.638,S 6,T 27,E1 -3000,E2 0,E3 0,E4 0,E5 0,E6 0}
DECL E6POS XP2310={X 823.95,Y 5083.62,Z 423.36,A 120.204,B -33.577,C -1.092,S 6,T 27,E1 -3000,E2 0,E3 0,E4 0,E5 0,E6 0}
DECL E6POS XMP80802401={X 863.88,Y 5106.71,Z 423.99,A 120.204,B -33.577,C -1.241,S 6,T 27,E1 -3000,E2 0,E3 0,E4 0,E5 0,E6 0}
DECL E6POS XP2315={X 904.14,Y 5130.01,Z 424.62,A 120.204,B -33.577,C -1.092,S 6,T 27,E1 -3000,E2 0,E3 0,E4 0,E5 0,E6 0}
DECL E6POS XP2320={X 963.96,Y 5176.07,Z 424.75,A 148.227,B -34.397,C 1.785,S 6,T 27,E1 -3000,E2 0,E3 0,E4 0,E5 0,E6 0}
DECL E6POS XMP80802402={X 978.02,Y 5199.69,Z 424.03,A 148.227,B -34.397,C 1.785,S 6,T 27,E1 -3000,E2 0,E3 0,E4 0,E5 0,E6 0}
DECL E6POS XP2325={X 992.09,Y 5223.31,Z 423.33,A 148.227,B -34.397,C 1.785,S 6,T 27,E1 -3000,E2 0,E3 0,E4 0,E5 0,E6 0}
DECL E6POS XP2330={X 1010.62,Y 5248.43,Z 422.81,A 120.191,B -33.585,C -0.686,S 6,T 27,E1 -3000,E2 0,E3 0,E4 0,E5 0,E6 0}
DECL E6POS XMP80802403={X 1036.66,Y 5263.34,Z 423.11,A 120.191,B -33.585,C -0.686,S 6,T 27,E1 -3000,E2 0,E3 0,E4 0,E5 0,E6 0}
DECL E6POS XP2335={X 1062.68,Y 5278.25,Z 423.41,A 120.191,B -33.585,C -0.686,S 6,T 27,E1 -3000,E2 0,E3 0,E4 0,E5 0,E6 0}
DECL E6POS XP2340={X 1074.25,Y 5282.75,Z 423.98,A 93.027,B -30.593,C -3.016,S 6,T 27,E1 -3000,E2 0,E3 0,E4 0,E5 0,E6 0}
DECL E6POS XMP80802404={X 1107.34,Y 5283.29,Z 425.45,A 93.027,B -30.593,C -3.016,S 6,T 27,E1 -3000,E2 0,E3 0,E4 0,E5 0,E6 0}
DECL E6POS XP2345={X 1140.43,Y 5283.83,Z 426.93,A 93.027,B -30.593,C -3.016,S 6,T 27,E1 -3000,E2 0,E3 0,E4 0,E5 0,E6 0}
DECL E6POS XP2350={X 1272.05,Y 5342.88,Z 431.6,A 121.356,B -33.535,C -3.116,S 6,T 27,E1 -3000,E2 0,E3 0,E4 0,E5 0,E6 0}
DECL E6POS XMP80802405={X 1312.45,Y 5366.24,Z 432.15,A 121.356,B -33.535,C -3.116,S 6,T 27,E1 -3000,E2 0,E3 0,E4 0,E5 0,E6 0}
DECL E6POS XP2355={X 1353.74,Y 5390.12,Z 432.72,A 121.356,B -33.535,C -3.116,S 6,T 27,E1 -3000,E2 0,E3 0,E4 0,E5 0,E6 0}
DECL E6POS XP2360={X 1438.08,Y 5445.78,Z 318.85,A 117.5,B -33.528,C 4.722,S 6,T 27,E1 -3000,E2 0,E3 0,E4 0,E5 0,E6 0}
DECL E6POS XP2365={X 1354.35,Y 5668,Z 343.7,A 118.795,B -23.581,C 3.29,S 6,T 27,E1 -3000,E2 0,E3 0,E4 0,E5 0,E6 0}
DECL E6POS XP2370={X 1325.59,Y 5651.54,Z 415.42,A 120.395,B -23.591,C -0.652,S 6,T 27,E1 -3000,E2 0,E3 0,E4 0,E5 0,E6 0}
DECL E6POS XMP80902405={X 1282.3,Y 5626.49,Z 414.75,A 120.395,B -23.591,C -3.032,S 6,T 27,E1 -3000,E2 0,E3 0,E4 0,E5 0,E6 0}
DECL E6POS XP2375={X 1238.98,Y 5601.43,Z 413.93,A 120.395,B -23.591,C -0.652,S 6,T 27,E1 -3000,E2 0,E3 0,E4 0,E5 0,E6 0}
DECL E6POS XP2380={X 1126.07,Y 5551.58,Z 409.66,A 90.002,B -21.34,C -2.717,S 6,T 27,E1 -3000,E2 0,E3 0,E4 0,E5 0,E6 0}
DECL E6POS XMP80902404={X 1091.11,Y 5551.24,Z 407.76,A 90.002,B -21.34,C -2.717,S 6,T 27,E1 -3000,E2 0,E3 0,E4 0,E5 0,E6 0}
DECL E6POS XP2385={X 1056.15,Y 5550.91,Z 405.84,A 90.002,B -21.34,C -2.717,S 6,T 27,E1 -3000,E2 0,E3 0,E4 0,E5 0,E6 0}
DECL E6POS XP2390={X 1047.03,Y 5546.97,Z 405.64,A 119.636,B -23.609,C -0.153,S 6,T 27,E1 -3000,E2 0,E3 0,E4 0,E5 0,E6 0}
DECL E6POS XMP80902403={X 1021.32,Y 5532.09,Z 405.18,A 120.132,B -23.577,C -1.452,S 6,T 27,E1 -3000,E2 0,E3 0,E4 0,E5 0,E6 0}
DECL E6POS XP2395={X 995.63,Y 5517.21,Z 404.72,A 119.636,B -23.609,C -0.153,S 6,T 27,E1 -3000,E2 0,E3 0,E4 0,E5 0,E6 0}
DECL E6POS XP2400={X 981.65,Y 5502.22,Z 404.82,A 148.804,B -23.921,C 2.07,S 6,T 27,E1 -3000,E2 0,E3 0,E4 0,E5 0,E6 0}
DECL E6POS XMP80902402={X 965.24,Y 5474.19,Z 405.91,A 148.804,B -23.921,C 2.07,S 6,T 27,E1 -3000,E2 0,E3 0,E4 0,E5 0,E6 0}
DECL E6POS XP2405={X 948.82,Y 5446.16,Z 406.97,A 148.804,B -23.921,C 2.07,S 6,T 27,E1 -3000,E2 0,E3 0,E4 0,E5 0,E6 0}
DECL E6POS XP2410={X 871.67,Y 5388.88,Z 406.42,A 120.079,B -23.594,C -0.666,S 6,T 27,E1 -3000,E2 0,E3 0,E4 0,E5 0,E6 0}
DECL E6POS XMP80902401={X 841.81,Y 5371.6,Z 405.9,A 120.079,B -23.594,C -0.666,S 6,T 27,E1 -3000,E2 0,E3 0,E4 0,E5 0,E6 0}
DECL E6POS XP2415={X 811.42,Y 5354.02,Z 405.36,A 120.079,B -23.594,C -0.666,S 6,T 27,E1 -3000,E2 0,E3 0,E4 0,E5 0,E6 0}
DECL E6POS XP2420={X 944.31,Y 5441.96,Z 306.85,A 118.887,B -23.57,C 3.352,S 6,T 27,E1 -3000,E2 0,E3 0,E4 0,E5 0,E6 0}
DECL E6POS XP2425={X 924.08,Y 5696.57,Z 211.18,A 115.892,B -33.388,C 7.638,S 6,T 27,E1 -3000,E2 0,E3 0,E4 0,E5 0,E6 0}
DECL E6POS XP2430={X 790.1,Y 5619.46,Z 385.91,A 120.204,B -33.577,C -1.092,S 6,T 27,E1 -3000,E2 0,E3 0,E4 0,E5 0,E6 0}
DECL E6POS XMP81002401={X 830.24,Y 5642.72,Z 386.66,A 120.204,B -33.577,C -1.092,S 6,T 27,E1 -3000,E2 0,E3 0,E4 0,E5 0,E6 0}
DECL E6POS XP2435={X 870.57,Y 5666.02,Z 387.46,A 120.204,B -33.577,C -1.092,S 6,T 27,E1 -3000,E2 0,E3 0,E4 0,E5 0,E6 0}
DECL E6POS XP2440={X 929.32,Y 5710.68,Z 387.84,A 148.39,B -33.848,C 2.411,S 6,T 27,E1 -3000,E2 0,E3 0,E4 0,E5 0,E6 0}
DECL E6POS XMP81002402={X 943.18,Y 5734.41,Z 386.88,A 148.39,B -33.848,C 2.411,S 6,T 27,E1 -3000,E2 0,E3 0,E4 0,E5 0,E6 0}
DECL E6POS XP2445={X 957.02,Y 5758.15,Z 385.91,A 148.39,B -33.848,C 2.411,S 6,T 27,E1 -3000,E2 0,E3 0,E4 0,E5 0,E6 0}
DECL E6POS XP2450={X 978.17,Y 5785.72,Z 385.53,A 120.191,B -33.585,C -0.686,S 6,T 27,E1 -3000,E2 0,E3 0,E4 0,E5 0,E6 0}
DECL E6POS XMP81002403={X 1004.18,Y 5800.64,Z 385.83,A 120.191,B -33.585,C -0.686,S 6,T 27,E1 -3000,E2 0,E3 0,E4 0,E5 0,E6 0}
DECL E6POS XP2455={X 1030.23,Y 5815.55,Z 386.13,A 120.191,B -33.585,C -0.686,S 6,T 27,E1 -3000,E2 0,E3 0,E4 0,E5 0,E6 0}
DECL E6POS XP2460={X 1040.7,Y 5820.17,Z 386.58,A 92.099,B -30.525,C -4.096,S 6,T 27,E1 -3000,E2 0,E3 0,E4 0,E5 0,E6 0}
DECL E6POS XMP81002404={X 1073.77,Y 5819.85,Z 388.59,A 92.099,B -30.525,C -4.096,S 6,T 27,E1 -3000,E2 0,E3 0,E4 0,E5 0,E6 0}
DECL E6POS XP2465={X 1106.83,Y 5819.54,Z 390.61,A 92.099,B -30.525,C -4.096,S 6,T 27,E1 -3000,E2 0,E3 0,E4 0,E5 0,E6 0}
DECL E6POS XP2470={X 1225.28,Y 5871.32,Z 395.43,A 121.387,B -33.523,C -2.304,S 6,T 27,E1 -3000,E2 0,E3 0,E4 0,E5 0,E6 0}
DECL E6POS XMP81002405={X 1265.75,Y 5894.73,Z 396.12,A 121.387,B -33.523,C -2.304,S 6,T 27,E1 -3000,E2 0,E3 0,E4 0,E5 0,E6 0}
DECL E6POS XP2475={X 1306.92,Y 5918.54,Z 396.82,A 121.387,B -33.523,C -2.304,S 6,T 27,E1 -3000,E2 0,E3 0,E4 0,E5 0,E6 0}
DECL E6POS XP2480={X 1451.84,Y 6005.52,Z 180.97,A 116.18,B -33.419,C 7.116,S 6,T 27,E1 -3000,E2 0,E3 0,E4 0,E5 0,E6 0}
DECL E6POS XP2485={X 1844.9,Y 6243.79,Z -1031.84,A 103.333,B -29.629,C 31.407,S 6,T 27,E1 -3000,E2 0,E3 0,E4 0,E5 0,E6 0}
