DECL E6POS Xp5={X 6110.484353353,Y 1871.6864729,Z -1352.804315944,A 18.800907146,B -34.209531969,C -34.594815948,S 0,T 0,E1 0,E2 0,E3 0,E4 0,E5 0,E6 0}
DECL E6POS XVorpos_Str_1_6={X 2955.202882196,Y 6882.717936585,Z 4390.50260414,A 179.701654854,B -6.846840308,C 115.837054166,S 0,T 0,E1 0,E2 0,E3 0,E4 0,E5 0,E6 0}
DECL E6POS XVorpos_Str_7_9={X 4177.746134362,Y 17671.626931341,Z 23540.82143833,A -179.468292322,B -3.755356423,C 108.935794445,S 0,T 0,E1 0,E2 0,E3 0,E4 0,E5 0,E6 0}
DECL E6POS XP5_S09={X 1861.272198642,Y 33333.420033041,Z 1461.804899862,A 177.936487342,B 89.207791337,C 175.500781248,S 0,T 0,E1 0,E2 0,E3 0,E4 0,E5 0,E6 0}
DECL E6POS XP10_S09={X 2060.995820185,Y 33342.150760307,Z 1455.642768767,A 179.599719562,B 88.799008547,C 177.765767657,S 0,T 0,E1 0,E2 0,E3 0,E4 0,E5 0,E6 0}
DECL E6POS XE_S09_5={X 2101.118393026,Y 33338.761354229,Z 1454.85641539,A -179.743704377,B 88.792431059,C -178.04383606,S 0,T 0,E1 0,E2 0,E3 0,E4 0,E5 0,E6 0}
DECL E6POS XE_S09_10={X 2101.807800191,Y 33274.382359578,Z 1454.851082071,A -179.797403364,B 88.502517579,C -178.030524433,S 0,T 0,E1 0,E2 0,E3 0,E4 0,E5 0,E6 0}
DECL E6POS XE_S09_15={X 2103.04624723,Y 33205.657477991,Z 1454.815058479,A -179.935162457,B 88.40301161,C -178.568111126,S 0,T 0,E1 0,E2 0,E3 0,E4 0,E5 0,E6 0}
DECL E6POS XE_S09_20={X 2105.598803872,Y 33145.750598871,Z 1454.758812578,A -179.689860472,B 88.503853975,C -179.223883913,S 0,T 0,E1 0,E2 0,E3 0,E4 0,E5 0,E6 0}
DECL E6POS XE_S09_25={X 2110.942741317,Y 32895.728134246,Z 1455.251168793,A 179.883113299,B 88.502310443,C -178.601583028,S 0,T 0,E1 0,E2 0,E3 0,E4 0,E5 0,E6 0}
DECL E6POS XE_S09_30={X 2115.24267068,Y 32645.740495984,Z 1455.0836101,A 179.867684562,B 88.403058449,C -178.816966673,S 0,T 0,E1 0,E2 0,E3 0,E4 0,E5 0,E6 0}
DECL E6POS XE_S09_35={X 2119.516365008,Y 32395.79700088,Z 1454.91931363,A 179.806352157,B 88.402051068,C -178.778252502,S 0,T 0,E1 0,E2 0,E3 0,E4 0,E5 0,E6 0}
DECL E6POS XE_S09_40={X 2123.751291125,Y 32145.799214378,Z 1454.732546876,A 179.519946226,B 88.502935021,C -179.030073243,S 0,T 0,E1 0,E2 0,E3 0,E4 0,E5 0,E6 0}
DECL E6POS XE_S09_45={X 2127.840598798,Y 31895.882960545,Z 1455.099797691,A -179.834281768,B 88.002341207,C -178.383315806,S 0,T 0,E1 0,E2 0,E3 0,E4 0,E5 0,E6 0}
DECL E6POS XE_S09_50={X 2132.00312656,Y 31645.894259035,Z 1454.923672752,A -179.785586673,B 88.002346988,C -178.435674779,S 0,T 0,E1 0,E2 0,E3 0,E4 0,E5 0,E6 0}
DECL E6POS XE_S09_55={X 2133.758952003,Y 31538.931747656,Z 1454.870070303,A -179.834500918,B 88.002338459,C -178.383533577,S 0,T 0,E1 0,E2 0,E3 0,E4 0,E5 0,E6 0}
DECL E6POS XE_S09_60={X 2134.272928377,Y 31508.911747897,Z 1454.836856549,A -179.785438148,B 88.002339157,C -178.435527954,S 0,T 0,E1 0,E2 0,E3 0,E4 0,E5 0,E6 0}
DECL E6POS XE_S09_65={X 2134.423492055,Y 31498.887572188,Z 1454.822277989,A -179.876440331,B 88.001166621,C -177.782523108,S 0,T 0,E1 0,E2 0,E3 0,E4 0,E5 0,E6 0}
DECL E6POS XE_S09_70={X 2134.055813431,Y 31456.049726935,Z 1454.812146131,A 179.391463411,B 88.000205082,C -177.71473257,S 0,T 0,E1 0,E2 0,E3 0,E4 0,E5 0,E6 0}
DECL E6POS XE_S09_75={X 2134.117053822,Y 31440.899584126,Z 1454.802184733,A -179.819169105,B 88.001352068,C -178.446211776,S 0,T 0,E1 0,E2 0,E3 0,E4 0,E5 0,E6 0}
DECL E6POS XE_S09_80={X 2134.6080711,Y 31410.5544015,Z 1454.784420573,A -179.819276593,B 88.001355454,C -178.446323523,S 0,T 0,E1 0,E2 0,E3 0,E4 0,E5 0,E6 0}
DECL E6POS XE_S09_85={X 2138.79726565,Y 31145.964156178,Z 1454.60896285,A 179.843489244,B 88.300422829,C -178.566008215,S 0,T 0,E1 0,E2 0,E3 0,E4 0,E5 0,E6 0}
DECL E6POS XE_S09_90={X 2142.732437727,Y 30896.038199214,Z 1454.381887916,A -179.782837521,B 87.701535483,C -178.291323862,S 0,T 0,E1 0,E2 0,E3 0,E4 0,E5 0,E6 0}
DECL E6POS XE_S09_95={X 2146.970356243,Y 30628.831782114,Z 1454.18728533,A -179.775242657,B 87.701497445,C -178.183753354,S 0,T 0,E1 0,E2 0,E3 0,E4 0,E5 0,E6 0}
DECL E6POS XE_S09_100={X 2147.2869727,Y 30608.24960772,Z 1454.173853752,A -179.775336352,B 87.701500124,C -178.183846609,S 0,T 0,E1 0,E2 0,E3 0,E4 0,E5 0,E6 0}
DECL E6POS XE_S09_105={X 2150.728292854,Y 30396.10142968,Z 1454.050073745,A -179.850818201,B 87.801578136,C -178.335152521,S 0,T 0,E1 0,E2 0,E3 0,E4 0,E5 0,E6 0}
DECL E6POS XE_S09_110={X 2152.922027646,Y 30238.200251354,Z 1453.638614745,A -179.789159961,B 87.900541138,C -178.248530033,S 0,T 0,E1 0,E2 0,E3 0,E4 0,E5 0,E6 0}
DECL E6POS XE_S09_115={X 2153.531873927,Y 30208.200620164,Z 1453.519793013,A -179.699567317,B 87.800474929,C -178.158126902,S 0,T 0,E1 0,E2 0,E3 0,E4 0,E5 0,E6 0}
DECL E6POS XE_S09_120={X 2153.796112566,Y 30198.302711665,Z 1453.540039519,A 177.393261746,B 87.806172501,C -179.138316623,S 0,T 0,E1 0,E2 0,E3 0,E4 0,E5 0,E6 0}
DECL E6POS XE_S09_125={X 2153.321950685,Y 30193.023410903,Z 1453.531619172,A 176.266100603,B 87.802749896,C -176.776351906,S 0,T 0,E1 0,E2 0,E3 0,E4 0,E5 0,E6 0}
DECL E6POS XE_S09_130={X 2148.463928348,Y 30136.1840154,Z 1453.568768932,A 176.264955919,B 87.80185484,C -176.477534323,S 0,T 0,E1 0,E2 0,E3 0,E4 0,E5 0,E6 0}
DECL E6POS XE_S09_135={X 2147.730169606,Y 30128.353263649,Z 1453.571016837,A 176.878675456,B 87.799904538,C -176.069687922,S 0,T 0,E1 0,E2 0,E3 0,E4 0,E5 0,E6 0}
DECL E6POS XE_S09_140={X 2148.015272317,Y 30114.364854586,Z 1453.557832212,A -179.973842682,B 87.900602436,C -178.322964901,S 0,T 0,E1 0,E2 0,E3 0,E4 0,E5 0,E6 0}
DECL E6POS XE_S09_145={X 2150.335915186,Y 29961.391501913,Z 1453.461605301,A -179.9632019,B 87.900663539,C -178.512307217,S 0,T 0,E1 0,E2 0,E3 0,E4 0,E5 0,E6 0}
DECL E6POS XE_S09_150={X 2151.79769705,Y 29896.398214867,Z 1453.417836202,A -179.973842561,B 87.900602796,C -178.322964662,S 0,T 0,E1 0,E2 0,E3 0,E4 0,E5 0,E6 0}
DECL E6POS XE_S09_155={X 2155.515551486,Y 29646.429080781,Z 1453.053565667,A 179.900161634,B 88.101028814,C -178.54865438,S 0,T 0,E1 0,E2 0,E3 0,E4 0,E5 0,E6 0}
DECL E6POS XE_S09_160={X 2159.418164257,Y 29381.206759287,Z 1452.891182424,A 179.830812571,B 88.200047324,C -178.59787345,S 0,T 0,E1 0,E2 0,E3 0,E4 0,E5 0,E6 0}
DECL E6POS XE_S09_165={X 2160.921183261,Y 29276.295839706,Z 1452.721634516,A 179.894868077,B 88.101023064,C -178.533947973,S 0,T 0,E1 0,E2 0,E3 0,E4 0,E5 0,E6 0}
DECL E6POS XE_S09_170={X 2162.826588809,Y 29146.452019973,Z 1452.72812447,A 179.744237327,B 88.003246907,C -178.659051908,S 0,T 0,E1 0,E2 0,E3 0,E4 0,E5 0,E6 0}
DECL E6POS XE_S09_175={X 2166.267998317,Y 28896.519588724,Z 1452.602100029,A 179.949609356,B 88.101600631,C -178.254331135,S 0,T 0,E1 0,E2 0,E3 0,E4 0,E5 0,E6 0}
DECL E6POS XE_S09_180={X 2169.790215147,Y 28646.547252791,Z 1452.435270532,A -179.978309819,B 88.101632971,C -178.382305638,S 0,T 0,E1 0,E2 0,E3 0,E4 0,E5 0,E6 0}
DECL E6POS XE_S09_185={X 2172.252247644,Y 28456.559187583,Z 1452.321481236,A -179.999156018,B 88.101605739,C -178.303145437,S 0,T 0,E1 0,E2 0,E3 0,E4 0,E5 0,E6 0}
DECL E6POS XE_S09_190={X 2172.782406568,Y 28396.573646477,Z 1452.289714109,A 179.986346306,B 88.101633545,C -178.391607003,S 0,T 0,E1 0,E2 0,E3 0,E4 0,E5 0,E6 0}
DECL E6POS XE_S09_195={X 2175.486823255,Y 28142.590347608,Z 1452.145032695,A 179.173712595,B 88.101446962,C -177.779407262,S 0,T 0,E1 0,E2 0,E3 0,E4 0,E5 0,E6 0}
DECL E6POS XE_S09_200={X 2176.667623909,Y 28044.613920779,Z 1452.084651052,A 179.800108298,B 88.10269031,C -178.552598803,S 0,T 0,E1 0,E2 0,E3 0,E4 0,E5 0,E6 0}
DECL E6POS XE_S09_205={X 2177.152623219,Y 28014.614284178,Z 1452.064215126,A 179.800108149,B 88.10268972,C -178.552597699,S 0,T 0,E1 0,E2 0,E3 0,E4 0,E5 0,E6 0}
DECL E6POS XE_S09_210={X 2177.107620884,Y 28000.785185713,Z 1452.05028897,A 178.190571703,B 88.098217719,C -175.797774396,S 0,T 0,E1 0,E2 0,E3 0,E4 0,E5 0,E6 0}
DECL E6POS XE_S09_215={X 2176.36049623,Y 27996.082906458,Z 1452.051574232,A 177.632981972,B 88.098186349,C -174.989864902,S 0,T 0,E1 0,E2 0,E3 0,E4 0,E5 0,E6 0}
DECL E6POS XE_S09_220={X 2176.362555888,Y 27982.616803453,Z 1452.055478767,A 179.792283419,B 88.102722383,C -178.666392425,S 0,T 0,E1 0,E2 0,E3 0,E4 0,E5 0,E6 0}
DECL E6POS XE_S09_225={X 2178.166247843,Y 27896.67633271,Z 1452.338494462,A 177.872446646,B 88.583192079,C 179.566658399,S 0,T 0,E1 0,E2 0,E3 0,E4 0,E5 0,E6 0}
DECL E6POS XE_S09_230={X 2180.984987571,Y 27646.659125795,Z 1451.849828542,A -179.72327497,B 88.501839775,C -177.773229503,S 0,T 0,E1 0,E2 0,E3 0,E4 0,E5 0,E6 0}
DECL E6POS XE_S09_235={X 2184.276142954,Y 27396.6553408,Z 1451.679864331,A -179.691659436,B 88.501785958,C -177.641656388,S 0,T 0,E1 0,E2 0,E3 0,E4 0,E5 0,E6 0}
DECL E6POS XE_S09_240={X 2184.309258905,Y 27334.450092455,Z 1451.65655444,A -179.620641658,B 88.499288987,C -176.347777173,S 0,T 0,E1 0,E2 0,E3 0,E4 0,E5 0,E6 0}
DECL E6POS XE_S09_245={X 2186.392796268,Y 27171.528357738,Z 1451.574285154,A -179.724597432,B 88.501822467,C -177.752552504,S 0,T 0,E1 0,E2 0,E3 0,E4 0,E5 0,E6 0}
DECL E6POS XE_S09_250={X 2188.177894521,Y 27032.523836939,Z 1451.482386125,A -179.680092797,B 88.501850475,C -177.80809755,S 0,T 0,E1 0,E2 0,E3 0,E4 0,E5 0,E6 0}
DECL E6POS XE_S09_255={X 2188.532724284,Y 27002.524009273,Z 1451.470456615,A -179.894448343,B 88.70086492,C -177.823067947,S 0,T 0,E1 0,E2 0,E3 0,E4 0,E5 0,E6 0}
DECL E6POS XE_S09_260={X 2188.979953888,Y 26988.696505258,Z 1451.448842555,A -178.494657798,B 88.704129784,C 179.071485694,S 0,T 0,E1 0,E2 0,E3 0,E4 0,E5 0,E6 0}
DECL E6POS XE_S09_265={X 2189.654883638,Y 26983.901137757,Z 1451.454959565,A -179.097231216,B 88.705674259,C 178.277556185,S 0,T 0,E1 0,E2 0,E3 0,E4 0,E5 0,E6 0}
DECL E6POS XE_S09_270={X 2189.928917128,Y 26972.555787132,Z 1451.431859737,A -179.931249054,B 88.70091945,C -177.959822296,S 0,T 0,E1 0,E2 0,E3 0,E4 0,E5 0,E6 0}
DECL E6POS XE_S09_275={X 2190.842132134,Y 26896.778186111,Z 1451.383179062,A -179.815634548,B 88.600901966,C -177.920406038,S 0,T 0,E1 0,E2 0,E3 0,E4 0,E5 0,E6 0}
DECL E6POS XE_S09_280={X 2193.903598028,Y 26646.799496536,Z 1451.746725994,A 179.84361366,B 88.400995018,C -178.260006063,S 0,T 0,E1 0,E2 0,E3 0,E4 0,E5 0,E6 0}
DECL E6POS XE_S09_285={X 2196.985124773,Y 26396.800839047,Z 1451.589634914,A 179.8550035,B 88.401957496,C -178.148649001,S 0,T 0,E1 0,E2 0,E3 0,E4 0,E5 0,E6 0}
DECL E6POS XE_S09_290={X 2200.076390466,Y 26146.804349647,Z 1451.412505002,A 179.995416496,B 88.302568046,C -178.308490897,S 0,T 0,E1 0,E2 0,E3 0,E4 0,E5 0,E6 0}
DECL E6POS XE_S09_295={X 2201.590825935,Y 25980.989493411,Z 1451.444154144,A -178.795893452,B 88.501159448,C -176.793898628,S 0,T 0,E1 0,E2 0,E3 0,E4 0,E5 0,E6 0}
DECL E6POS XE_S09_300={X 2202.326098581,Y 25950.990061507,Z 1451.418791725,A -178.795751009,B 88.501157184,C -176.793753252,S 0,T 0,E1 0,E2 0,E3 0,E4 0,E5 0,E6 0}
DECL E6POS XE_S09_305={X 2202.493591377,Y 25940.819851043,Z 1451.373305737,A -175.062521576,B 88.565192865,C -173.28865388,S 0,T 0,E1 0,E2 0,E3 0,E4 0,E5 0,E6 0}
DECL E6POS XE_S09_310={X 2202.567545381,Y 25935.805080437,Z 1451.408190077,A -176.52960823,B 88.559975434,C 179.820240147,S 0,T 0,E1 0,E2 0,E3 0,E4 0,E5 0,E6 0}
DECL E6POS XE_S09_315={X 2210.698558464,Y 25866.856674888,Z 1451.264521732,A -176.374859204,B 88.507541992,C 179.921675143,S 0,T 0,E1 0,E2 0,E3 0,E4 0,E5 0,E6 0}
DECL E6POS XE_S09_320={X 2211.635064178,Y 25858.228021004,Z 1451.224529162,A -176.042492435,B 88.499679444,C -175.443850687,S 0,T 0,E1 0,E2 0,E3 0,E4 0,E5 0,E6 0}
DECL E6POS XE_S09_325={X 2211.711187253,Y 25849.341378328,Z 1451.250123011,A -179.299421147,B 88.503555454,C -177.363843483,S 0,T 0,E1 0,E2 0,E3 0,E4 0,E5 0,E6 0}
DECL E6POS XE_S09_330={X 2214.090764993,Y 25647.350024891,Z 1451.123084077,A -179.237126263,B 88.502423151,C -177.114600833,S 0,T 0,E1 0,E2 0,E3 0,E4 0,E5 0,E6 0}
DECL E6POS XE_S09_335={X 2215.397355582,Y 25521.942090041,Z 1451.064077517,A 179.684313517,B 88.504894125,C -178.25291814,S 0,T 0,E1 0,E2 0,E3 0,E4 0,E5 0,E6 0}
DECL E6POS XE_S09_340={X 2215.316392055,Y 25515.171239565,Z 1451.058161748,A 179.367300821,B 88.484035463,C -176.937385669,S 0,T 0,E1 0,E2 0,E3 0,E4 0,E5 0,E6 0}
DECL E6POS XE_S09_345={X 2214.729752161,Y 25497.848595706,Z 1451.05022679,A 179.702870456,B 88.546196608,C -175.328016257,S 0,T 0,E1 0,E2 0,E3 0,E4 0,E5 0,E6 0}
DECL E6POS XE_S09_350={X 2214.559847383,Y 25485.94040797,Z 1451.056626806,A 179.762158321,B 88.504731492,C -177.885128028,S 0,T 0,E1 0,E2 0,E3 0,E4 0,E5 0,E6 0}
DECL E6POS XE_S09_355={X 2215.2384415,Y 25417.395488336,Z 1451.009337285,A -179.535255379,B 88.503572934,C -177.359377002,S 0,T 0,E1 0,E2 0,E3 0,E4 0,E5 0,E6 0}
DECL E6POS XE_S09_360={X 2214.886527481,Y 25373.379474421,Z 1450.996464219,A -179.329375715,B 88.500940109,C -176.176628639,S 0,T 0,E1 0,E2 0,E3 0,E4 0,E5 0,E6 0}
DECL E6POS XE_S09_365={X 2216.425574357,Y 25245.335004443,Z 1450.304765439,A -179.025365615,B 88.599413487,C -175.273762723,S 0,T 0,E1 0,E2 0,E3 0,E4 0,E5 0,E6 0}
DECL E6POS XE_S09_370={X 2216.193453451,Y 25241.759641675,Z 1450.325553731,A 177.680912812,B 88.505694254,C -176.051519617,S 0,T 0,E1 0,E2 0,E3 0,E4 0,E5 0,E6 0}
DECL E6POS XE_S09_375={X 2215.734689225,Y 25236.903019464,Z 1450.326131851,A 178.073822551,B 88.50176251,C -174.172899709,S 0,T 0,E1 0,E2 0,E3 0,E4 0,E5 0,E6 0}
DECL E6POS XE_S09_380={X 2215.49813915,Y 25231.324655489,Z 1450.302309915,A -178.881345669,B 88.728289283,C -174.994682051,S 0,T 0,E1 0,E2 0,E3 0,E4 0,E5 0,E6 0}
DECL E6POS XE_S09_385={X 2217.220967608,Y 25147.438220851,Z 1450.49088182,A -177.11905013,B 89.095912587,C -175.266190491,S 0,T 0,E1 0,E2 0,E3 0,E4 0,E5 0,E6 0}
DECL E6POS XE_S09_390={X 2219.431988379,Y 24897.469427728,Z 1449.642996931,A -179.274510231,B 88.800574681,C -177.531563635,S 0,T 0,E1 0,E2 0,E3 0,E4 0,E5 0,E6 0}
DECL E6POS XE_S09_395={X 2221.909466364,Y 24672.47393152,Z 1449.498001729,A -179.720183558,B 89.299320048,C -177.871360862,S 0,T 0,E1 0,E2 0,E3 0,E4 0,E5 0,E6 0}
DECL E6POS XE_S09_400={X 2221.480526373,Y 24654.459471024,Z 1449.48874649,A -178.962082005,B 89.596040762,C -176.514176021,S 0,T 0,E1 0,E2 0,E3 0,E4 0,E5 0,E6 0}
DECL E6POS XE_S09_405={X 2223.061016099,Y 24536.845447232,Z 1449.032216621,A -179.114678707,B 88.702447802,C -177.364021053,S 0,T 0,E1 0,E2 0,E3 0,E4 0,E5 0,E6 0}
DECL E6POS XE_S09_410={X 2223.829260137,Y 24468.252300239,Z 1448.995662989,A -179.159716811,B 88.801455526,C -177.309871192,S 0,T 0,E1 0,E2 0,E3 0,E4 0,E5 0,E6 0}
DECL E6POS XE_S09_415={X 2224.174354998,Y 24438.248101199,Z 1448.976707994,A -179.114512103,B 88.702443168,C -177.363854509,S 0,T 0,E1 0,E2 0,E3 0,E4 0,E5 0,E6 0}
DECL E6POS XE_S09_420={X 2224.132995831,Y 24428.156299512,Z 1448.953653535,A -178.085262854,B 88.73116246,C -173.772292471,S 0,T 0,E1 0,E2 0,E3 0,E4 0,E5 0,E6 0}
DECL E6POS XE_S09_425={X 2223.984051475,Y 24423.809708964,Z 1448.673574734,A 178.36908733,B 88.886410481,C -174.724966658,S 0,T 0,E1 0,E2 0,E3 0,E4 0,E5 0,E6 0}
DECL E6POS XE_S09_430={X 2222.692491219,Y 24411.199044805,Z 1448.672374309,A 178.540088487,B 88.821869763,C -173.849040164,S 0,T 0,E1 0,E2 0,E3 0,E4 0,E5 0,E6 0}
DECL E6POS XE_S09_435={X 2222.433262039,Y 24405.378687521,Z 1448.651909029,A -178.094095013,B 88.938479486,C -173.937679311,S 0,T 0,E1 0,E2 0,E3 0,E4 0,E5 0,E6 0}
DECL E6POS XE_S09_440={X 2222.522985602,Y 24398.442571645,Z 1448.658143336,A -179.161790288,B 88.890069933,C -177.450862632,S 0,T 0,E1 0,E2 0,E3 0,E4 0,E5 0,E6 0}
DECL E6POS XE_S09_445={X 2225.371610093,Y 24147.597143903,Z 1450.037373955,A 179.492450119,B 88.601028287,C -178.738725913,S 0,T 0,E1 0,E2 0,E3 0,E4 0,E5 0,E6 0}
DECL E6POS XE_S09_450={X 2228.132367296,Y 23897.589888523,Z 1449.881071674,A 179.379453684,B 88.701005013,C -178.752612882,S 0,T 0,E1 0,E2 0,E3 0,E4 0,E5 0,E6 0}
DECL E6POS XE_S09_455={X 2229.281662238,Y 23793.59738683,Z 1449.816105119,A 179.379286258,B 88.701007167,C -178.752777273,S 0,T 0,E1 0,E2 0,E3 0,E4 0,E5 0,E6 0}
DECL E6POS XE_S09_460={X 2229.606404354,Y 23763.594660964,Z 1449.796455494,A 179.341280402,B 88.700980567,C -178.69077793,S 0,T 0,E1 0,E2 0,E3 0,E4 0,E5 0,E6 0}
DECL E6POS XE_S09_465={X 2229.813081062,Y 23754.71355483,Z 1449.822806496,A 178.182813364,B 88.607535137,C -178.454423382,S 0,T 0,E1 0,E2 0,E3 0,E4 0,E5 0,E6 0}
DECL E6POS XE_S09_470={X 2229.29299983,Y 23747.316058718,Z 1449.813998378,A 177.062662542,B 88.602828416,C -175.615590722,S 0,T 0,E1 0,E2 0,E3 0,E4 0,E5 0,E6 0}
DECL E6POS XE_S09_475={X 2221.937843503,Y 23665.674589909,Z 1449.868817717,A 177.1715577,B 88.810246297,C -175.210339978,S 0,T 0,E1 0,E2 0,E3 0,E4 0,E5 0,E6 0}
DECL E6POS XE_S09_480={X 2221.542424299,Y 23661.779540403,Z 1449.876929577,A 177.511249735,B 88.6027001,C -176.195173333,S 0,T 0,E1 0,E2 0,E3 0,E4 0,E5 0,E6 0}
DECL E6POS XE_S09_485={X 2221.851529167,Y 23649.770000704,Z 1449.865744548,A 179.352376564,B 88.700991657,C -178.708686418,S 0,T 0,E1 0,E2 0,E3 0,E4 0,E5 0,E6 0}
DECL E6POS XE_S09_490={X 2222.333339173,Y 23601.766658587,Z 1449.835112229,A 179.371214083,B 88.701000418,C -178.73884925,S 0,T 0,E1 0,E2 0,E3 0,E4 0,E5 0,E6 0}
DECL E6POS XE_S09_495={X 2224.760628026,Y 23375.289842617,Z 1449.480408327,A -179.602603642,B 88.951755462,C -177.522233858,S 0,T 0,E1 0,E2 0,E3 0,E4 0,E5 0,E6 0}
DECL E6POS XE_S09_500={X 2225.072680927,Y 23343.990878119,Z 1449.68048137,A -179.852112633,B 89.05087599,C -177.862434743,S 0,T 0,E1 0,E2 0,E3 0,E4 0,E5 0,E6 0}
DECL E6POS XE_S09_505={X 2225.477596574,Y 23338.410698351,Z 1449.672774667,A -179.272332882,B 88.997426272,C -179.035217394,S 0,T 0,E1 0,E2 0,E3 0,E4 0,E5 0,E6 0}
DECL E6POS XE_S09_510={X 2226.54053662,Y 23316.596802101,Z 1449.65394109,A -179.881039169,B 89.097010502,C 179.478669883,S 0,T 0,E1 0,E2 0,E3 0,E4 0,E5 0,E6 0}
DECL E6POS XE_S09_515={X 2226.793269058,Y 23310.032406762,Z 1449.657392202,A -179.969807013,B 88.977313103,C -178.954107742,S 0,T 0,E1 0,E2 0,E3 0,E4 0,E5 0,E6 0}
DECL E6POS XE_S09_520={X 2228.625806149,Y 23148.051761929,Z 1449.554965941,A -179.851927831,B 89.050824921,C -177.744248782,S 0,T 0,E1 0,E2 0,E3 0,E4 0,E5 0,E6 0}
DECL E6POS XE_S09_525={X 2231.0493884,Y 22905.051123759,Z 1449.410582801,A -179.791550902,B 89.048201847,C -176.263906218,S 0,T 0,E1 0,E2 0,E3 0,E4 0,E5 0,E6 0}
DECL E6POS XE_S09_530={X 2230.497090325,Y 22893.055093848,Z 1449.423562261,A -179.826600664,B 89.143213554,C -176.298838897,S 0,T 0,E1 0,E2 0,E3 0,E4 0,E5 0,E6 0}
DECL E6POS XE_S09_535={X 2232.301037737,Y 22715.052538793,Z 1449.323457314,A -179.891031789,B 89.148829012,C -177.76323437,S 0,T 0,E1 0,E2 0,E3 0,E4 0,E5 0,E6 0}
DECL E6POS XE_S09_540={X 2232.686213106,Y 22685.061703072,Z 1449.30657484,A 179.909043177,B 89.24882876,C -177.863935143,S 0,T 0,E1 0,E2 0,E3 0,E4 0,E5 0,E6 0}
DECL E6POS XE_S09_545={X 2232.837627968,Y 22675.073876416,Z 1449.292345482,A -179.957623356,B 89.149882324,C -177.92977968,S 0,T 0,E1 0,E2 0,E3 0,E4 0,E5 0,E6 0}
DECL E6POS XE_S09_550={X 2233.605296453,Y 22668.785891044,Z 1449.27921091,A -179.10079074,B 89.04304432,C 177.157179556,S 0,T 0,E1 0,E2 0,E3 0,E4 0,E5 0,E6 0}
DECL E6POS XE_S09_555={X 2235.57957849,Y 22649.610121176,Z 1449.238921231,A 179.497325286,B 89.222333091,C 175.914530034,S 0,T 0,E1 0,E2 0,E3 0,E4 0,E5 0,E6 0}
DECL E6POS XE_S09_560={X 2236.217289977,Y 22644.212387665,Z 1449.249736599,A 179.997803784,B 89.105112256,C 179.168611319,S 0,T 0,E1 0,E2 0,E3 0,E4 0,E5 0,E6 0}
DECL E6POS XE_S09_565={X 2236.285703019,Y 22634.099019471,Z 1449.232057144,A -179.890781754,B 89.148823001,C -177.762987265,S 0,T 0,E1 0,E2 0,E3 0,E4 0,E5 0,E6 0}
DECL E6POS XE_S09_570={X 2236.710916389,Y 22588.073496683,Z 1449.071363657,A 179.59651473,B 88.952953439,C -178.755380081,S 0,T 0,E1 0,E2 0,E3 0,E4 0,E5 0,E6 0}
DECL E6POS XE_S09_575={X 2238.47376638,Y 22398.114292052,Z 1448.888966176,A 179.309869072,B 88.90064569,C -178.742060396,S 0,T 0,E1 0,E2 0,E3 0,E4 0,E5 0,E6 0}
DECL E6POS XE_S09_580={X 2240.905046106,Y 22148.121520958,Z 1448.746591275,A 179.343222302,B 88.909670966,C -178.800707615,S 0,T 0,E1 0,E2 0,E3 0,E4 0,E5 0,E6 0}
DECL E6POS XE_S09_585={X 2242.376897105,Y 21985.226072443,Z 1448.652509465,A 179.361956776,B 88.901643462,C -178.690022565,S 0,T 0,E1 0,E2 0,E3 0,E4 0,E5 0,E6 0}
DECL E6POS XE_S09_590={X 2242.661915688,Y 21955.22303739,Z 1448.635600614,A 179.398152417,B 88.901671836,C -178.753829877,S 0,T 0,E1 0,E2 0,E3 0,E4 0,E5 0,E6 0}
DECL E6POS XE_S09_595={X 2242.721081253,Y 21945.152784614,Z 1448.607149085,A 178.944254724,B 88.897330443,C -176.949955402,S 0,T 0,E1 0,E2 0,E3 0,E4 0,E5 0,E6 0}
DECL E6POS XE_S09_600={X 2242.4633344,Y 21939.140799886,Z 1448.682571116,A 177.801304717,B 88.901664428,C -174.663838355,S 0,T 0,E1 0,E2 0,E3 0,E4 0,E5 0,E6 0}
DECL E6POS XE_S09_605={X 2238.612004157,Y 21899.649968546,Z 1448.721793506,A 177.962419416,B 89.006859255,C -174.300085933,S 0,T 0,E1 0,E2 0,E3 0,E4 0,E5 0,E6 0}
DECL E6POS XE_S09_610={X 2238.096448671,Y 21895.23864269,Z 1448.677740978,A 178.442227965,B 88.980900016,C -174.096569802,S 0,T 0,E1 0,E2 0,E3 0,E4 0,E5 0,E6 0}
DECL E6POS XE_S09_615={X 2238.273857782,Y 21885.420427785,Z 1448.716317127,A 179.041574685,B 89.001608823,C -178.916133438,S 0,T 0,E1 0,E2 0,E3 0,E4 0,E5 0,E6 0}
DECL E6POS XE_S09_620={X 2238.627828155,Y 21843.364408846,Z 1448.666810536,A 179.254927017,B 89.000661146,C -178.642855036,S 0,T 0,E1 0,E2 0,E3 0,E4 0,E5 0,E6 0}
DECL E6POS XE_S09_625={X 2240.175837664,Y 21661.299283059,Z 1449.085073689,A 179.623570642,B 89.800789428,C -178.27381108,S 0,T 0,E1 0,E2 0,E3 0,E4 0,E5 0,E6 0}
DECL E6POS XE_S09_630={X 2240.492966747,Y 21650.929842733,Z 1449.063689832,A 176.411393993,B 89.801079518,C 177.30250387,S 0,T 0,E1 0,E2 0,E3 0,E4 0,E5 0,E6 0}
DECL E6POS XE_S09_635={X 2241.620604981,Y 21617.638754937,Z 1449.04131204,A 179.514656733,B 89.603466385,C -179.893951732,S 0,T 0,E1 0,E2 0,E3 0,E4 0,E5 0,E6 0}
DECL E6POS XE_S09_640={X 2241.753630291,Y 21609.499774103,Z 1449.035779322,A -179.149130488,B 89.702712047,C -177.102928884,S 0,T 0,E1 0,E2 0,E3 0,E4 0,E5 0,E6 0}
DECL E6POS XE_S09_645={X 2243.423883871,Y 21398.313928389,Z 1448.922219096,A -179.149884533,B 89.702711431,C -177.103684384,S 0,T 0,E1 0,E2 0,E3 0,E4 0,E5 0,E6 0}
DECL E6POS XE_S09_650={X 2245.394784893,Y 21148.323893025,Z 1448.784248952,A -179.540271417,B 89.801781161,C -177.495821842,S 0,T 0,E1 0,E2 0,E3 0,E4 0,E5 0,E6 0}
DECL E6POS XE_S09_655={X 2245.810301993,Y 21096.42687083,Z 1448.749886637,A -179.149132957,B 89.702711567,C -177.103931642,S 0,T 0,E1 0,E2 0,E3 0,E4 0,E5 0,E6 0}
DECL E6POS XE_S09_660={X 2246.055072255,Y 21066.433300129,Z 1448.731264438,A -179.149888182,B 89.702710722,C -177.104685933,S 0,T 0,E1 0,E2 0,E3 0,E4 0,E5 0,E6 0}
DECL E6POS XE_S09_665={X 2246.07421181,Y 21056.344449982,Z 1448.715094337,A -176.183395294,B 89.796030786,C -171.847379893,S 0,T 0,E1 0,E2 0,E3 0,E4 0,E5 0,E6 0}
DECL E6POS XE_S09_670={X 2245.947268995,Y 21051.883807421,Z 1448.834877509,A -167.258239483,B 89.741959725,C -160.083383749,S 0,T 0,E1 0,E2 0,E3 0,E4 0,E5 0,E6 0}
DECL E6POS XE_S09_675={X 2240.194262266,Y 20992.202008166,Z 1448.882717844,A -162.568838593,B 89.78695966,C -154.62125896,S 0,T 0,E1 0,E2 0,E3 0,E4 0,E5 0,E6 0}
DECL E6POS XE_S09_680={X 2239.570598677,Y 20985.430455319,Z 1448.833217118,A -174.008737654,B 89.748189199,C -166.651170254,S 0,T 0,E1 0,E2 0,E3 0,E4 0,E5 0,E6 0}
DECL E6POS XE_S09_685={X 2239.720833518,Y 20976.624022986,Z 1448.879877771,A -179.942881245,B 89.900721696,C -177.714232855,S 0,T 0,E1 0,E2 0,E3 0,E4 0,E5 0,E6 0}
DECL E6POS XE_S09_690={X 2240.225796791,Y 20907.707502661,Z 1448.33090314,A -178.929014066,B 89.802703933,C -176.83367642,S 0,T 0,E1 0,E2 0,E3 0,E4 0,E5 0,E6 0}
DECL E6POS XE_S09_695={X 2240.590234408,Y 20855.708822271,Z 1448.302104978,A -178.926355931,B 89.802702703,C -176.831015218,S 0,T 0,E1 0,E2 0,E3 0,E4 0,E5 0,E6 0}
DECL E6POS XE_S09_700={X 2240.894213836,Y 20850.935619077,Z 1448.297951016,A 169.419788459,B 89.899877522,C 170.237333057,S 0,T 0,E1 0,E2 0,E3 0,E4 0,E5 0,E6 0}
DECL E6POS XE_S09_705={X 2241.696913766,Y 20830.735953629,Z 1448.288670748,A 173.729156976,B 89.804081024,C 172.946594287,S 0,T 0,E1 0,E2 0,E3 0,E4 0,E5 0,E6 0}
DECL E6POS XE_S09_710={X 2242.104834732,Y 20823.928171992,Z 1448.261215874,A 178.866248006,B 89.903000609,C -179.493049309,S 0,T 0,E1 0,E2 0,E3 0,E4 0,E5 0,E6 0}
DECL E6POS XE_S09_715={X 2243.189015121,Y 20648.563388159,Z 1448.176135193,A -178.759211382,B 89.901669885,C -176.518677335,S 0,T 0,E1 0,E2 0,E3 0,E4 0,E5 0,E6 0}
DECL E6POS XE_S09_720={X 2244.699415543,Y 20398.602410359,Z 1447.86487454,A 177.630710166,B 89.600737551,C 179.473496845,S 0,T 0,E1 0,E2 0,E3 0,E4 0,E5 0,E6 0}
DECL E6POS XE_S09_725={X 2245.72163841,Y 20235.792639778,Z 1447.773906655,A 177.675628702,B 89.600720905,C 179.617358499,S 0,T 0,E1 0,E2 0,E3 0,E4 0,E5 0,E6 0}
DECL E6POS XE_S09_730={X 2245.897056759,Y 20205.803924088,Z 1447.768288397,A 177.631261617,B 89.600735994,C 179.4740407,S 0,T 0,E1 0,E2 0,E3 0,E4 0,E5 0,E6 0}
DECL E6POS XE_S09_735={X 2245.925562622,Y 20195.719366959,Z 1447.737584515,A 176.544399774,B 89.597151284,C -179.349231375,S 0,T 0,E1 0,E2 0,E3 0,E4 0,E5 0,E6 0}
DECL E6POS XE_S09_740={X 2245.577985763,Y 20191.202605313,Z 1447.752727194,A -174.944178163,B 89.600702016,C -169.437092532,S 0,T 0,E1 0,E2 0,E3 0,E4 0,E5 0,E6 0}
DECL E6POS XE_S09_745={X 2242.736391906,Y 20161.458741406,Z 1447.767567125,A -174.859687679,B 89.596971712,C -167.303416181,S 0,T 0,E1 0,E2 0,E3 0,E4 0,E5 0,E6 0}
DECL E6POS XE_S09_750={X 2241.97586741,Y 20153.705404466,Z 1447.707632199,A 178.052079356,B 89.635405689,C -174.031163757,S 0,T 0,E1 0,E2 0,E3 0,E4 0,E5 0,E6 0}
DECL E6POS XE_S09_755={X 2242.300913545,Y 20143.958185984,Z 1447.783815049,A 177.814884057,B 89.601792242,C 179.61161034,S 0,T 0,E1 0,E2 0,E3 0,E4 0,E5 0,E6 0}
DECL E6POS XE_S09_760={X 2242.389495385,Y 20115.972296596,Z 1447.771196424,A 177.575558878,B 89.60071577,C 179.473341185,S 0,T 0,E1 0,E2 0,E3 0,E4 0,E5 0,E6 0}
DECL E6POS XE_S09_765={X 2242.595844694,Y 20078.433908807,Z 1447.761695918,A 177.576111563,B 89.600713976,C 179.473897484,S 0,T 0,E1 0,E2 0,E3 0,E4 0,E5 0,E6 0}
DECL E6POS XE_S09_770={X 2243.45055747,Y 19898.739586395,Z 1447.648298848,A 179.342364612,B 89.899124357,C -178.295558583,S 0,T 0,E1 0,E2 0,E3 0,E4 0,E5 0,E6 0}
DECL E6POS XE_S09_775={X 2244.478794816,Y 19648.780199077,Z 1447.55343114,A -87.460985676,B 89.988478474,C -85.297692883,S 0,T 0,E1 0,E2 0,E3 0,E4 0,E5 0,E6 0}
DECL E6POS XE_S09_780={X 2245.518111575,Y 19398.763041869,Z 1447.422395672,A -88.26870573,B 89.985963011,C -86.006524126,S 0,T 0,E1 0,E2 0,E3 0,E4 0,E5 0,E6 0}
DECL E6POS XE_S09_785={X 2246.361467979,Y 19193.78125158,Z 1447.329155723,A -85.181109508,B 89.983672448,C -82.876042343,S 0,T 0,E1 0,E2 0,E3 0,E4 0,E5 0,E6 0}
DECL E6POS XE_S09_790={X 2246.505913924,Y 19160.376779043,Z 1447.306949741,A -169.799265053,B 89.900843168,C -167.594393499,S 0,T 0,E1 0,E2 0,E3 0,E4 0,E5 0,E6 0}
DECL E6POS XE_S09_795={X 2246.561427189,Y 19151.576604949,Z 1447.297466405,A 98.872377107,B 89.988980266,C 100.010652307,S 0,T 0,E1 0,E2 0,E3 0,E4 0,E5 0,E6 0}
DECL E6POS XE_S09_800={X 2247.501784065,Y 19143.835992602,Z 1447.286445099,A 13.575028924,B 89.79206905,C 12.101389217,S 0,T 0,E1 0,E2 0,E3 0,E4 0,E5 0,E6 0}
DECL E6POS XE_S09_805={X 2247.494684268,Y 19135.557370378,Z 1447.26893392,A -0.257523176,B 89.602213884,C 1.932844461,S 0,T 0,E1 0,E2 0,E3 0,E4 0,E5 0,E6 0}
DECL E6POS XE_S09_810={X 2248.210981804,Y 18898.79167734,Z 1447.158834641,A -46.00269831,B 89.976432716,C -43.544651348,S 0,T 0,E1 0,E2 0,E3 0,E4 0,E5 0,E6 0}
DECL E6POS XE_S09_815={X 2248.804222862,Y 18648.840282556,Z 1447.66917501,A 177.620801446,B 89.399635096,C -179.825608668,S 0,T 0,E1 0,E2 0,E3 0,E4 0,E5 0,E6 0}
DECL E6POS XE_S09_820={X 2249.271023318,Y 18398.823657529,Z 1447.538674371,A 177.986836719,B 89.421700485,C -179.49293951,S 0,T 0,E1 0,E2 0,E3 0,E4 0,E5 0,E6 0}
DECL E6POS XE_S09_825={X 2249.618421335,Y 18148.795196432,Z 1447.912759569,A 177.685845641,B 89.431451461,C -179.602698669,S 0,T 0,E1 0,E2 0,E3 0,E4 0,E5 0,E6 0}
DECL E6POS XE_S09_830={X 2249.87200628,Y 17898.830315832,Z 1447.324424389,A 179.792274367,B 89.660679081,C -177.734494512,S 0,T 0,E1 0,E2 0,E3 0,E4 0,E5 0,E6 0}
DECL E6POS XE_S09_835={X 2249.980917116,Y 17648.825913161,Z 1447.210990086,A -179.924270111,B 89.560654972,C -177.450221832,S 0,T 0,E1 0,E2 0,E3 0,E4 0,E5 0,E6 0}
DECL E6POS XE_S09_840={X 2250.040302742,Y 17398.836350801,Z 1447.103514015,A 179.619652415,B 89.500654834,C -177.802148655,S 0,T 0,E1 0,E2 0,E3 0,E4 0,E5 0,E6 0}
DECL E6POS XE_S09_845={X 2250.069664995,Y 17300.835268484,Z 1447.062707797,A 179.290820651,B 89.600692615,C -178.230802431,S 0,T 0,E1 0,E2 0,E3 0,E4 0,E5 0,E6 0}
DECL E6POS XE_S09_850={X 2250.08629874,Y 17265.932996893,Z 1447.047489737,A 179.290820536,B 89.600694095,C -178.230799565,S 0,T 0,E1 0,E2 0,E3 0,E4 0,E5 0,E6 0}
DECL E6POS XE_S09_855={X 2250.238350307,Y 17257.684739508,Z 1447.025886519,A 170.148996415,B 89.736603311,C 169.599960674,S 0,T 0,E1 0,E2 0,E3 0,E4 0,E5 0,E6 0}
DECL E6POS XE_S09_860={X 2251.080435878,Y 17250.947828059,Z 1447.023181575,A 175.303231314,B 89.600277601,C 174.156394419,S 0,T 0,E1 0,E2 0,E3 0,E4 0,E5 0,E6 0}
DECL E6POS XE_S09_865={X 2251.118948914,Y 17244.135482203,Z 1447.021148955,A 179.056792223,B 89.600772618,C -178.681725873,S 0,T 0,E1 0,E2 0,E3 0,E4 0,E5 0,E6 0}
DECL E6POS XE_S09_870={X 2251.043153433,Y 17148.865019582,Z 1446.973231261,A -178.508399938,B 89.69951807,C -175.875736751,S 0,T 0,E1 0,E2 0,E3 0,E4 0,E5 0,E6 0}
DECL E6POS XE_S09_875={X 2250.873125175,Y 16898.884655236,Z 1446.790462165,A 177.844584673,B 89.750636203,C -179.621052555,S 0,T 0,E1 0,E2 0,E3 0,E4 0,E5 0,E6 0}
DECL E6POS XE_S09_880={X 2250.720911934,Y 16648.86824408,Z 1446.665876846,A 177.838778042,B 89.750582132,C -179.428908901,S 0,T 0,E1 0,E2 0,E3 0,E4 0,E5 0,E6 0}
DECL E6POS XE_S09_885={X 2250.58149666,Y 16398.867368083,Z 1446.567579644,A 178.920880387,B 89.651759666,C -178.54586052,S 0,T 0,E1 0,E2 0,E3 0,E4 0,E5 0,E6 0}
DECL E6POS XE_S09_890={X 2250.577467717,Y 16385.864365629,Z 1446.559679986,A 178.756665894,B 89.651746486,C -178.710018601,S 0,T 0,E1 0,E2 0,E3 0,E4 0,E5 0,E6 0}
DECL E6POS XE_S09_895={X 2250.540615596,Y 16355.869008671,Z 1446.546606548,A 177.958493545,B 89.750619161,C -179.409194234,S 0,T 0,E1 0,E2 0,E3 0,E4 0,E5 0,E6 0}
DECL E6POS XE_S09_900={X 2250.552198033,Y 16345.868304114,Z 1446.53865595,A 177.988703509,B 89.751682312,C -179.60092195,S 0,T 0,E1 0,E2 0,E3 0,E4 0,E5 0,E6 0}
DECL E6POS XE_S09_905={X 2250.431656674,Y 16343.344374853,Z 1446.525616797,A 161.646008846,B 89.789696932,C 161.785264209,S 0,T 0,E1 0,E2 0,E3 0,E4 0,E5 0,E6 0}
DECL E6POS XE_S09_910={X 2253.124521926,Y 16319.437352775,Z 1446.501333082,A 167.142857308,B 89.744869043,C 164.180509833,S 0,T 0,E1 0,E2 0,E3 0,E4 0,E5 0,E6 0}
DECL E6POS XE_S09_915={X 2253.494077182,Y 16315.992992439,Z 1446.521809828,A 179.557807249,B 89.75823719,C 178.546773548,S 0,T 0,E1 0,E2 0,E3 0,E4 0,E5 0,E6 0}
DECL E6POS XE_S09_920={X 2253.401616371,Y 16305.881412296,Z 1446.489764079,A 177.84811329,B 89.750629446,C -179.618517441,S 0,T 0,E1 0,E2 0,E3 0,E4 0,E5 0,E6 0}
DECL E6POS XE_S09_925={X 2253.281211089,Y 16214.906210159,Z 1446.457904363,A 2.475787828,B 89.451270962,C 4.900987728,S 0,T 0,E1 0,E2 0,E3 0,E4 0,E5 0,E6 0}
DECL E6POS XE_S09_930={X 2253.783038846,Y 16201.970737383,Z 1446.448465185,A 4.055211922,B 89.448395826,C 5.17677197,S 0,T 0,E1 0,E2 0,E3 0,E4 0,E5 0,E6 0}
DECL E6POS XE_S09_935={X 2253.788040954,Y 16148.90256141,Z 1446.313941807,A 24.155318069,B 89.945283293,C 26.938865108,S 0,T 0,E1 0,E2 0,E3 0,E4 0,E5 0,E6 0}
DECL E6POS XE_S09_940={X 2253.39763861,Y 15898.94734122,Z 1446.235884077,A -1.185821144,B 89.799437548,C 1.402675328,S 0,T 0,E1 0,E2 0,E3 0,E4 0,E5 0,E6 0}
DECL E6POS XE_S09_945={X 2253.014994407,Y 15648.933158253,Z 1446.123718339,A -0.363071504,B 89.600492417,C 2.323710342,S 0,T 0,E1 0,E2 0,E3 0,E4 0,E5 0,E6 0}
DECL E6POS XE_S09_950={X 2252.774754173,Y 15485.929370895,Z 1446.063615203,A -0.638078233,B 89.699452823,C 1.94956081,S 0,T 0,E1 0,E2 0,E3 0,E4 0,E5 0,E6 0}
DECL E6POS XE_S09_955={X 2252.709737238,Y 15450.982272938,Z 1446.034329723,A -0.220682896,B 89.599440694,C 2.366158175,S 0,T 0,E1 0,E2 0,E3 0,E4 0,E5 0,E6 0}
DECL E6POS XE_S09_960={X 2252.751389451,Y 15444.425956869,Z 1446.012957141,A 12.135405688,B 89.6164239,C 13.621197653,S 0,T 0,E1 0,E2 0,E3 0,E4 0,E5 0,E6 0}
DECL E6POS XE_S09_965={X 2253.525279985,Y 15437.73512368,Z 1446.02424038,A 18.369704795,B 89.698959562,C 16.282154328,S 0,T 0,E1 0,E2 0,E3 0,E4 0,E5 0,E6 0}
DECL E6POS XE_S09_970={X 2253.688832812,Y 15429.642563978,Z 1446.023816932,A -0.638072515,B 89.699495503,C 2.049568698,S 0,T 0,E1 0,E2 0,E3 0,E4 0,E5 0,E6 0}
DECL E6POS XE_S09_975={X 2253.637991613,Y 15398.900567766,Z 1445.961713752,A -0.240431671,B 89.767128364,C 2.750292312,S 0,T 0,E1 0,E2 0,E3 0,E4 0,E5 0,E6 0}
DECL E6POS XE_S09_980={X 2253.41383515,Y 15295.454327018,Z 1446.036953778,A 177.956587663,B 89.900645648,C -179.307046624,S 0,T 0,E1 0,E2 0,E3 0,E4 0,E5 0,E6 0}
DECL E6POS XE_S09_985={X 2253.735464099,Y 15287.988000495,Z 1446.026097705,A 64.705348063,B 89.992470357,C 66.140245342,S 0,T 0,E1 0,E2 0,E3 0,E4 0,E5 0,E6 0}
DECL E6POS XE_S09_990={X 2253.367331372,Y 15148.932620207,Z 1445.964707198,A 80.801113699,B 89.995904809,C 83.736548853,S 0,T 0,E1 0,E2 0,E3 0,E4 0,E5 0,E6 0}
DECL E6POS XE_S09_995={X 2252.786844134,Y 14898.908700936,Z 1445.363759515,A 77.99463893,B 89.996894958,C 80.928018877,S 0,T 0,E1 0,E2 0,E3 0,E4 0,E5 0,E6 0}
DECL E6POS XE_S09_1000={X 2252.195735092,Y 14648.91119871,Z 1445.266625206,A 179.616415226,B 89.876674192,C -177.649394473,S 0,T 0,E1 0,E2 0,E3 0,E4 0,E5 0,E6 0}
DECL E6POS XE_S09_1005={X 2251.812487402,Y 14540.711608517,Z 1445.209226229,A 2.751634102,B 89.899216774,C 5.684203952,S 0,T 0,E1 0,E2 0,E3 0,E4 0,E5 0,E6 0}
DECL E6POS XE_S09_1010={X 2251.758304069,Y 14510.711738703,Z 1445.212483871,A 79.524793167,B 89.996253377,C 82.358231768,S 0,T 0,E1 0,E2 0,E3 0,E4 0,E5 0,E6 0}
DECL E6POS XE_S09_1015={X 2251.750070882,Y 14500.735179409,Z 1445.204242201,A 148.978597502,B 89.991756875,C 151.082203931,S 0,T 0,E1 0,E2 0,E3 0,E4 0,E5 0,E6 0}
DECL E6POS XE_S09_1020={X 2251.507100159,Y 14497.949387664,Z 1445.198936713,A 75.331607031,B 89.891657271,C 72.83293449,S 0,T 0,E1 0,E2 0,E3 0,E4 0,E5 0,E6 0}
DECL E6POS XE_S09_1025={X 2253.287445458,Y 14485.095737293,Z 1445.164795156,A 139.699784464,B 89.861327721,C 137.273072368,S 0,T 0,E1 0,E2 0,E3 0,E4 0,E5 0,E6 0}
DECL E6POS XE_S09_1030={X 2253.760169886,Y 14481.010734378,Z 1445.190529998,A 179.496036989,B 89.906664391,C 179.728722027,S 0,T 0,E1 0,E2 0,E3 0,E4 0,E5 0,E6 0}
DECL E6POS XE_S09_1035={X 2253.654515298,Y 14468.913511169,Z 1445.161897083,A 75.122228385,B 89.997629473,C 78.129541087,S 0,T 0,E1 0,E2 0,E3 0,E4 0,E5 0,E6 0}
DECL E6POS XE_S09_1040={X 2254.292276905,Y 14399.00284244,Z 1446.435613908,A 177.659306015,B 89.220765672,C -179.407065227,S 0,T 0,E1 0,E2 0,E3 0,E4 0,E5 0,E6 0}
DECL E6POS XE_S09_1045={X 2252.479765998,Y 14149.047267649,Z 1445.969502285,A 178.814713018,B 89.000773424,C -178.276228394,S 0,T 0,E1 0,E2 0,E3 0,E4 0,E5 0,E6 0}
DECL E6POS XE_S09_1050={X 2251.577199011,Y 13899.034418204,Z 1445.857370357,A 179.106784813,B 88.901839387,C -178.184316028,S 0,T 0,E1 0,E2 0,E3 0,E4 0,E5 0,E6 0}
DECL E6POS XE_S09_1055={X 2250.772290733,Y 13691.019404892,Z 1445.770880588,A 179.043790115,B 88.900828058,C -178.222261128,S 0,T 0,E1 0,E2 0,E3 0,E4 0,E5 0,E6 0}
DECL E6POS XE_S09_1060={X 2250.706881869,Y 13661.02407859,Z 1445.760903636,A 178.844641762,B 89.000806273,C -178.422257592,S 0,T 0,E1 0,E2 0,E3 0,E4 0,E5 0,E6 0}
DECL E6POS XE_S09_1065={X 2250.598663113,Y 13651.015438487,Z 1445.765263398,A 178.934770401,B 88.980840328,C -178.497142205,S 0,T 0,E1 0,E2 0,E3 0,E4 0,E5 0,E6 0}
DECL E6POS XE_S09_1070={X 2250.854484458,Y 13648.081951431,Z 1445.745308242,A 179.96301024,B 88.960081078,C 177.9788868,S 0,T 0,E1 0,E2 0,E3 0,E4 0,E5 0,E6 0}
DECL E6POS XE_S09_1075={X 2251.933638551,Y 13636.859040199,Z 1445.738471047,A -179.67759756,B 88.950690567,C 177.564235205,S 0,T 0,E1 0,E2 0,E3 0,E4 0,E5 0,E6 0}
DECL E6POS XE_S09_1080={X 2252.516741572,Y 13631.134634351,Z 1445.74381183,A -179.866060661,B 88.918848677,C 179.799017322,S 0,T 0,E1 0,E2 0,E3 0,E4 0,E5 0,E6 0}
DECL E6POS XE_S09_1085={X 2252.434917314,Y 13621.029185744,Z 1445.720030038,A 178.836444346,B 89.000801503,C -178.413457117,S 0,T 0,E1 0,E2 0,E3 0,E4 0,E5 0,E6 0}
DECL E6POS XE_S09_1090={X 2252.317254395,Y 13573.058285298,Z 1445.709212461,A 179.095239354,B 88.902835133,C -178.17086236,S 0,T 0,E1 0,E2 0,E3 0,E4 0,E5 0,E6 0}
DECL E6POS XE_S09_1095={X 2252.09054346,Y 13526.930947148,Z 1445.693552604,A 179.050056309,B 88.902813016,C -178.116036358,S 0,T 0,E1 0,E2 0,E3 0,E4 0,E5 0,E6 0}
DECL E6POS XE_S09_1100={X 2252.243414,Y 13516.159777317,Z 1445.68091352,A 179.287648692,B 89.002421417,C 179.982142667,S 0,T 0,E1 0,E2 0,E3 0,E4 0,E5 0,E6 0}
DECL E6POS XE_S09_1105={X 2252.855415809,Y 13503.542442097,Z 1445.678224634,A 179.876550468,B 88.90466396,C 179.970695807,S 0,T 0,E1 0,E2 0,E3 0,E4 0,E5 0,E6 0}
DECL E6POS XE_S09_1110={X 2252.882258249,Y 13494.121821109,Z 1445.657307344,A 178.946427939,B 88.900804552,C -178.219569607,S 0,T 0,E1 0,E2 0,E3 0,E4 0,E5 0,E6 0}
DECL E6POS XE_S09_1115={X 2253.728604196,Y 13399.057650662,Z 1445.712052975,A 1.86297839,B 89.819023717,C 5.045872612,S 0,T 0,E1 0,E2 0,E3 0,E4 0,E5 0,E6 0}
DECL E6POS XE_S09_1120={X 2251.153166181,Y 13149.108204331,Z 1445.014908187,A -2.259864736,B 89.699480721,C 0.73549687,S 0,T 0,E1 0,E2 0,E3 0,E4 0,E5 0,E6 0}
DECL E6POS XE_S09_1125={X 2249.860598609,Y 12899.108045372,Z 1444.921666557,A -1.748479786,B 89.599574574,C 1.345968026,S 0,T 0,E1 0,E2 0,E3 0,E4 0,E5 0,E6 0}
DECL E6POS XE_S09_1130={X 2249.363340531,Y 12799.714215534,Z 1444.885597691,A -4.168848576,B 89.798214122,C -1.173748416,S 0,T 0,E1 0,E2 0,E3 0,E4 0,E5 0,E6 0}
DECL E6POS XE_S09_1135={X 2248.391165114,Y 12649.161995139,Z 1444.903458582,A -3.388226312,B 89.79789542,C -0.110973894,S 0,T 0,E1 0,E2 0,E3 0,E4 0,E5 0,E6 0}
DECL E6POS XE_S09_1140={X 2246.698979031,Y 12399.205933915,Z 1444.942677076,A -87.142572165,B 89.992221613,C -84.063377807,S 0,T 0,E1 0,E2 0,E3 0,E4 0,E5 0,E6 0}
DECL E6POS XE_S09_1145={X 2244.910809444,Y 12136.705160046,Z 1444.824800933,A -1.673357028,B 89.204712067,C 2.400937938,S 0,T 0,E1 0,E2 0,E3 0,E4 0,E5 0,E6 0}
DECL E6POS XE_S09_1150={X 2244.229525369,Y 12123.693688469,Z 1444.828199147,A -1.461120983,B 89.34550231,C 2.640618551,S 0,T 0,E1 0,E2 0,E3 0,E4 0,E5 0,E6 0}
DECL E6POS XE_S09_1155={X 2243.802416377,Y 12053.723551894,Z 1444.813471951,A -0.719892363,B 89.566778093,C 2.41133772,S 0,T 0,E1 0,E2 0,E3 0,E4 0,E5 0,E6 0}
DECL E6POS XE_S09_1160={X 2243.586139117,Y 12023.72553617,Z 1444.803444789,A -0.78494469,B 89.501827594,C 2.530252219,S 0,T 0,E1 0,E2 0,E3 0,E4 0,E5 0,E6 0}
DECL E6POS XE_S09_1165={X 2243.496131496,Y 12013.654432589,Z 1444.782839531,A -3.778303914,B 89.549044375,C 1.535723201,S 0,T 0,E1 0,E2 0,E3 0,E4 0,E5 0,E6 0}
DECL E6POS XE_S09_1170={X 2242.922512312,Y 12010.37967358,Z 1444.894918452,A -12.641320572,B 89.494534794,C -4.97682295,S 0,T 0,E1 0,E2 0,E3 0,E4 0,E5 0,E6 0}
DECL E6POS XE_S09_1175={X 2241.787102355,Y 11998.222504525,Z 1444.89730652,A -16.339233153,B 89.584332064,C -7.476382036,S 0,T 0,E1 0,E2 0,E3 0,E4 0,E5 0,E6 0}
DECL E6POS XE_S09_1180={X 2241.231971211,Y 11993.043321772,Z 1444.861107556,A -7.96711316,B 89.510283851,C 0.417330424,S 0,T 0,E1 0,E2 0,E3 0,E4 0,E5 0,E6 0}
DECL E6POS XE_S09_1185={X 2241.281010619,Y 11983.220769494,Z 1444.911625262,A -0.816405776,B 89.654731484,C 2.146829373,S 0,T 0,E1 0,E2 0,E3 0,E4 0,E5 0,E6 0}
DECL E6POS XE_S09_1190={X 2240.646362318,Y 11899.202738893,Z 1444.37610445,A -83.185768108,B 89.989142714,C -79.947743397,S 0,T 0,E1 0,E2 0,E3 0,E4 0,E5 0,E6 0}
DECL E6POS XE_S09_1195={X 2240.436280246,Y 11872.205755442,Z 1444.367364645,A -83.163323457,B 89.989142153,C -79.930299816,S 0,T 0,E1 0,E2 0,E3 0,E4 0,E5 0,E6 0}
DECL E6POS XE_S09_1200={X 2240.348586757,Y 11860.737979981,Z 1444.360335326,A 0.237099175,B 89.499575633,C 2.644297226,S 0,T 0,E1 0,E2 0,E3 0,E4 0,E5 0,E6 0}
DECL E6POS XE_S09_1205={X 2241.081357401,Y 11839.782509069,Z 1444.35382537,A 1.838767873,B 89.287524378,C 3.196256441,S 0,T 0,E1 0,E2 0,E3 0,E4 0,E5 0,E6 0}
DECL E6POS XE_S09_1210={X 2240.945413634,Y 11829.750935678,Z 1444.343852312,A 0.009276907,B 89.102328472,C 2.948969399,S 0,T 0,E1 0,E2 0,E3 0,E4 0,E5 0,E6 0}
DECL E6POS XE_S09_1215={X 2239.47613599,Y 11649.217665164,Z 1444.271267475,A -1.867170348,B 89.842064974,C 1.061413361,S 0,T 0,E1 0,E2 0,E3 0,E4 0,E5 0,E6 0}
DECL E6POS XE_S09_1220={X 2237.146970693,Y 11399.278344389,Z 1444.131322666,A 4.005356923,B 89.898967473,C 7.324589061,S 0,T 0,E1 0,E2 0,E3 0,E4 0,E5 0,E6 0}
DECL E6POS XE_S09_1225={X 2236.278923778,Y 11303.283996964,Z 1444.099688018,A 4.003345763,B 89.898970643,C 7.322579579,S 0,T 0,E1 0,E2 0,E3 0,E4 0,E5 0,E6 0}
DECL E6POS XE_S09_1230={X 2236.003622881,Y 11273.285831269,Z 1444.093554555,A 4.005390268,B 89.898968191,C 7.324623835,S 0,T 0,E1 0,E2 0,E3 0,E4 0,E5 0,E6 0}
DECL E6POS XE_S09_1235={X 2235.934786962,Y 11263.27219499,Z 1444.085837742,A 3.52598819,B 89.898016668,C 6.734226566,S 0,T 0,E1 0,E2 0,E3 0,E4 0,E5 0,E6 0}
DECL E6POS XE_S09_1240={X 2236.344788259,Y 11258.166372913,Z 1444.072648402,A 82.112240459,B 89.916084808,C 79.551125865,S 0,T 0,E1 0,E2 0,E3 0,E4 0,E5 0,E6 0}
DECL E6POS XE_S09_1245={X 2237.312231834,Y 11246.942142296,Z 1444.050056916,A 43.819918679,B 89.863800473,C 41.728432661,S 0,T 0,E1 0,E2 0,E3 0,E4 0,E5 0,E6 0}
DECL E6POS XE_S09_1250={X 2237.702939955,Y 11243.363305086,Z 1444.079023398,A -2.782606981,B 89.892191208,C -2.659708446,S 0,T 0,E1 0,E2 0,E3 0,E4 0,E5 0,E6 0}
DECL E6POS XE_S09_1255={X 2237.560615862,Y 11233.251997147,Z 1444.051123872,A 3.568800634,B 89.898014386,C 6.78803409,S 0,T 0,E1 0,E2 0,E3 0,E4 0,E5 0,E6 0}
DECL E6POS XE_S09_1260={X 2236.737284478,Y 11149.332655007,Z 1444.399209219,A 2.710638094,B 89.898127507,C 5.996753467,S 0,T 0,E1 0,E2 0,E3 0,E4 0,E5 0,E6 0}
DECL E6POS XE_S09_1265={X 2233.987163857,Y 10899.358542363,Z 1444.544189887,A 179.832918241,B 89.600532587,C -176.739133214,S 0,T 0,E1 0,E2 0,E3 0,E4 0,E5 0,E6 0}
DECL E6POS XE_S09_1270={X 2231.05230189,Y 10649.363453584,Z 1444.459074383,A 179.893429847,B 89.700486035,C -176.510610481,S 0,T 0,E1 0,E2 0,E3 0,E4 0,E5 0,E6 0}
DECL E6POS XE_S09_1275={X 2228.009100789,Y 10399.379473142,Z 1444.398241564,A -179.963350036,B 89.600472569,C -176.366502374,S 0,T 0,E1 0,E2 0,E3 0,E4 0,E5 0,E6 0}
DECL E6POS XE_S09_1280={X 2227.375739475,Y 10346.781641103,Z 1444.386742508,A -179.964424843,B 89.600480293,C -176.36758035,S 0,T 0,E1 0,E2 0,E3 0,E4 0,E5 0,E6 0}
DECL E6POS XE_S09_1285={X 2227.000785769,Y 10316.797993456,Z 1444.389951979,A 179.798482181,B 89.600522256,C -176.704567717,S 0,T 0,E1 0,E2 0,E3 0,E4 0,E5 0,E6 0}
DECL E6POS XE_S09_1290={X 2226.849100444,Y 10306.719193851,Z 1444.356314921,A 179.960187514,B 89.597072843,C -174.575266621,S 0,T 0,E1 0,E2 0,E3 0,E4 0,E5 0,E6 0}
DECL E6POS XE_S09_1295={X 2225.713246197,Y 10301.525700203,Z 1444.686607779,A -175.052947992,B 89.595920066,C -166.468848882,S 0,T 0,E1 0,E2 0,E3 0,E4 0,E5 0,E6 0}
DECL E6POS XE_S09_1300={X 2221.597512277,Y 10260.964884922,Z 1444.701117489,A -174.999900977,B 89.594920123,C -165.691954379,S 0,T 0,E1 0,E2 0,E3 0,E4 0,E5 0,E6 0}
DECL E6POS XE_S09_1305={X 2221.059293954,Y 10256.219052062,Z 1444.677857335,A -178.496802539,B 89.592588646,C -169.587455527,S 0,T 0,E1 0,E2 0,E3 0,E4 0,E5 0,E6 0}
DECL E6POS XE_S09_1310={X 2221.177960483,Y 10246.396589827,Z 1444.724965479,A -178.339915937,B 89.603199131,C -174.809666381,S 0,T 0,E1 0,E2 0,E3 0,E4 0,E5 0,E6 0}
DECL E6POS XE_S09_1315={X 2220.744617027,Y 10219.295943634,Z 1444.685453391,A 178.62552356,B 89.598488718,C -177.813093301,S 0,T 0,E1 0,E2 0,E3 0,E4 0,E5 0,E6 0}
DECL E6POS XE_S09_1320={X 2219.906913923,Y 10154.371656886,Z 1444.705023039,A -178.327804329,B 89.603199512,C -174.820550023,S 0,T 0,E1 0,E2 0,E3 0,E4 0,E5 0,E6 0}
DECL E6POS XE_S09_1325={X 2220.219714198,Y 10133.472572024,Z 1444.733690903,A 179.663770642,B 89.604018048,C -178.294335257,S 0,T 0,E1 0,E2 0,E3 0,E4 0,E5 0,E6 0}
DECL E6POS XE_S09_1330={X 2217.991149214,Y 9985.553080389,Z 1444.431423529,A 177.297210066,B 89.500574367,C -179.522004892,S 0,T 0,E1 0,E2 0,E3 0,E4 0,E5 0,E6 0}
DECL E6POS XE_S09_1335={X 2217.664946959,Y 9965.554885485,Z 1444.414734181,A 178.346566781,B 89.371814625,C -179.044538607,S 0,T 0,E1 0,E2 0,E3 0,E4 0,E5 0,E6 0}
DECL E6POS XE_S09_1340={X 2216.750852685,Y 9899.557742122,Z 1444.397527125,A 178.017812361,B 89.456712526,C -179.307393344,S 0,T 0,E1 0,E2 0,E3 0,E4 0,E5 0,E6 0}
DECL E6POS XE_S09_1345={X 2215.734704087,Y 9833.554770917,Z 1444.495321815,A 178.25701316,B 89.411750595,C -179.110237502,S 0,T 0,E1 0,E2 0,E3 0,E4 0,E5 0,E6 0}
DECL E6POS XE_S09_1350={X 2215.70478369,Y 9813.545942816,Z 1444.477529679,A 177.666607717,B 88.928756057,C -176.6904132,S 0,T 0,E1 0,E2 0,E3 0,E4 0,E5 0,E6 0}
DECL E6POS XE_S09_1355={X 2213.521973081,Y 9649.600343579,Z 1444.344063518,A 177.140162894,B 89.811229507,C 176.479974152,S 0,T 0,E1 0,E2 0,E3 0,E4 0,E5 0,E6 0}
DECL E6POS XE_S09_1360={X 2211.357157297,Y 9497.5800533,Z 1443.791839955,A 178.444601799,B 89.363838543,C -178.846604347,S 0,T 0,E1 0,E2 0,E3 0,E4 0,E5 0,E6 0}
DECL E6POS XE_S09_1365={X 2210.909791812,Y 9467.578965473,Z 1443.786059093,A 177.935439051,B 89.50271028,C -179.325826437,S 0,T 0,E1 0,E2 0,E3 0,E4 0,E5 0,E6 0}
DECL E6POS XE_S09_1370={X 2210.760978761,Y 9457.575170983,Z 1443.777816904,A 178.160706843,B 89.457744185,C -179.104602331,S 0,T 0,E1 0,E2 0,E3 0,E4 0,E5 0,E6 0}
DECL E6POS XE_S09_1375={X 2210.990995451,Y 9452.479509109,Z 1443.55125231,A 178.297389535,B 89.296836837,C 175.049408113,S 0,T 0,E1 0,E2 0,E3 0,E4 0,E5 0,E6 0}
DECL E6POS XE_S09_1380={X 2214.747137644,Y 9411.399412238,Z 1443.474818382,A 175.674431813,B 89.461490281,C 172.785565081,S 0,T 0,E1 0,E2 0,E3 0,E4 0,E5 0,E6 0}
DECL E6POS XE_S09_1385={X 2215.092325292,Y 9406.701189693,Z 1443.504310764,A -179.448502571,B 89.508515182,C -179.832214596,S 0,T 0,E1 0,E2 0,E3 0,E4 0,E5 0,E6 0}
DECL E6POS XE_S09_1390={X 2214.881653543,Y 9397.580734167,Z 1443.476142213,A 177.899431385,B 89.502710255,C -179.236882531,S 0,T 0,E1 0,E2 0,E3 0,E4 0,E5 0,E6 0}
DECL E6POS XE_S09_1395={X 2212.015093873,Y 9199.564903294,Z 1443.416153116,A 178.712092663,B 89.555779103,C -177.9672726,S 0,T 0,E1 0,E2 0,E3 0,E4 0,E5 0,E6 0}
DECL E6POS XE_S09_1400={X 2211.237272168,Y 9149.320679992,Z 1444.066283851,A -178.007022662,B 89.800205338,C -174.477092211,S 0,T 0,E1 0,E2 0,E3 0,E4 0,E5 0,E6 0}
DECL E6POS XE_S09_1405={X 2211.318039652,Y 9126.310675528,Z 1444.035804515,A -3.248340115,B 89.899573655,C -0.021005809,S 0,T 0,E1 0,E2 0,E3 0,E4 0,E5 0,E6 0}
DECL E6POS XE_S09_1410={X 2210.648139206,Y 9075.286186619,Z 1444.000689469,A -2.479776644,B 89.701763312,C 1.629635187,S 0,T 0,E1 0,E2 0,E3 0,E4 0,E5 0,E6 0}
DECL E6POS XE_S09_1415={X 2209.840332207,Y 9054.331793098,Z 1444.022894402,A -1.121214766,B 89.701735903,C 2.406338778,S 0,T 0,E1 0,E2 0,E3 0,E4 0,E5 0,E6 0}
DECL E6POS XE_S09_1420={X 2207.937069916,Y 8922.629763846,Z 1443.974196699,A -178.4184131,B 89.64508951,C -174.712773007,S 0,T 0,E1 0,E2 0,E3 0,E4 0,E5 0,E6 0}
DECL E6POS XE_S09_1425={X 2207.965202705,Y 8899.645973983,Z 1443.968671192,A -178.281186488,B 89.701206101,C -174.8644375,S 0,T 0,E1 0,E2 0,E3 0,E4 0,E5 0,E6 0}
DECL E6POS XE_S09_1430={X 2203.950560827,Y 8649.67903611,Z 1443.913789455,A -178.190090154,B 89.701083695,C -174.473392179,S 0,T 0,E1 0,E2 0,E3 0,E4 0,E5 0,E6 0}
DECL E6POS XE_S09_1435={X 2201.630060074,Y 8504.597870298,Z 1443.884780857,A -178.190098057,B 89.701082746,C -174.473400562,S 0,T 0,E1 0,E2 0,E3 0,E4 0,E5 0,E6 0}
DECL E6POS XE_S09_1440={X 2201.144220446,Y 8474.605704832,Z 1443.876340202,A -178.189389255,B 89.701080433,C -174.472692919,S 0,T 0,E1 0,E2 0,E3 0,E4 0,E5 0,E6 0}
DECL E6POS XE_S09_1445={X 2200.997243869,Y 8464.625966855,Z 1443.890229603,A -178.35352381,B 89.660254101,C -175.104833385,S 0,T 0,E1 0,E2 0,E3 0,E4 0,E5 0,E6 0}
DECL E6POS XE_S09_1450={X 2201.06521561,Y 8460.194788964,Z 1443.879938883,A 166.041453324,B 89.795420204,C 163.92698844,S 0,T 0,E1 0,E2 0,E3 0,E4 0,E5 0,E6 0}
DECL E6POS XE_S09_1455={X 2202.368911821,Y 8449.28355845,Z 1443.845207479,A 19.893201091,B 89.724804661,C 17.98301397,S 0,T 0,E1 0,E2 0,E3 0,E4 0,E5 0,E6 0}
DECL E6POS XE_S09_1460={X 2202.659673943,Y 8444.995198493,Z 1443.869094556,A 3.907945593,B 89.396483355,C 4.688387573,S 0,T 0,E1 0,E2 0,E3 0,E4 0,E5 0,E6 0}
DECL E6POS XE_S09_1465={X 2202.377182537,Y 8432.920319978,Z 1443.85252978,A -0.568059242,B 89.204270822,C 3.100986487,S 0,T 0,E1 0,E2 0,E3 0,E4 0,E5 0,E6 0}
DECL E6POS XE_S09_1470={X 2202.850611988,Y 8399.79568905,Z 1444.106618328,A -175.957820402,B 89.789184867,C -172.608216883,S 0,T 0,E1 0,E2 0,E3 0,E4 0,E5 0,E6 0}
DECL E6POS XE_S09_1475={X 2197.833142293,Y 8167.844373813,Z 1443.792970681,A -177.138452106,B 89.897379581,C -173.746082968,S 0,T 0,E1 0,E2 0,E3 0,E4 0,E5 0,E6 0}
DECL E6POS XE_S09_1480={X 2197.316118329,Y 8147.853866339,Z 1443.793761054,A 179.368627575,B 89.899747079,C -177.839957846,S 0,T 0,E1 0,E2 0,E3 0,E4 0,E5 0,E6 0}
DECL E6POS XE_S09_1485={X 2195.04089175,Y 8015.874943666,Z 1443.763497437,A 179.911521376,B 89.601211549,C -177.29597757,S 0,T 0,E1 0,E2 0,E3 0,E4 0,E5 0,E6 0}
DECL E6POS XE_S09_1490={X 2194.91453268,Y 7995.905913445,Z 1443.768473358,A 172.91767096,B 89.900274309,C 174.768231339,S 0,T 0,E1 0,E2 0,E3 0,E4 0,E5 0,E6 0}
DECL E6POS XE_S09_1495={X 2193.134809029,Y 7899.891665305,Z 1443.737116014,A -179.756532721,B 89.899720067,C -176.905173666,S 0,T 0,E1 0,E2 0,E3 0,E4 0,E5 0,E6 0}
DECL E6POS XE_S09_1500={X 2188.55595384,Y 7649.926298456,Z 1443.702475394,A 179.971266298,B 89.302324044,C -177.174855897,S 0,T 0,E1 0,E2 0,E3 0,E4 0,E5 0,E6 0}
DECL E6POS XE_S09_1505={X 2187.400540794,Y 7587.535832853,Z 1443.686496895,A -179.914449547,B 89.601183964,C -177.061997239,S 0,T 0,E1 0,E2 0,E3 0,E4 0,E5 0,E6 0}
DECL E6POS XE_S09_1510={X 2186.800241712,Y 7557.537636958,Z 1443.678188595,A -1.351423908,B 89.902247141,C 1.499012546,S 0,T 0,E1 0,E2 0,E3 0,E4 0,E5 0,E6 0}
DECL E6POS XE_S09_1515={X 2186.560982301,Y 7547.363215812,Z 1443.632016025,A 177.60011696,B 89.89180042,C 179.89448595,S 0,T 0,E1 0,E2 0,E3 0,E4 0,E5 0,E6 0}
DECL E6POS XE_S09_1520={X 2186.974771761,Y 7541.84559453,Z 1443.650838151,A 176.407187403,B 89.496242581,C 177.050028846,S 0,T 0,E1 0,E2 0,E3 0,E4 0,E5 0,E6 0}
DECL E6POS XE_S09_1525={X 2191.742103022,Y 7482.747166146,Z 1443.57237731,A 148.042911496,B 89.87803172,C 145.399026492,S 0,T 0,E1 0,E2 0,E3 0,E4 0,E5 0,E6 0}
DECL E6POS XE_S09_1530={X 2192.214387524,Y 7476.567895526,Z 1443.540699275,A 20.782229579,B 89.89941934,C 21.180051704,S 0,T 0,E1 0,E2 0,E3 0,E4 0,E5 0,E6 0}
DECL E6POS XE_S09_1535={X 2192.04490176,Y 7464.650344102,Z 1443.56264658,A -2.351313045,B 89.902231527,C 0.557067538,S 0,T 0,E1 0,E2 0,E3 0,E4 0,E5 0,E6 0}
DECL E6POS XE_S09_1540={X 2190.794008619,Y 7400.147756403,Z 1443.54491701,A -178.940102903,B 89.798630311,C -176.030849075,S 0,T 0,E1 0,E2 0,E3 0,E4 0,E5 0,E6 0}
DECL E6POS XE_S09_1545={X 2188.469016332,Y 7280.135490073,Z 1443.511242914,A -178.875110106,B 89.598808749,C -175.364906924,S 0,T 0,E1 0,E2 0,E3 0,E4 0,E5 0,E6 0}
DECL E6POS XE_S09_1550={X 2187.80839561,Y 7260.175884447,Z 1443.529425593,A -179.818311928,B 89.20230038,C -177.006653605,S 0,T 0,E1 0,E2 0,E3 0,E4 0,E5 0,E6 0}
DECL E6POS XE_S09_1555={X 2186.181258866,Y 7180.131211837,Z 1443.500463311,A -177.518605416,B 89.398371906,C -173.570375769,S 0,T 0,E1 0,E2 0,E3 0,E4 0,E5 0,E6 0}
DECL E6POS XE_S09_1560={X 2185.16730774,Y 7128.173455377,Z 1443.606934626,A -165.96361328,B 89.897675841,C -161.814058084,S 0,T 0,E1 0,E2 0,E3 0,E4 0,E5 0,E6 0}
DECL E6POS XE_S09_1565={X 2184.991179943,Y 7108.198928263,Z 1443.600310309,A -168.790170529,B 89.902535129,C -165.741519366,S 0,T 0,E1 0,E2 0,E3 0,E4 0,E5 0,E6 0}
DECL E6POS XE_S09_1570={X 2180.733515692,Y 6900.224315148,Z 1443.574750089,A -165.365690649,B 89.897376712,C -161.184195337,S 0,T 0,E1 0,E2 0,E3 0,E4 0,E5 0,E6 0}
DECL E6POS XE_S09_1575={X 2177.758793725,Y 6759.173793856,Z 1444.035876287,A -174.960688955,B 89.701609669,C -170.880343175,S 0,T 0,E1 0,E2 0,E3 0,E4 0,E5 0,E6 0}
DECL E6POS XE_S09_1580={X 2177.133162627,Y 6729.182622723,Z 1444.035311332,A -174.959320226,B 89.701603679,C -170.878975818,S 0,T 0,E1 0,E2 0,E3 0,E4 0,E5 0,E6 0}
DECL E6POS XE_S09_1585={X 2176.995861124,Y 6719.289999095,Z 1444.066029841,A -145.084434862,B 89.883125747,C -139.218876988,S 0,T 0,E1 0,E2 0,E3 0,E4 0,E5 0,E6 0}
DECL E6POS XE_S09_1590={X 2176.21700776,Y 6714.473636244,Z 1443.923395803,A -164.277894379,B 89.709728334,C -155.309438186,S 0,T 0,E1 0,E2 0,E3 0,E4 0,E5 0,E6 0}
DECL E6POS XE_S09_1595={X 2171.364649228,Y 6672.611584171,Z 1443.973392505,A -147.404991945,B 89.821488326,C -137.58429677,S 0,T 0,E1 0,E2 0,E3 0,E4 0,E5 0,E6 0}
DECL E6POS XE_S09_1600={X 2170.694904995,Y 6666.648804919,Z 1443.97979595,A -124.509324964,B 89.896140467,C -116.307326485,S 0,T 0,E1 0,E2 0,E3 0,E4 0,E5 0,E6 0}
DECL E6POS XE_S09_1605={X 2170.682611253,Y 6660.885204503,Z 1443.963167999,A -179.097152157,B 89.605729457,C -175.843415246,S 0,T 0,E1 0,E2 0,E3 0,E4 0,E5 0,E6 0}
DECL E6POS XE_S09_1610={X 2164.923929161,Y 6400.968103345,Z 1443.892899227,A 179.473297848,B 89.100438996,C -176.671828261,S 0,T 0,E1 0,E2 0,E3 0,E4 0,E5 0,E6 0}
DECL E6POS XE_S09_1615={X 2162.631836182,Y 6308.978371042,Z 1443.872175718,A 179.550890857,B 88.907442869,C -176.594352668,S 0,T 0,E1 0,E2 0,E3 0,E4 0,E5 0,E6 0}
DECL E6POS XE_S09_1620={X 2159.625489741,Y 6177.013313115,Z 1443.85396372,A 179.578241194,B 89.100419072,C -176.467985779,S 0,T 0,E1 0,E2 0,E3 0,E4 0,E5 0,E6 0}
DECL E6POS XE_S09_1625={X 2159.348385806,Y 6151.038966496,Z 1443.859822626,A 179.457329345,B 89.100430804,C -176.616797538,S 0,T 0,E1 0,E2 0,E3 0,E4 0,E5 0,E6 0}
DECL E6POS XE_S09_1630={X 2153.57253128,Y 5901.092852085,Z 1443.825749721,A 179.558885658,B 89.001426233,C -176.516344712,S 0,T 0,E1 0,E2 0,E3 0,E4 0,E5 0,E6 0}
DECL E6POS XE_S09_1635={X 2150.611881622,Y 5777.147711985,Z 1443.82120842,A 179.450232537,B 89.100423671,C -176.589894371,S 0,T 0,E1 0,E2 0,E3 0,E4 0,E5 0,E6 0}
DECL E6POS XE_S09_1640={X 2149.665657427,Y 5737.135787019,Z 1443.790343151,A 179.533252207,B 89.100380705,C -176.307969738,S 0,T 0,E1 0,E2 0,E3 0,E4 0,E5 0,E6 0}
DECL E6POS XE_S09_1645={X 2148.680514139,Y 5713.13417566,Z 1443.801541424,A 179.50582563,B 89.099232295,C -175.635476078,S 0,T 0,E1 0,E2 0,E3 0,E4 0,E5 0,E6 0}
DECL E6POS XE_S09_1650={X 2147.73545582,Y 5672.161436637,Z 1443.803696646,A 179.583079269,B 88.902423631,C -176.457206546,S 0,T 0,E1 0,E2 0,E3 0,E4 0,E5 0,E6 0}
DECL E6POS XE_S09_1655={X 2147.485783223,Y 5662.153763202,Z 1443.793467045,A 179.526281957,B 88.985335779,C -176.113987836,S 0,T 0,E1 0,E2 0,E3 0,E4 0,E5 0,E6 0}
DECL E6POS XE_S09_1660={X 2143.939440806,Y 5607.168551523,Z 1443.797871601,A 179.359965282,B 89.027053356,C -174.558397835,S 0,T 0,E1 0,E2 0,E3 0,E4 0,E5 0,E6 0}
DECL E6POS XE_S09_1665={X 2143.279868696,Y 5597.137259375,Z 1443.803433129,A 179.229799383,B 89.002969152,C -173.751578239,S 0,T 0,E1 0,E2 0,E3 0,E4 0,E5 0,E6 0}
DECL E6POS XE_S09_1670={X 2142.640185162,Y 5592.834052911,Z 1443.854676743,A 178.362478265,B 88.96382891,C -172.674402765,S 0,T 0,E1 0,E2 0,E3 0,E4 0,E5 0,E6 0}
DECL E6POS XE_S09_1675={X 2139.30205584,Y 5565.519262904,Z 1443.872630499,A 178.376165204,B 88.984885142,C -171.966847256,S 0,T 0,E1 0,E2 0,E3 0,E4 0,E5 0,E6 0}
DECL E6POS XE_S09_1680={X 2138.927361181,Y 5561.165232171,Z 1443.820938206,A 178.8657905,B 88.953938042,C -172.18152975,S 0,T 0,E1 0,E2 0,E3 0,E4 0,E5 0,E6 0}
DECL E6POS XE_S09_1685={X 2138.822182688,Y 5553.328626645,Z 1443.849820481,A 179.680066511,B 89.201478583,C -176.563180828,S 0,T 0,E1 0,E2 0,E3 0,E4 0,E5 0,E6 0}
DECL E6POS XE_S09_1690={X 2138.06480486,Y 5522.357200204,Z 1443.862521544,A 179.558082703,B 89.300303921,C -176.5848838,S 0,T 0,E1 0,E2 0,E3 0,E4 0,E5 0,E6 0}
DECL E6POS XE_S09_1695={X 2137.808070952,Y 5512.330658619,Z 1443.85404471,A 179.877320833,B 89.398595889,C -175.465104623,S 0,T 0,E1 0,E2 0,E3 0,E4 0,E5 0,E6 0}
DECL E6POS XE_S09_1700={X 2129.82335206,Y 5387.421565597,Z 1443.89727657,A 179.283522059,B 88.997020241,C -174.255826843,S 0,T 0,E1 0,E2 0,E3 0,E4 0,E5 0,E6 0}
DECL E6POS XE_S09_1705={X 2129.638484155,Y 5377.521373522,Z 1443.926401215,A 179.551888003,B 89.00143888,C -176.489346501,S 0,T 0,E1 0,E2 0,E3 0,E4 0,E5 0,E6 0}
DECL E6POS XE_S09_1710={X 2128.500699375,Y 5331.460930499,Z 1444.266816282,A 179.668547203,B 88.902099513,C -176.02863382,S 0,T 0,E1 0,E2 0,E3 0,E4 0,E5 0,E6 0}
DECL E6POS XE_S09_1715={X 2123.944955847,Y 5151.56561003,Z 1443.875279088,A 178.369630252,B 89.100904166,C -177.827561324,S 0,T 0,E1 0,E2 0,E3 0,E4 0,E5 0,E6 0}
DECL E6POS XE_S09_1720={X 2117.789670243,Y 4901.624993581,Z 1443.34295141,A 178.604671012,B 89.001968007,C -177.540651609,S 0,T 0,E1 0,E2 0,E3 0,E4 0,E5 0,E6 0}
DECL E6POS XE_S09_1725={X 2111.433484118,Y 4651.698388808,Z 1443.323187899,A 178.462168836,B 89.101939539,C -177.684115331,S 0,T 0,E1 0,E2 0,E3 0,E4 0,E5 0,E6 0}
DECL E6POS XE_S09_1730={X 2110.319099458,Y 4606.67610609,Z 1442.795947598,A 178.720045091,B 89.002988708,C -177.426374742,S 0,T 0,E1 0,E2 0,E3 0,E4 0,E5 0,E6 0}
DECL E6POS XE_S09_1735={X 2110.059738633,Y 4596.66854736,Z 1442.786276652,A 178.540518136,B 89.002006585,C -177.305890738,S 0,T 0,E1 0,E2 0,E3 0,E4 0,E5 0,E6 0}
DECL E6POS XE_S09_1740={X 2107.489870395,Y 4543.674566721,Z 1442.803749078,A 177.998600586,B 89.00016972,C -176.747850297,S 0,T 0,E1 0,E2 0,E3 0,E4 0,E5 0,E6 0}
DECL E6POS XE_S09_1745={X 2106.930112455,Y 4533.69689414,Z 1442.79619374,A 177.981515162,B 89.100183581,C -176.76907401,S 0,T 0,E1 0,E2 0,E3 0,E4 0,E5 0,E6 0}
DECL E6POS XE_S09_1750={X 2107.356524944,Y 4523.796285277,Z 1442.820019063,A 179.888620994,B 88.973122658,C -178.521750453,S 0,T 0,E1 0,E2 0,E3 0,E4 0,E5 0,E6 0}
DECL E6POS XE_S09_1755={X 2108.85142458,Y 4412.883274717,Z 1442.531271387,A 179.63649657,B 89.106151661,C -178.749622583,S 0,T 0,E1 0,E2 0,E3 0,E4 0,E5 0,E6 0}
DECL E6POS XE_S09_1760={X 2108.512501636,Y 4398.80107528,Z 1442.50806397,A 178.609991867,B 89.101986305,C -177.471441462,S 0,T 0,E1 0,E2 0,E3 0,E4 0,E5 0,E6 0}
DECL E6POS XE_S09_1765={X 2102.473025877,Y 4155.604056708,Z 1444.002827525,A 174.50282563,B 89.264285291,C 178.622535629,S 0,T 0,E1 0,E2 0,E3 0,E4 0,E5 0,E6 0}
DECL E6POS XE_S09_1770={X 2095.219712715,Y 3902.032625877,Z 1443.9180355,A 178.883803421,B 89.000722078,C -176.9272756,S 0,T 0,E1 0,E2 0,E3 0,E4 0,E5 0,E6 0}
DECL E6POS XE_S09_1775={X 2088.317982999,Y 3652.111334897,Z 1444.509254498,A 178.941122046,B 89.001729874,C -176.870998421,S 0,T 0,E1 0,E2 0,E3 0,E4 0,E5 0,E6 0}
DECL E6POS XE_S09_1780={X 2086.688400741,Y 3605.123834307,Z 1444.316682997,A 178.868182063,B 89.100713928,C -176.586029239,S 0,T 0,E1 0,E2 0,E3 0,E4 0,E5 0,E6 0}
DECL E6POS XE_S09_1785={X 2082.570414871,Y 3452.189748441,Z 1443.907091812,A 178.959425491,B 89.000727459,C -176.752738787,S 0,T 0,E1 0,E2 0,E3 0,E4 0,E5 0,E6 0}
DECL E6POS XE_S09_1790={X 2080.786392599,Y 3400.019271535,Z 1443.518559396,A -178.391741128,B 89.410099256,C -174.650010525,S 0,T 0,E1 0,E2 0,E3 0,E4 0,E5 0,E6 0}
DECL E6POS XP15_S09={X 2070.623513003,Y 3380.102684071,Z 1443.667358836,A 178.951211527,B 88.913747009,C -176.805907938,S 0,T 0,E1 0,E2 0,E3 0,E4 0,E5 0,E6 0}
DECL E6POS XP20_S09={X 1864.941191848,Y 3379.847759773,Z 1449.569373408,A 178.184965675,B 89.336892259,C 178.588970399,S 0,T 0,E1 0,E2 0,E3 0,E4 0,E5 0,E6 0}
DECL E6POS XP5_S08={X 1841.271455724,Y 33190.346929735,Z 1221.036114024,A 178.962710114,B 88.807667457,C -178.625027003,S 0,T 0,E1 0,E2 0,E3 0,E4 0,E5 0,E6 0}
DECL E6POS XP10_S08={X 2041.184632953,Y 33193.937080204,Z 1216.940508019,A -179.790832156,B 88.801179963,C -179.677152245,S 0,T 0,E1 0,E2 0,E3 0,E4 0,E5 0,E6 0}
DECL E6POS XE_S08_5={X 2081.39276309,Y 33190.674592034,Z 1216.195159557,A -179.744685798,B 88.799123022,C -179.630061649,S 0,T 0,E1 0,E2 0,E3 0,E4 0,E5 0,E6 0}
DECL E6POS XE_S08_10={X 2081.3305765,Y 33177.803046292,Z 1216.196398702,A -179.693762446,B 88.803105243,C -179.579182391,S 0,T 0,E1 0,E2 0,E3 0,E4 0,E5 0,E6 0}
DECL E6POS XE_S08_11={X 2083.278757373,Y 33114.246983426,Z 1216.12476502,A -179.645953142,B 88.803086961,C -179.531419367,S 0,T 0,E1 0,E2 0,E3 0,E4 0,E5 0,E6 0}
DECL E6POS XE_S08_12={X 2083.798699524,Y 33097.57115744,Z 1216.098908272,A -179.907944029,B 88.902587714,C -178.394236192,S 0,T 0,E1 0,E2 0,E3 0,E4 0,E5 0,E6 0}
DECL E6POS XE_S08_15={X 2086.468751351,Y 33008.803483444,Z 1216.036479736,A 179.824955148,B 89.001639483,C -178.661030449,S 0,T 0,E1 0,E2 0,E3 0,E4 0,E5 0,E6 0}
DECL E6POS XE_S08_20={X 2090.762452845,Y 32758.837280191,Z 1215.87510178,A 179.862340337,B 89.001596122,C -178.523692618,S 0,T 0,E1 0,E2 0,E3 0,E4 0,E5 0,E6 0}
DECL E6POS XE_S08_25={X 2095.955774807,Y 32455.455019156,Z 1215.668050869,A -179.965672815,B 88.902574588,C -178.417917794,S 0,T 0,E1 0,E2 0,E3 0,E4 0,E5 0,E6 0}
DECL E6POS XE_S08_30={X 2097.605756732,Y 32355.548511951,Z 1215.664232217,A 179.817944883,B 89.001623387,C -178.635045542,S 0,T 0,E1 0,E2 0,E3 0,E4 0,E5 0,E6 0}
DECL E6POS XE_S08_35={X 2099.209264357,Y 32258.909858226,Z 1215.542574426,A 179.781205689,B 89.001655663,C -178.771740271,S 0,T 0,E1 0,E2 0,E3 0,E4 0,E5 0,E6 0}
DECL E6POS XE_S08_40={X 2103.33515383,Y 32008.954766219,Z 1214.784637589,A 179.250525806,B 89.200687957,C -179.302924544,S 0,T 0,E1 0,E2 0,E3 0,E4 0,E5 0,E6 0}
DECL E6POS XE_S08_45={X 2107.482415859,Y 31759.033788102,Z 1214.640474185,A -179.589201331,B 88.001896922,C -177.741722909,S 0,T 0,E1 0,E2 0,E3 0,E4 0,E5 0,E6 0}
DECL E6POS XE_S08_50={X 2111.077096838,Y 31537.160303447,Z 1214.480610062,A -179.248818576,B 88.001616585,C -177.363815116,S 0,T 0,E1 0,E2 0,E3 0,E4 0,E5 0,E6 0}
DECL E6POS XE_S08_55={X 2111.008757507,Y 31528.827118596,Z 1214.486069546,A 179.446208229,B 88.001798781,C -177.365056665,S 0,T 0,E1 0,E2 0,E3 0,E4 0,E5 0,E6 0}
DECL E6POS XE_S08_60={X 2110.489914086,Y 31486.791044573,Z 1214.472320015,A 179.463595126,B 88.001759703,C -177.233710859,S 0,T 0,E1 0,E2 0,E3 0,E4 0,E5 0,E6 0}
DECL E6POS XE_S08_65={X 2110.86355037,Y 31476.868702963,Z 1214.465733071,A -179.558669786,B 87.95187578,C -177.724268535,S 0,T 0,E1 0,E2 0,E3 0,E4 0,E5 0,E6 0}
DECL E6POS XE_S08_70={X 2113.918353169,Y 31287.06607771,Z 1214.346674751,A -179.679689101,B 88.104969142,C -177.845009033,S 0,T 0,E1 0,E2 0,E3 0,E4 0,E5 0,E6 0}
DECL E6POS XE_S08_75={X 2114.477636988,Y 31253.236634382,Z 1214.312753677,A -179.673554102,B 88.105985596,C -177.891873908,S 0,T 0,E1 0,E2 0,E3 0,E4 0,E5 0,E6 0}
DECL E6POS XE_S08_80={X 2114.235929399,Y 31243.029024934,Z 1214.323125607,A 176.929230807,B 88.09446944,C -176.449872823,S 0,T 0,E1 0,E2 0,E3 0,E4 0,E5 0,E6 0}
DECL E6POS XE_S08_85={X 2113.249787322,Y 31231.650454992,Z 1214.328206658,A 176.943458744,B 88.002350489,C -175.472647451,S 0,T 0,E1 0,E2 0,E3 0,E4 0,E5 0,E6 0}
DECL E6POS XE_S08_90={X 2113.033465467,Y 31219.155058012,Z 1214.334498913,A -179.726566715,B 88.144978545,C -177.830800645,S 0,T 0,E1 0,E2 0,E3 0,E4 0,E5 0,E6 0}
DECL E6POS XE_S08_95={X 2116.307534907,Y 31009.180091562,Z 1213.637339534,A -179.599343173,B 88.002974174,C -177.933837253,S 0,T 0,E1 0,E2 0,E3 0,E4 0,E5 0,E6 0}
DECL E6POS XE_S08_100={X 2120.235308313,Y 30759.217785876,Z 1213.738925635,A -179.170808717,B 88.801767884,C -177.274990718,S 0,T 0,E1 0,E2 0,E3 0,E4 0,E5 0,E6 0}
DECL E6POS XE_S08_105={X 2122.332241445,Y 30627.118872021,Z 1213.639450918,A -179.080647739,B 88.702727566,C -177.284064448,S 0,T 0,E1 0,E2 0,E3 0,E4 0,E5 0,E6 0}
DECL E6POS XE_S08_110={X 2122.390053572,Y 30623.574231296,Z 1213.636286366,A -179.268694654,B 88.801956373,C -177.672822835,S 0,T 0,E1 0,E2 0,E3 0,E4 0,E5 0,E6 0}
DECL E6POS XE_S08_115={X 2122.496023864,Y 30617.329300414,Z 1213.628475302,A -179.480578972,B 88.804364762,C -178.584589903,S 0,T 0,E1 0,E2 0,E3 0,E4 0,E5 0,E6 0}
DECL E6POS XE_S08_120={X 2122.714015539,Y 30613.702638179,Z 1213.637482589,A -179.373161225,B 88.803165176,C -178.119228683,S 0,T 0,E1 0,E2 0,E3 0,E4 0,E5 0,E6 0}
DECL E6POS XE_S08_125={X 2124.298835285,Y 30509.250189961,Z 1213.579666343,A -179.214326395,B 88.801774529,C -177.295459402,S 0,T 0,E1 0,E2 0,E3 0,E4 0,E5 0,E6 0}
DECL E6POS XE_S08_130={X 2128.140652442,Y 30259.255398856,Z 1213.405075298,A -179.183891283,B 88.801807487,C -177.365074077,S 0,T 0,E1 0,E2 0,E3 0,E4 0,E5 0,E6 0}
DECL E6POS XE_S08_135={X 2129.236332511,Y 30187.061316337,Z 1213.355611592,A -179.220400289,B 88.900756085,C -177.201385901,S 0,T 0,E1 0,E2 0,E3 0,E4 0,E5 0,E6 0}
DECL E6POS XE_S08_140={X 2129.787884963,Y 30151.669779634,Z 1213.334239539,A -179.239204489,B 88.900815995,C -177.320182162,S 0,T 0,E1 0,E2 0,E3 0,E4 0,E5 0,E6 0}
DECL E6POS XE_S08_145={X 2129.797043784,Y 30145.589008329,Z 1213.364511875,A 177.674070583,B 88.808046853,C -177.535631372,S 0,T 0,E1 0,E2 0,E3 0,E4 0,E5 0,E6 0}
DECL E6POS XE_S08_150={X 2128.309519034,Y 30129.823902261,Z 1213.229000791,A 178.661221086,B 88.831372404,C -173.731069349,S 0,T 0,E1 0,E2 0,E3 0,E4 0,E5 0,E6 0}
DECL E6POS XE_S08_155={X 2128.162548009,Y 30122.427193135,Z 1213.211517496,A -179.097111486,B 88.801648385,C -177.046344842,S 0,T 0,E1 0,E2 0,E3 0,E4 0,E5 0,E6 0}
DECL E6POS XE_S08_160={X 2129.926127913,Y 30009.465849934,Z 1213.138526158,A -179.235242813,B 88.900805262,C -177.296224645,S 0,T 0,E1 0,E2 0,E3 0,E4 0,E5 0,E6 0}
DECL E6POS XE_S08_165={X 2130.594406442,Y 29964.515694929,Z 1213.113695835,A -179.256998185,B 88.921808453,C -177.301927448,S 0,T 0,E1 0,E2 0,E3 0,E4 0,E5 0,E6 0}
DECL E6POS XE_S08_170={X 2130.688979336,Y 29958.130913509,Z 1213.106195731,A -178.672605509,B 88.859808191,C -177.518281406,S 0,T 0,E1 0,E2 0,E3 0,E4 0,E5 0,E6 0}
DECL E6POS XE_S08_175={X 2133.34239709,Y 29892.366224872,Z 1213.038066372,A -178.87755818,B 88.803181279,C -178.374219392,S 0,T 0,E1 0,E2 0,E3 0,E4 0,E5 0,E6 0}
DECL E6POS XE_S08_180={X 2133.258063904,Y 29886.084388797,Z 1213.038977384,A -179.321302081,B 88.837978924,C -177.712330322,S 0,T 0,E1 0,E2 0,E3 0,E4 0,E5 0,E6 0}
DECL E6POS XE_S08_185={X 2135.401120437,Y 29759.545187794,Z 1212.95364742,A -179.246011551,B 88.889790635,C -177.28699677,S 0,T 0,E1 0,E2 0,E3 0,E4 0,E5 0,E6 0}
DECL E6POS XE_S08_190={X 2139.048927303,Y 29509.57592951,Z 1212.70916343,A -179.544225719,B 88.60184611,C -177.885292546,S 0,T 0,E1 0,E2 0,E3 0,E4 0,E5 0,E6 0}
DECL E6POS XE_S08_195={X 2142.721776132,Y 29259.611560211,Z 1212.550570568,A -179.544076281,B 88.601838407,C -177.88514292,S 0,T 0,E1 0,E2 0,E3 0,E4 0,E5 0,E6 0}
DECL E6POS XE_S08_200={X 2144.430742857,Y 29144.618881883,Z 1212.46378872,A -179.544162839,B 88.601923695,C -178.085230507,S 0,T 0,E1 0,E2 0,E3 0,E4 0,E5 0,E6 0}
DECL E6POS XE_S08_205={X 2144.957350166,Y 29107.998498126,Z 1212.435368487,A -179.428121293,B 88.502804382,C -177.869420566,S 0,T 0,E1 0,E2 0,E3 0,E4 0,E5 0,E6 0}
DECL E6POS XE_S08_210={X 2144.930324975,Y 29103.074957153,Z 1212.468259592,A 177.477929921,B 88.563196258,C -178.108786548,S 0,T 0,E1 0,E2 0,E3 0,E4 0,E5 0,E6 0}
DECL E6POS XE_S08_215={X 2144.294023191,Y 29096.016816186,Z 1212.453931202,A 177.795653282,B 88.602234749,C -174.977416648,S 0,T 0,E1 0,E2 0,E3 0,E4 0,E5 0,E6 0}
DECL E6POS XE_S08_220={X 2144.285511841,Y 29088.519669232,Z 1212.429081785,A -179.461619628,B 88.602843824,C -177.906773964,S 0,T 0,E1 0,E2 0,E3 0,E4 0,E5 0,E6 0}
DECL E6POS XE_S08_225={X 2145.252601435,Y 29009.627637326,Z 1211.699817361,A -179.59111301,B 88.646901344,C -178.006086091,S 0,T 0,E1 0,E2 0,E3 0,E4 0,E5 0,E6 0}
DECL E6POS XE_S08_230={X 2148.771500813,Y 28759.664521051,Z 1212.695689243,A -179.952996588,B 88.351038447,C -178.056858103,S 0,T 0,E1 0,E2 0,E3 0,E4 0,E5 0,E6 0}
DECL E6POS XE_S08_235={X 2152.273949868,Y 28509.68401794,Z 1212.534851624,A -179.953259312,B 88.351041403,C -178.057120969,S 0,T 0,E1 0,E2 0,E3 0,E4 0,E5 0,E6 0}
DECL E6POS XE_S08_240={X 2153.1323024,Y 28448.697671589,Z 1212.495267487,A -179.953129992,B 88.351035276,C -178.056988953,S 0,T 0,E1 0,E2 0,E3 0,E4 0,E5 0,E6 0}
DECL E6POS XE_S08_245={X 2153.212889435,Y 28445.403983077,Z 1212.492471781,A 178.705916791,B 88.35470949,C -178.134474904,S 0,T 0,E1 0,E2 0,E3 0,E4 0,E5 0,E6 0}
DECL E6POS XE_S08_250={X 2152.495767236,Y 28425.424973231,Z 1212.500048874,A 178.642142029,B 88.352518335,C -177.267314928,S 0,T 0,E1 0,E2 0,E3 0,E4 0,E5 0,E6 0}
DECL E6POS XE_S08_255={X 2152.475688112,Y 28421.23525329,Z 1212.483651731,A -179.975634636,B 88.350773315,C -177.186603504,S 0,T 0,E1 0,E2 0,E3 0,E4 0,E5 0,E6 0}
DECL E6POS XE_S08_260={X 2154.676083256,Y 28259.71713542,Z 1212.403230939,A -179.957466834,B 88.352026607,C -178.034328912,S 0,T 0,E1 0,E2 0,E3 0,E4 0,E5 0,E6 0}
DECL E6POS XE_S08_265={X 2157.350058939,Y 28062.723684198,Z 1211.84214517,A -179.869197229,B 88.353021636,C -178.046151005,S 0,T 0,E1 0,E2 0,E3 0,E4 0,E5 0,E6 0}
DECL E6POS XE_S08_270={X 2157.794091062,Y 28029.239305761,Z 1211.828605556,A -179.984629838,B 88.452035829,C -178.062397824,S 0,T 0,E1 0,E2 0,E3 0,E4 0,E5 0,E6 0}
DECL E6POS XE_S08_275={X 2157.796996348,Y 28021.025741624,Z 1211.839495448,A 177.251655405,B 88.357452941,C -177.542258776,S 0,T 0,E1 0,E2 0,E3 0,E4 0,E5 0,E6 0}
DECL E6POS XE_S08_280={X 2156.582059877,Y 28007.324439971,Z 1211.836361128,A 177.093769655,B 88.352446696,C -175.26132108,S 0,T 0,E1 0,E2 0,E3 0,E4 0,E5 0,E6 0}
DECL E6POS XE_S08_285={X 2156.295088548,Y 27997.361352653,Z 1211.830452976,A -179.870919694,B 88.353027214,C -178.038875317,S 0,T 0,E1 0,E2 0,E3 0,E4 0,E5 0,E6 0}
DECL E6POS XE_S08_290={X 2157.074399534,Y 27933.237347813,Z 1211.755676777,A -179.875388998,B 88.352020648,C -178.022340044,S 0,T 0,E1 0,E2 0,E3 0,E4 0,E5 0,E6 0}
DECL E6POS XE_S08_295={X 2159.322375211,Y 27759.792048556,Z 1212.176742142,A 179.956093481,B 88.502048074,C -177.990564643,S 0,T 0,E1 0,E2 0,E3 0,E4 0,E5 0,E6 0}
DECL E6POS XE_S08_300={X 2162.593771011,Y 27509.803444346,Z 1212.010619615,A 179.974596997,B 88.502005334,C -177.873101893,S 0,T 0,E1 0,E2 0,E3 0,E4 0,E5 0,E6 0}
DECL E6POS XE_S08_305={X 2165.846594863,Y 27259.832602296,Z 1211.860187812,A 179.97416401,B 88.502012013,C -177.873535333,S 0,T 0,E1 0,E2 0,E3 0,E4 0,E5 0,E6 0}
DECL E6POS XE_S08_310={X 2167.699178195,Y 27116.598772984,Z 1211.73302176,A 179.878665454,B 88.601063011,C -178.069852579,S 0,T 0,E1 0,E2 0,E3 0,E4 0,E5 0,E6 0}
DECL E6POS XE_S08_315={X 2168.927999307,Y 27019.857651578,Z 1211.730911724,A 179.951565014,B 88.502036148,C -177.974100212,S 0,T 0,E1 0,E2 0,E3 0,E4 0,E5 0,E6 0}
DECL E6POS XE_S08_320={X 2169.349865562,Y 26986.204997606,Z 1211.707614152,A 179.951565312,B 88.502036858,C -177.974091684,S 0,T 0,E1 0,E2 0,E3 0,E4 0,E5 0,E6 0}
DECL E6POS XE_S08_325={X 2170.072495303,Y 26976.245042761,Z 1211.677686188,A -177.643909155,B 88.568471385,C 178.763735204,S 0,T 0,E1 0,E2 0,E3 0,E4 0,E5 0,E6 0}
DECL E6POS XE_S08_330={X 2173.438234069,Y 26945.263796841,Z 1211.611455344,A -177.934529861,B 88.653875881,C 178.539627934,S 0,T 0,E1 0,E2 0,E3 0,E4 0,E5 0,E6 0}
DECL E6POS XE_S08_335={X 2173.955572883,Y 26934.892538343,Z 1211.610939398,A 179.885603372,B 88.591147547,C -178.308889037,S 0,T 0,E1 0,E2 0,E3 0,E4 0,E5 0,E6 0}
DECL E6POS XE_S08_340={X 2176.109431065,Y 26759.932317152,Z 1210.364790691,A 179.68858828,B 88.710072064,C -178.193684315,S 0,T 0,E1 0,E2 0,E3 0,E4 0,E5 0,E6 0}
DECL E6POS XE_S08_345={X 2179.209919625,Y 26509.953222494,Z 1211.223042636,A 179.964824377,B 88.452010968,C -177.941904626,S 0,T 0,E1 0,E2 0,E3 0,E4 0,E5 0,E6 0}
DECL E6POS XE_S08_350={X 2182.292257716,Y 26259.970561061,Z 1211.078057907,A 179.964822398,B 88.452006198,C -177.941909825,S 0,T 0,E1 0,E2 0,E3 0,E4 0,E5 0,E6 0}
DECL E6POS XE_S08_355={X 2183.968097723,Y 26079.864888343,Z 1210.940270324,A 179.808809212,B 88.446479609,C -175.380180444,S 0,T 0,E1 0,E2 0,E3 0,E4 0,E5 0,E6 0}
DECL E6POS XE_S08_360={X 2184.653108865,Y 26009.980029402,Z 1210.926556821,A 179.950053201,B 88.471976508,C -177.839664369,S 0,T 0,E1 0,E2 0,E3 0,E4 0,E5 0,E6 0}
DECL E6POS XE_S08_365={X 2185.619779679,Y 25946.265121537,Z 1210.893732562,A 179.99841039,B 88.451990989,C -177.891362719,S 0,T 0,E1 0,E2 0,E3 0,E4 0,E5 0,E6 0}
DECL E6POS XE_S08_370={X 2186.078405583,Y 25935.959736393,Z 1210.872491598,A -177.877287563,B 88.554081372,C 179.332428408,S 0,T 0,E1 0,E2 0,E3 0,E4 0,E5 0,E6 0}
DECL E6POS XE_S08_375={X 2189.499811296,Y 25904.548756853,Z 1210.981923658,A -176.752657465,B 88.454843369,C 179.650639393,S 0,T 0,E1 0,E2 0,E3 0,E4 0,E5 0,E6 0}
DECL E6POS XE_S08_380={X 2190.262171422,Y 25892.077524091,Z 1210.974399873,A 179.993776996,B 88.452049084,C -178.064963783,S 0,T 0,E1 0,E2 0,E3 0,E4 0,E5 0,E6 0}
DECL E6POS XE_S08_385={X 2191.830054073,Y 25760.50382684,Z 1210.804420908,A 179.884327065,B 88.551022105,C -177.995255881,S 0,T 0,E1 0,E2 0,E3 0,E4 0,E5 0,E6 0}
DECL E6POS XE_S08_390={X 2194.274401757,Y 25553.114789079,Z 1210.482355353,A -179.809523734,B 88.700865311,C -177.988278081,S 0,T 0,E1 0,E2 0,E3 0,E4 0,E5 0,E6 0}
DECL E6POS XE_S08_395={X 2194.317597023,Y 25545.875943019,Z 1210.461942553,A 179.086362785,B 88.613489364,C -177.6963197,S 0,T 0,E1 0,E2 0,E3 0,E4 0,E5 0,E6 0}
DECL E6POS XE_S08_400={X 2192.839279073,Y 25508.221913357,Z 1210.455097086,A 179.103980536,B 88.701062588,C -176.379776319,S 0,T 0,E1 0,E2 0,E3 0,E4 0,E5 0,E6 0}
DECL E6POS XE_S08_405={X 2193.059532259,Y 25500.551434386,Z 1210.453488468,A -179.816280518,B 88.701838332,C -177.902030425,S 0,T 0,E1 0,E2 0,E3 0,E4 0,E5 0,E6 0}
DECL E6POS XE_S08_410={X 2194.133941156,Y 25399.525722397,Z 1210.391105234,A -179.57613865,B 88.601806801,C -177.875222722,S 0,T 0,E1 0,E2 0,E3 0,E4 0,E5 0,E6 0}
DECL E6POS XE_S08_415={X 2194.325713821,Y 25390.33477825,Z 1210.400739189,A 179.307956473,B 88.703578406,C -177.697933382,S 0,T 0,E1 0,E2 0,E3 0,E4 0,E5 0,E6 0}
DECL E6POS XE_S08_420={X 2194.045999049,Y 25381.094339275,Z 1210.400667956,A 179.33322208,B 88.702492897,C -177.425705947,S 0,T 0,E1 0,E2 0,E3 0,E4 0,E5 0,E6 0}
DECL E6POS XE_S08_425={X 2193.880775147,Y 25370.558448572,Z 1210.390174097,A 179.850392475,B 88.702797296,C -177.90202545,S 0,T 0,E1 0,E2 0,E3 0,E4 0,E5 0,E6 0}
DECL E6POS XE_S08_430={X 2194.90708655,Y 25280.570501015,Z 1210.35238348,A -179.854917753,B 88.700886215,C -178.022623827,S 0,T 0,E1 0,E2 0,E3 0,E4 0,E5 0,E6 0}
DECL E6POS XE_S08_435={X 2195.424102749,Y 25238.126384384,Z 1210.312014804,A -179.6936764,B 88.602889569,C -178.061626478,S 0,T 0,E1 0,E2 0,E3 0,E4 0,E5 0,E6 0}
DECL E6POS XE_S08_440={X 2195.76198086,Y 25230.417487042,Z 1210.278627848,A -177.339342005,B 88.698847293,C -177.942561554,S 0,T 0,E1 0,E2 0,E3 0,E4 0,E5 0,E6 0}
DECL E6POS XE_S08_445={X 2196.050007745,Y 25227.475306178,Z 1210.306839176,A -177.162486702,B 88.589157115,C 178.818992878,S 0,T 0,E1 0,E2 0,E3 0,E4 0,E5 0,E6 0}
DECL E6POS XE_S08_450={X 2196.724458291,Y 25216.146120491,Z 1210.281307798,A -179.809867347,B 88.701862373,C -177.977623386,S 0,T 0,E1 0,E2 0,E3 0,E4 0,E5 0,E6 0}
DECL E6POS XE_S08_455={X 2199.022534172,Y 25010.632047582,Z 1209.810861305,A -179.753064415,B 88.656838584,C -177.929915313,S 0,T 0,E1 0,E2 0,E3 0,E4 0,E5 0,E6 0}
DECL E6POS XE_S08_460={X 2201.865452368,Y 24760.658009158,Z 1209.329708349,A -179.291893012,B 88.701609478,C -177.248102916,S 0,T 0,E1 0,E2 0,E3 0,E4 0,E5 0,E6 0}
DECL E6POS XE_S08_465={X 2202.886094553,Y 24672.038776749,Z 1209.265384568,A -179.188517614,B 88.701501836,C -177.044827882,S 0,T 0,E1 0,E2 0,E3 0,E4 0,E5 0,E6 0}
DECL E6POS XE_S08_470={X 2202.939272231,Y 24666.343319385,Z 1209.278009281,A 179.026480812,B 88.70389362,C -176.966726276,S 0,T 0,E1 0,E2 0,E3 0,E4 0,E5 0,E6 0}
DECL E6POS XE_S08_475={X 2202.648671699,Y 24660.48024098,Z 1209.27070831,A 179.216378713,B 88.702491454,C -176.121946598,S 0,T 0,E1 0,E2 0,E3 0,E4 0,E5 0,E6 0}
DECL E6POS XE_S08_480={X 2202.667040381,Y 24651.875156422,Z 1209.254811764,A -179.246822511,B 88.701584615,C -177.193078877,S 0,T 0,E1 0,E2 0,E3 0,E4 0,E5 0,E6 0}
DECL E6POS XE_S08_485={X 2204.195574124,Y 24510.664673509,Z 1209.170474132,A -179.302657111,B 88.773628226,C -177.248770916,S 0,T 0,E1 0,E2 0,E3 0,E4 0,E5 0,E6 0}
DECL E6POS XE_S08_490={X 2204.677190681,Y 24467.666510723,Z 1209.15188721,A -179.319602834,B 88.800648212,C -177.265664497,S 0,T 0,E1 0,E2 0,E3 0,E4 0,E5 0,E6 0}
DECL E6POS XE_S08_495={X 2205.059088679,Y 24433.975528617,Z 1209.142084538,A -179.290895684,B 88.701605591,C -177.237109627,S 0,T 0,E1 0,E2 0,E3 0,E4 0,E5 0,E6 0}
DECL E6POS XE_S08_500={X 2204.97198177,Y 24423.357202384,Z 1209.138075794,A 178.358744363,B 88.701747127,C -174.812408497,S 0,T 0,E1 0,E2 0,E3 0,E4 0,E5 0,E6 0}
DECL E6POS XE_S08_505={X 2203.47269293,Y 24410.95438693,Z 1209.145315082,A 178.536702152,B 88.699106914,C -173.770538933,S 0,T 0,E1 0,E2 0,E3 0,E4 0,E5 0,E6 0}
DECL E6POS XE_S08_510={X 2203.499682863,Y 24400.438386193,Z 1209.134761891,A -179.253530363,B 88.701607007,C -177.244787145,S 0,T 0,E1 0,E2 0,E3 0,E4 0,E5 0,E6 0}
DECL E6POS XE_S08_515={X 2204.94757281,Y 24260.76247829,Z 1209.071728245,A -179.300552404,B 88.800581701,C -177.132615914,S 0,T 0,E1 0,E2 0,E3 0,E4 0,E5 0,E6 0}
DECL E6POS XE_S08_520={X 2207.718128662,Y 24010.795777707,Z 1209.94410317,A -179.720952083,B 89.000864133,C -177.751458428,S 0,T 0,E1 0,E2 0,E3 0,E4 0,E5 0,E6 0}
DECL E6POS XE_S08_525={X 2210.236051809,Y 23782.587628905,Z 1209.785988511,A -179.805203128,B 89.100898836,C -177.836544519,S 0,T 0,E1 0,E2 0,E3 0,E4 0,E5 0,E6 0}
DECL E6POS XE_S08_530={X 2210.597851338,Y 23749.778740156,Z 1209.766070965,A -179.720170124,B 89.001907371,C -177.850683495,S 0,T 0,E1 0,E2 0,E3 0,E4 0,E5 0,E6 0}
DECL E6POS XE_S08_535={X 2210.229149612,Y 23736.505960422,Z 1209.774882042,A 178.965238651,B 89.001585941,C -173.487101508,S 0,T 0,E1 0,E2 0,E3 0,E4 0,E5 0,E6 0}
DECL E6POS XE_S08_540={X 2204.149830406,Y 23669.494145792,Z 1209.833689591,A 179.308063371,B 89.094547458,C -173.00153871,S 0,T 0,E1 0,E2 0,E3 0,E4 0,E5 0,E6 0}
DECL E6POS XE_S08_545={X 2203.486930486,Y 23657.36318768,Z 1209.82775109,A -179.720195512,B 89.001880905,C -177.76670602,S 0,T 0,E1 0,E2 0,E3 0,E4 0,E5 0,E6 0}
DECL E6POS XE_S08_550={X 2205.117263152,Y 23511.131145645,Z 1209.757868815,A -179.721176873,B 89.000856808,C -177.721686632,S 0,T 0,E1 0,E2 0,E3 0,E4 0,E5 0,E6 0}
DECL E6POS XE_S08_555={X 2207.738965317,Y 23261.145420083,Z 1209.620655058,A -179.742603775,B 89.350935241,C -177.643709383,S 0,T 0,E1 0,E2 0,E3 0,E4 0,E5 0,E6 0}
DECL E6POS XE_S08_560={X 2210.349302302,Y 23011.143946805,Z 1209.460537647,A -179.760892196,B 89.450852823,C -177.462865828,S 0,T 0,E1 0,E2 0,E3 0,E4 0,E5 0,E6 0}
DECL E6POS XE_S08_565={X 2211.385329346,Y 22911.091231956,Z 1209.405651622,A 179.804537272,B 89.549905987,C -177.898144057,S 0,T 0,E1 0,E2 0,E3 0,E4 0,E5 0,E6 0}
DECL E6POS XE_S08_570={X 2211.204535633,Y 22904.32996464,Z 1209.400640387,A -179.102347571,B 89.450032658,C -175.299580998,S 0,T 0,E1 0,E2 0,E3 0,E4 0,E5 0,E6 0}
DECL E6POS XE_S08_575={X 2211.017283602,Y 22895.361369671,Z 1209.38773143,A -178.846303824,B 89.448688638,C -174.491635217,S 0,T 0,E1 0,E2 0,E3 0,E4 0,E5 0,E6 0}
DECL E6POS XE_S08_580={X 2211.176396909,Y 22889.682493888,Z 1209.303794831,A -179.749065255,B 89.45079544,C -177.30503416,S 0,T 0,E1 0,E2 0,E3 0,E4 0,E5 0,E6 0}
DECL E6POS XE_S08_585={X 2212.512995759,Y 22751.684630511,Z 1209.226521664,A -179.870570751,B 89.450896535,C -177.626494203,S 0,T 0,E1 0,E2 0,E3 0,E4 0,E5 0,E6 0}
DECL E6POS XE_S08_590={X 2214.839364542,Y 22511.314089452,Z 1209.107818906,A 179.479675046,B 89.051017228,C -178.276298686,S 0,T 0,E1 0,E2 0,E3 0,E4 0,E5 0,E6 0}
DECL E6POS XE_S08_595={X 2217.269477648,Y 22261.311132124,Z 1208.947807665,A 179.260864423,B 89.150986885,C -178.394943867,S 0,T 0,E1 0,E2 0,E3 0,E4 0,E5 0,E6 0}
DECL E6POS XE_S08_600={X 2219.671450437,Y 22011.323521421,Z 1208.815677394,A 179.284269644,B 89.150948562,C -178.24658133,S 0,T 0,E1 0,E2 0,E3 0,E4 0,E5 0,E6 0}
DECL E6POS XE_S08_605={X 2220.234107751,Y 21949.904100474,Z 1208.778687148,A 178.974537508,B 89.249929716,C -178.557093258,S 0,T 0,E1 0,E2 0,E3 0,E4 0,E5 0,E6 0}
DECL E6POS XE_S08_610={X 2220.162129729,Y 21941.318392946,Z 1208.79015872,A 179.73014871,B 89.253435704,C -173.943897576,S 0,T 0,E1 0,E2 0,E3 0,E4 0,E5 0,E6 0}
DECL E6POS XE_S08_615={X 2216.138232148,Y 21899.182940193,Z 1208.818155553,A 179.251948242,B 89.237685089,C -172.646197378,S 0,T 0,E1 0,E2 0,E3 0,E4 0,E5 0,E6 0}
DECL E6POS XE_S08_620={X 2215.783850307,Y 21886.89588877,Z 1208.813533802,A 179.154187101,B 89.195017456,C -178.606515563,S 0,T 0,E1 0,E2 0,E3 0,E4 0,E5 0,E6 0}
DECL E6POS XE_S08_625={X 2216.939398838,Y 21761.487113863,Z 1208.741044613,A 179.210095662,B 89.185001709,C -178.505656318,S 0,T 0,E1 0,E2 0,E3 0,E4 0,E5 0,E6 0}
DECL E6POS XE_S08_630={X 2217.859064142,Y 21661.857823214,Z 1209.004864521,A 179.940734684,B 89.100934739,C -177.935476598,S 0,T 0,E1 0,E2 0,E3 0,E4 0,E5 0,E6 0}
DECL E6POS XE_S08_635={X 2217.979913731,Y 21651.03262168,Z 1208.980273258,A 179.555892445,B 89.202343454,C -179.221915142,S 0,T 0,E1 0,E2 0,E3 0,E4 0,E5 0,E6 0}
DECL E6POS XE_S08_640={X 2219.096668549,Y 21617.777223043,Z 1208.938101359,A -179.913556983,B 89.17546679,C -179.13472882,S 0,T 0,E1 0,E2 0,E3 0,E4 0,E5 0,E6 0}
DECL E6POS XE_S08_645={X 2219.34908257,Y 21611.13807372,Z 1208.950857912,A 179.75639833,B 89.201040863,C -178.32059333,S 0,T 0,E1 0,E2 0,E3 0,E4 0,E5 0,E6 0}
DECL E6POS XE_S08_650={X 2220.129326036,Y 21511.504133126,Z 1208.890828513,A -179.995116411,B 89.101922589,C -177.872380808,S 0,T 0,E1 0,E2 0,E3 0,E4 0,E5 0,E6 0}
DECL E6POS XE_S08_655={X 2222.19134128,Y 21261.514417839,Z 1208.769465778,A -179.942138576,B 89.101870348,C -177.718445577,S 0,T 0,E1 0,E2 0,E3 0,E4 0,E5 0,E6 0}
DECL E6POS XE_S08_660={X 2223.371308317,Y 21085.378814671,Z 1208.765416733,A -179.936389025,B 89.100889204,C -177.770703756,S 0,T 0,E1 0,E2 0,E3 0,E4 0,E5 0,E6 0}
DECL E6POS XE_S08_665={X 2223.813861482,Y 21050.933761937,Z 1208.22711636,A 179.943409933,B 89.20990108,C -177.852731752,S 0,T 0,E1 0,E2 0,E3 0,E4 0,E5 0,E6 0}
DECL E6POS XE_S08_670={X 2223.510268222,Y 21041.355319236,Z 1208.249727206,A 179.576920938,B 89.218438723,C -173.531281047,S 0,T 0,E1 0,E2 0,E3 0,E4 0,E5 0,E6 0}
DECL E6POS XE_S08_675={X 2219.129618304,Y 20991.308858082,Z 1208.057964563,A -176.205784097,B 89.274986981,C -168.229774529,S 0,T 0,E1 0,E2 0,E3 0,E4 0,E5 0,E6 0}
DECL E6POS XE_S08_680={X 2218.494683648,Y 20977.369678043,Z 1208.56365842,A -179.940426452,B 89.101882644,C -177.735736023,S 0,T 0,E1 0,E2 0,E3 0,E4 0,E5 0,E6 0}
DECL E6POS XE_S08_685={X 2219.415443025,Y 20859.377455461,Z 1207.588792622,A 179.615457921,B 89.30094013,C -178.180403501,S 0,T 0,E1 0,E2 0,E3 0,E4 0,E5 0,E6 0}
DECL E6POS XE_S08_690={X 2219.610989683,Y 20850.523973573,Z 1207.577353974,A -179.999324723,B 89.201596481,C -179.484397293,S 0,T 0,E1 0,E2 0,E3 0,E4 0,E5 0,E6 0}
DECL E6POS XE_S08_695={X 2220.415610016,Y 20832.219732827,Z 1207.571112942,A 179.089392656,B 89.302099912,C 178.604037152,S 0,T 0,E1 0,E2 0,E3 0,E4 0,E5 0,E6 0}
DECL E6POS XE_S08_700={X 2220.962078219,Y 20825.201370362,Z 1207.552477474,A 179.400084592,B 89.30227188,C -179.196596887,S 0,T 0,E1 0,E2 0,E3 0,E4 0,E5 0,E6 0}
DECL E6POS XE_S08_705={X 2221.385713453,Y 20761.731922569,Z 1208.130121053,A 179.683524536,B 89.30089199,C -178.01239564,S 0,T 0,E1 0,E2 0,E3 0,E4 0,E5 0,E6 0}
DECL E6POS XE_S08_710={X 2223.101807428,Y 20511.761460308,Z 1207.915973566,A 178.738782232,B 89.651946638,C -179.056681493,S 0,T 0,E1 0,E2 0,E3 0,E4 0,E5 0,E6 0}
DECL E6POS XE_S08_715={X 2224.842733954,Y 20261.730496046,Z 1207.273338772,A 179.5075067,B 89.552961123,C -178.287248737,S 0,T 0,E1 0,E2 0,E3 0,E4 0,E5 0,E6 0}
DECL E6POS XE_S08_720={X 2225.069546909,Y 20225.053607913,Z 1207.275376234,A 178.683039993,B 89.651905827,C -179.012425819,S 0,T 0,E1 0,E2 0,E3 0,E4 0,E5 0,E6 0}
DECL E6POS XE_S08_725={X 2225.311242334,Y 20190.671127861,Z 1207.23459167,A 178.904350837,B 89.651951124,C -178.891170186,S 0,T 0,E1 0,E2 0,E3 0,E4 0,E5 0,E6 0}
DECL E6POS XE_S08_730={X 2225.160397009,Y 20180.472829305,Z 1207.257551338,A -172.710344403,B 89.647544802,C -165.459557093,S 0,T 0,E1 0,E2 0,E3 0,E4 0,E5 0,E6 0}
DECL E6POS XE_S08_735={X 2222.001453482,Y 20149.599450997,Z 1207.284318023,A -172.727503624,B 89.645521284,C -164.66586438,S 0,T 0,E1 0,E2 0,E3 0,E4 0,E5 0,E6 0}
DECL E6POS XE_S08_740={X 2221.635379565,Y 20138.099581666,Z 1207.265214532,A 178.97964245,B 89.651907423,C -178.660929433,S 0,T 0,E1 0,E2 0,E3 0,E4 0,E5 0,E6 0}
DECL E6POS XE_S08_745={X 2222.391360463,Y 20011.915998891,Z 1207.202877042,A 177.8943463,B 89.750812214,C -179.703984312,S 0,T 0,E1 0,E2 0,E3 0,E4 0,E5 0,E6 0}
DECL E6POS XE_S08_750={X 2223.708973476,Y 19761.930579359,Z 1206.67643938,A 178.594738538,B 89.693900014,C -179.097713584,S 0,T 0,E1 0,E2 0,E3 0,E4 0,E5 0,E6 0}
DECL E6POS XE_S08_755={X 2224.971211618,Y 19511.993784758,Z 1207.780112955,A -179.958778121,B 89.415726845,C -177.585658123,S 0,T 0,E1 0,E2 0,E3 0,E4 0,E5 0,E6 0}
DECL E6POS XE_S08_760={X 2226.228408771,Y 19262.01751835,Z 1207.252170264,A 179.875340543,B 89.458777177,C -177.817425342,S 0,T 0,E1 0,E2 0,E3 0,E4 0,E5 0,E6 0}
DECL E6POS XE_S08_765={X 2227.21223579,Y 19012.016029786,Z 1206.849070027,A 179.915330469,B 89.482741472,C -177.701425412,S 0,T 0,E1 0,E2 0,E3 0,E4 0,E5 0,E6 0}
DECL E6POS XE_S08_770={X 2228.048205428,Y 18761.969924345,Z 1207.718135263,A -179.386055986,B 89.500662673,C -176.959131653,S 0,T 0,E1 0,E2 0,E3 0,E4 0,E5 0,E6 0}
DECL E6POS XE_S08_775={X 2228.906726939,Y 18511.944657618,Z 1207.579734649,A -179.133996037,B 89.501561714,C -176.607172125,S 0,T 0,E1 0,E2 0,E3 0,E4 0,E5 0,E6 0}
DECL E6POS XE_S08_780={X 2229.623481275,Y 18261.947796834,Z 1207.758150117,A -179.12748176,B 89.501543867,C -176.566658711,S 0,T 0,E1 0,E2 0,E3 0,E4 0,E5 0,E6 0}
DECL E6POS XE_S08_785={X 2229.737555353,Y 18211.434555975,Z 1207.430858358,A -179.315342503,B 89.600606705,C -176.755285327,S 0,T 0,E1 0,E2 0,E3 0,E4 0,E5 0,E6 0}
DECL E6POS XE_S08_790={X 2230.05275454,Y 18202.545310032,Z 1207.409803446,A 177.208476952,B 89.588011791,C 176.017490745,S 0,T 0,E1 0,E2 0,E3 0,E4 0,E5 0,E6 0}
DECL E6POS XE_S08_795={X 2230.558698325,Y 18197.048525838,Z 1207.40605569,A 177.358077986,B 89.547278489,C 175.440026016,S 0,T 0,E1 0,E2 0,E3 0,E4 0,E5 0,E6 0}
DECL E6POS XE_S08_800={X 2230.748094432,Y 18189.461727279,Z 1207.402175173,A -179.341046426,B 89.60066006,C -176.882988366,S 0,T 0,E1 0,E2 0,E3 0,E4 0,E5 0,E6 0}
DECL E6POS XE_S08_805={X 2230.928152447,Y 18089.771760472,Z 1207.366951754,A -179.14723365,B 89.600534188,C -176.487231884,S 0,T 0,E1 0,E2 0,E3 0,E4 0,E5 0,E6 0}
DECL E6POS XE_S08_810={X 2231.057468417,Y 18083.024037269,Z 1207.346491467,A 179.700095822,B 89.598188913,C -178.784581887,S 0,T 0,E1 0,E2 0,E3 0,E4 0,E5 0,E6 0}
DECL E6POS XE_S08_815={X 2231.46981622,Y 18075.484633343,Z 1207.348278572,A 178.796953379,B 89.548838512,C 178.757476262,S 0,T 0,E1 0,E2 0,E3 0,E4 0,E5 0,E6 0}
DECL E6POS XE_S08_820={X 2231.626806013,Y 18066.77138343,Z 1207.350865385,A -179.25076304,B 89.501591292,C -176.734889909,S 0,T 0,E1 0,E2 0,E3 0,E4 0,E5 0,E6 0}
DECL E6POS XE_S08_825={X 2231.638595737,Y 18012.003442681,Z 1207.335801195,A -179.116181916,B 89.501514007,C -176.502362733,S 0,T 0,E1 0,E2 0,E3 0,E4 0,E5 0,E6 0}
DECL E6POS XE_S08_830={X 2232.001072852,Y 17762.033375264,Z 1206.931962609,A -44.990770108,B 89.998917472,C -42.574198383,S 0,T 0,E1 0,E2 0,E3 0,E4 0,E5 0,E6 0}
DECL E6POS XE_S08_835={X 2232.359316177,Y 17512.003781544,Z 1206.804619284,A -76.672332691,B 89.997152147,C -74.056873118,S 0,T 0,E1 0,E2 0,E3 0,E4 0,E5 0,E6 0}
DECL E6POS XE_S08_840={X 2232.720658527,Y 17262.012715554,Z 1206.204100595,A -75.770781636,B 89.997148422,C -73.255322717,S 0,T 0,E1 0,E2 0,E3 0,E4 0,E5 0,E6 0}
DECL E6POS XE_S08_845={X 2232.93254561,Y 17012.015154759,Z 1206.137786789,A -80.100386172,B 89.99617781,C -77.513979672,S 0,T 0,E1 0,E2 0,E3 0,E4 0,E5 0,E6 0}
DECL E6POS XE_S08_850={X 2233.020126165,Y 16762.009934971,Z 1205.48179184,A -58.34892608,B 89.9967344,C -55.872464704,S 0,T 0,E1 0,E2 0,E3 0,E4 0,E5 0,E6 0}
DECL E6POS XE_S08_855={X 2234.334823263,Y 16511.990145434,Z 1206.155579782,A 4.251913654,B 89.700208027,C 6.734155781,S 0,T 0,E1 0,E2 0,E3 0,E4 0,E5 0,E6 0}
DECL E6POS XE_S08_860={X 2233.158532333,Y 16385.018333777,Z 1205.922014405,A -0.559226872,B 89.649360879,C 2.017532602,S 0,T 0,E1 0,E2 0,E3 0,E4 0,E5 0,E6 0}
DECL E6POS XE_S08_865={X 2233.163943238,Y 16351.675105553,Z 1205.909491264,A -0.966021455,B 89.749353606,C 1.611589487,S 0,T 0,E1 0,E2 0,E3 0,E4 0,E5 0,E6 0}
DECL E6POS XE_S08_870={X 2233.711129749,Y 16339.56724246,Z 1205.881095706,A 24.93806483,B 89.754862505,C 21.629645001,S 0,T 0,E1 0,E2 0,E3 0,E4 0,E5 0,E6 0}
DECL E6POS XE_S08_875={X 2235.624885473,Y 16318.679718761,Z 1205.83817595,A 19.213054157,B 89.648032229,C 16.109601735,S 0,T 0,E1 0,E2 0,E3 0,E4 0,E5 0,E6 0}
DECL E6POS XE_S08_880={X 2236.031361329,Y 16308.246361215,Z 1205.835568054,A -0.934472565,B 89.748287331,C 1.488136004,S 0,T 0,E1 0,E2 0,E3 0,E4 0,E5 0,E6 0}
DECL E6POS XE_S08_885={X 2236.117241444,Y 16212.067688402,Z 1205.709917062,A -0.740885258,B 89.649422218,C 1.957810963,S 0,T 0,E1 0,E2 0,E3 0,E4 0,E5 0,E6 0}
DECL E6POS XE_S08_890={X 2236.054338826,Y 16012.077445173,Z 1206.041784406,A -5.697772526,B 89.79879045,C -2.77851958,S 0,T 0,E1 0,E2 0,E3 0,E4 0,E5 0,E6 0}
DECL E6POS XE_S08_895={X 2235.972321398,Y 15762.065919059,Z 1205.921069053,A -6.242129842,B 89.822597745,C -3.522941318,S 0,T 0,E1 0,E2 0,E3 0,E4 0,E5 0,E6 0}
DECL E6POS XE_S08_900={X 2235.872056958,Y 15512.068979556,Z 1205.828151138,A -5.700061221,B 89.798795255,C -2.780802525,S 0,T 0,E1 0,E2 0,E3 0,E4 0,E5 0,E6 0}
DECL E6POS XE_S08_905={X 2235.852578395,Y 15436.888305909,Z 1205.287043606,A -11.435132457,B 89.895536464,C -8.816138716,S 0,T 0,E1 0,E2 0,E3 0,E4 0,E5 0,E6 0}
DECL E6POS XE_S08_910={X 2236.205528143,Y 15428.014692888,Z 1205.751513243,A 16.549249891,B 89.746506987,C 15.086200824,S 0,T 0,E1 0,E2 0,E3 0,E4 0,E5 0,E6 0}
DECL E6POS XE_S08_915={X 2238.370675472,Y 15405.334496171,Z 1205.733850343,A 29.128624038,B 89.849981342,C 26.461985167,S 0,T 0,E1 0,E2 0,E3 0,E4 0,E5 0,E6 0}
DECL E6POS XE_S08_920={X 2238.880476604,Y 15396.109269816,Z 1205.71906017,A -5.671335931,B 89.817629801,C -3.143146272,S 0,T 0,E1 0,E2 0,E3 0,E4 0,E5 0,E6 0}
DECL E6POS XE_S08_925={X 2238.562865854,Y 15290.408435629,Z 1204.684230979,A 1.412773481,B 88.800777925,C 3.070463959,S 0,T 0,E1 0,E2 0,E3 0,E4 0,E5 0,E6 0}
DECL E6POS XE_S08_930={X 2239.445441145,Y 15276.65362966,Z 1204.578903174,A 2.25512479,B 88.799309292,C 3.26984035,S 0,T 0,E1 0,E2 0,E3 0,E4 0,E5 0,E6 0}
DECL E6POS XE_S08_935={X 2239.11355398,Y 15012.163411857,Z 1205.476514377,A 92.635200305,B 89.951230775,C 95.395851527,S 0,T 0,E1 0,E2 0,E3 0,E4 0,E5 0,E6 0}
DECL E6POS XE_S08_940={X 2238.876194899,Y 14762.116108494,Z 1205.37179262,A 177.581310382,B 89.200698267,C -179.554325016,S 0,T 0,E1 0,E2 0,E3 0,E4 0,E5 0,E6 0}
DECL E6POS XE_S08_945={X 2238.490557446,Y 14539.507695305,Z 1204.780583516,A 177.691500013,B 89.201750956,C -179.417237226,S 0,T 0,E1 0,E2 0,E3 0,E4 0,E5 0,E6 0}
DECL E6POS XE_S08_950={X 2238.439944837,Y 14504.053066857,Z 1204.754337547,A 177.620132144,B 89.201720619,C -179.488553751,S 0,T 0,E1 0,E2 0,E3 0,E4 0,E5 0,E6 0}
DECL E6POS XE_S08_955={X 2238.619496561,Y 14497.267266367,Z 1204.740252442,A 171.227433827,B 89.452935685,C 169.749331241,S 0,T 0,E1 0,E2 0,E3 0,E4 0,E5 0,E6 0}
DECL E6POS XE_S08_960={X 2240.022025899,Y 14483.844786714,Z 1204.711096303,A 175.556805776,B 89.28506036,C 173.109671453,S 0,T 0,E1 0,E2 0,E3 0,E4 0,E5 0,E6 0}
DECL E6POS XE_S08_965={X 2240.529240051,Y 14475.113660416,Z 1204.712752147,A 177.793239211,B 89.201780704,C -179.469446628,S 0,T 0,E1 0,E2 0,E3 0,E4 0,E5 0,E6 0}
DECL E6POS XE_S08_970={X 2239.9914881,Y 14262.206273421,Z 1204.357896728,A -179.041932721,B 89.247767472,C -176.1679023,S 0,T 0,E1 0,E2 0,E3 0,E4 0,E5 0,E6 0}
DECL E6POS XE_S08_975={X 2239.414645776,Y 14012.237766314,Z 1205.05409959,A 171.738780398,B 89.899862596,C 174.76820036,S 0,T 0,E1 0,E2 0,E3 0,E4 0,E5 0,E6 0}
DECL E6POS XE_S08_980={X 2238.871957546,Y 13762.234082203,Z 1205.445402119,A 178.271932428,B 89.702766592,C -179.098932628,S 0,T 0,E1 0,E2 0,E3 0,E4 0,E5 0,E6 0}
DECL E6POS XE_S08_985={X 2238.599579378,Y 13648.930966881,Z 1205.40068107,A 176.668132904,B 89.802583032,C 179.397438848,S 0,T 0,E1 0,E2 0,E3 0,E4 0,E5 0,E6 0}
DECL E6POS XE_S08_990={X 2238.203340109,Y 13515.901582596,Z 1205.341990718,A 177.2798008,B 89.802707567,C 179.849054208,S 0,T 0,E1 0,E2 0,E3 0,E4 0,E5 0,E6 0}
DECL E6POS XE_S08_995={X 2238.232338621,Y 13509.938583214,Z 1205.326606667,A 172.007350697,B 89.696574317,C 173.808615342,S 0,T 0,E1 0,E2 0,E3 0,E4 0,E5 0,E6 0}
DECL E6POS XE_S08_1000={X 2238.921726577,Y 13492.751727279,Z 1204.821410355,A 171.796749758,B 89.740664889,C 171.630537353,S 0,T 0,E1 0,E2 0,E3 0,E4 0,E5 0,E6 0}
DECL E6POS XE_S08_1005={X 2239.143185602,Y 13485.320202957,Z 1204.81948097,A 173.801044666,B 89.902392667,C 176.28047813,S 0,T 0,E1 0,E2 0,E3 0,E4 0,E5 0,E6 0}
DECL E6POS XE_S08_1010={X 2238.954495252,Y 13437.309666495,Z 1204.801206829,A 175.478699512,B 89.85846813,C 178.258010594,S 0,T 0,E1 0,E2 0,E3 0,E4 0,E5 0,E6 0}
DECL E6POS XE_S08_1015={X 2238.313877601,Y 13262.313994361,Z 1204.741855454,A -4.522143542,B 89.598830323,C -1.721023469,S 0,T 0,E1 0,E2 0,E3 0,E4 0,E5 0,E6 0}
DECL E6POS XE_S08_1020={X 2237.431161317,Y 13012.282631078,Z 1204.637944244,A -4.166656774,B 89.540955802,C -1.266515726,S 0,T 0,E1 0,E2 0,E3 0,E4 0,E5 0,E6 0}
DECL E6POS XE_S08_1025={X 2237.152102549,Y 12933.860452405,Z 1204.609989198,A -4.471510046,B 89.555871108,C -1.528439365,S 0,T 0,E1 0,E2 0,E3 0,E4 0,E5 0,E6 0}
DECL E6POS XE_S08_1030={X 2237.161303169,Y 12929.629346932,Z 1204.600893232,A -10.088024706,B 89.574689977,C -5.504374197,S 0,T 0,E1 0,E2 0,E3 0,E4 0,E5 0,E6 0}
DECL E6POS XE_S08_1035={X 2236.69260679,Y 12920.488455033,Z 1204.600603534,A -10.647183161,B 89.594357172,C -5.997540948,S 0,T 0,E1 0,E2 0,E3 0,E4 0,E5 0,E6 0}
DECL E6POS XE_S08_1040={X 2236.523632485,Y 12916.365211404,Z 1204.599449351,A -5.807827167,B 89.598593623,C -2.433898016,S 0,T 0,E1 0,E2 0,E3 0,E4 0,E5 0,E6 0}
DECL E6POS XE_S08_1045={X 2236.338004478,Y 12868.596541368,Z 1204.580209634,A -4.978827837,B 89.642566087,C -2.375846484,S 0,T 0,E1 0,E2 0,E3 0,E4 0,E5 0,E6 0}
DECL E6POS XE_S08_1050={X 2236.136581438,Y 12813.575053588,Z 1204.575054157,A -3.614037037,B 89.503123908,C -0.760757708,S 0,T 0,E1 0,E2 0,E3 0,E4 0,E5 0,E6 0}
DECL E6POS XE_S08_1055={X 2236.175970556,Y 12809.23288094,Z 1204.593146167,A -12.87715196,B 89.540653513,C -7.761843332,S 0,T 0,E1 0,E2 0,E3 0,E4 0,E5 0,E6 0}
DECL E6POS XE_S08_1060={X 2235.364830636,Y 12801.74181131,Z 1204.587156646,A -19.582139799,B 89.585766217,C -11.669357865,S 0,T 0,E1 0,E2 0,E3 0,E4 0,E5 0,E6 0}
DECL E6POS XE_S08_1065={X 2235.137461751,Y 12794.384660242,Z 1204.561057471,A -4.654260523,B 89.597757315,C -1.85320429,S 0,T 0,E1 0,E2 0,E3 0,E4 0,E5 0,E6 0}
DECL E6POS XE_S08_1070={X 2234.969293424,Y 12762.384718398,Z 1204.744045856,A -3.822995264,B 89.508074422,C -0.917779568,S 0,T 0,E1 0,E2 0,E3 0,E4 0,E5 0,E6 0}
DECL E6POS XE_S08_1075={X 2234.594293335,Y 12674.084847892,Z 1204.724229554,A -4.725232113,B 89.598757531,C -1.883173735,S 0,T 0,E1 0,E2 0,E3 0,E4 0,E5 0,E6 0}
DECL E6POS XE_S08_1080={X 2233.79798572,Y 12512.406585812,Z 1204.663016544,A -178.892846849,B 89.900548793,C -175.909603896,S 0,T 0,E1 0,E2 0,E3 0,E4 0,E5 0,E6 0}
DECL E6POS XE_S08_1085={X 2232.553172811,Y 12262.401200336,Z 1204.555024454,A -66.216784968,B 89.998587687,C -63.334542535,S 0,T 0,E1 0,E2 0,E3 0,E4 0,E5 0,E6 0}
DECL E6POS XE_S08_1090={X 2231.308516665,Y 12012.396308072,Z 1203.870707766,A -178.420012033,B 89.900485221,C -175.336823048,S 0,T 0,E1 0,E2 0,E3 0,E4 0,E5 0,E6 0}
DECL E6POS XE_S08_1095={X 2230.552585251,Y 11856.596549994,Z 1203.812726706,A -178.870619139,B 89.801538164,C -175.987563317,S 0,T 0,E1 0,E2 0,E3 0,E4 0,E5 0,E6 0}
DECL E6POS XE_S08_1100={X 2230.587254438,Y 11849.708513982,Z 1203.393753411,A 162.580252434,B 89.892456055,C 164.473516294,S 0,T 0,E1 0,E2 0,E3 0,E4 0,E5 0,E6 0}
DECL E6POS XE_S08_1105={X 2230.789374333,Y 11842.180941648,Z 1203.402221003,A 165.386290564,B 89.869830101,C 165.739699393,S 0,T 0,E1 0,E2 0,E3 0,E4 0,E5 0,E6 0}
DECL E6POS XE_S08_1110={X 2230.961356709,Y 11837.206644648,Z 1203.418788344,A -178.544616373,B 89.90286146,C -176.447324029,S 0,T 0,E1 0,E2 0,E3 0,E4 0,E5 0,E6 0}
DECL E6POS XE_S08_1115={X 2230.45469269,Y 11762.422337058,Z 1203.385028714,A -178.283292488,B 89.901515982,C -175.312102398,S 0,T 0,E1 0,E2 0,E3 0,E4 0,E5 0,E6 0}
DECL E6POS XE_S08_1120={X 2228.859445745,Y 11512.425288957,Z 1203.80535662,A 177.705520568,B 89.700623617,C -179.234356991,S 0,T 0,E1 0,E2 0,E3 0,E4 0,E5 0,E6 0}
DECL E6POS XE_S08_1125={X 2227.598148351,Y 11302.693645659,Z 1203.709703635,A 178.119256549,B 89.203166128,C -175.620647487,S 0,T 0,E1 0,E2 0,E3 0,E4 0,E5 0,E6 0}
DECL E6POS XE_S08_1130={X 2227.354256148,Y 11267.292207283,Z 1203.711526795,A 178.59158446,B 89.62673238,C -178.448462291,S 0,T 0,E1 0,E2 0,E3 0,E4 0,E5 0,E6 0}
DECL E6POS XE_S08_1135={X 2227.458609102,Y 11260.145042633,Z 1203.680541546,A 170.599143501,B 89.693897309,C 171.366217246,S 0,T 0,E1 0,E2 0,E3 0,E4 0,E5 0,E6 0}
DECL E6POS XE_S08_1140={X 2228.064031024,Y 11253.392177991,Z 1203.574766095,A 172.716023583,B 89.6731906,C 171.777242153,S 0,T 0,E1 0,E2 0,E3 0,E4 0,E5 0,E6 0}
DECL E6POS XE_S08_1145={X 2228.328999384,Y 11247.91263319,Z 1203.5766861,A -179.583661953,B 89.703772116,C -176.973143029,S 0,T 0,E1 0,E2 0,E3 0,E4 0,E5 0,E6 0}
DECL E6POS XE_S08_1150={X 2226.287629168,Y 11012.549010983,Z 1203.091188033,A 178.780123124,B 89.602790717,C -178.261829033,S 0,T 0,E1 0,E2 0,E3 0,E4 0,E5 0,E6 0}
DECL E6POS XE_S08_1155={X 2224.268193386,Y 10762.574878618,Z 1203.929998425,A -4.775231699,B 89.598903982,C -1.817170705,S 0,T 0,E1 0,E2 0,E3 0,E4 0,E5 0,E6 0}
DECL E6POS XE_S08_1160={X 2222.124680251,Y 10512.559338719,Z 1203.840661433,A -5.028251806,B 89.597752111,C -2.085308174,S 0,T 0,E1 0,E2 0,E3 0,E4 0,E5 0,E6 0}
DECL E6POS XE_S08_1165={X 2220.358738873,Y 10331.784246426,Z 1203.907175597,A -5.47313326,B 89.59751746,C -2.515372395,S 0,T 0,E1 0,E2 0,E3 0,E4 0,E5 0,E6 0}
DECL E6POS XE_S08_1170={X 2220.008139009,Y 10297.268217179,Z 1203.890202875,A -1.143088836,B 88.702095683,C 1.510406384,S 0,T 0,E1 0,E2 0,E3 0,E4 0,E5 0,E6 0}
DECL E6POS XE_S08_1175={X 2219.74216278,Y 10288.992489441,Z 1203.908039164,A -8.533953604,B 88.597213364,C -1.39052528,S 0,T 0,E1 0,E2 0,E3 0,E4 0,E5 0,E6 0}
DECL E6POS XE_S08_1180={X 2214.816855479,Y 10246.061268565,Z 1203.959006364,A -12.368572783,B 89.004157094,C -3.623702844,S 0,T 0,E1 0,E2 0,E3 0,E4 0,E5 0,E6 0}
DECL E6POS XE_S08_1185={X 2214.395375018,Y 10236.334334113,Z 1203.946239934,A -3.185560728,B 89.344435696,C -0.280268566,S 0,T 0,E1 0,E2 0,E3 0,E4 0,E5 0,E6 0}
DECL E6POS XE_S08_1190={X 2213.54263532,Y 10145.008912266,Z 1204.147607595,A -2.138644576,B 89.133834131,C 0.812146825,S 0,T 0,E1 0,E2 0,E3 0,E4 0,E5 0,E6 0}
DECL E6POS XE_S08_1195={X 2213.608548292,Y 10138.816958326,Z 1204.134441863,A -0.652007744,B 89.101801802,C 1.696489725,S 0,T 0,E1 0,E2 0,E3 0,E4 0,E5 0,E6 0}
DECL E6POS XE_S08_1200={X 2213.740299989,Y 10123.721956469,Z 1204.134384978,A 0.207076211,B 89.10047798,C 1.897664641,S 0,T 0,E1 0,E2 0,E3 0,E4 0,E5 0,E6 0}
DECL E6POS XE_S08_1205={X 2213.718599255,Y 10116.794322252,Z 1204.134973579,A -1.770433049,B 89.100820146,C 0.954387943,S 0,T 0,E1 0,E2 0,E3 0,E4 0,E5 0,E6 0}
DECL E6POS XE_S08_1210={X 2212.487927826,Y 9998.973886163,Z 1204.086921753,A -2.531153259,B 89.200259407,C 0.524976877,S 0,T 0,E1 0,E2 0,E3 0,E4 0,E5 0,E6 0}
DECL E6POS XE_S08_1215={X 2209.913637595,Y 9762.73393685,Z 1204.049854356,A -9.956358066,B 89.746972439,C -6.617634501,S 0,T 0,E1 0,E2 0,E3 0,E4 0,E5 0,E6 0}
DECL E6POS XE_S08_1220={X 2206.940253167,Y 9512.74073944,Z 1203.468588027,A -16.69502588,B 89.843150184,C -13.401522322,S 0,T 0,E1 0,E2 0,E3 0,E4 0,E5 0,E6 0}
DECL E6POS XE_S08_1225={X 2206.433608845,Y 9471.761861075,Z 1203.966697444,A -10.099580931,B 89.746923589,C -6.705856959,S 0,T 0,E1 0,E2 0,E3 0,E4 0,E5 0,E6 0}
DECL E6POS XE_S08_1230={X 2206.027171986,Y 9437.370917381,Z 1203.453006668,A -15.837138501,B 89.842668579,C -12.64356861,S 0,T 0,E1 0,E2 0,E3 0,E4 0,E5 0,E6 0}
DECL E6POS XE_S08_1235={X 2206.006587091,Y 9430.427151809,Z 1203.301321496,A 0.173494368,B 89.800880857,C 1.683615892,S 0,T 0,E1 0,E2 0,E3 0,E4 0,E5 0,E6 0}
DECL E6POS XE_S08_1240={X 2210.111118217,Y 9384.706898163,Z 1203.245493606,A 28.37289829,B 89.926914724,C 26.414713865,S 0,T 0,E1 0,E2 0,E3 0,E4 0,E5 0,E6 0}
DECL E6POS XE_S08_1245={X 2210.346375084,Y 9375.932695347,Z 1203.24216044,A -14.79637345,B 89.845366684,C -11.728681504,S 0,T 0,E1 0,E2 0,E3 0,E4 0,E5 0,E6 0}
DECL E6POS XE_S08_1250={X 2208.911708593,Y 9262.73045794,Z 1202.995019465,A -16.539429872,B 89.842139346,C -13.345978615,S 0,T 0,E1 0,E2 0,E3 0,E4 0,E5 0,E6 0}
DECL E6POS XE_S08_1255={X 2207.073721473,Y 9119.925998087,Z 1203.574594236,A -165.480599136,B 89.897520032,C -162.197909405,S 0,T 0,E1 0,E2 0,E3 0,E4 0,E5 0,E6 0}
