DECL E6POS XP5={X 189.19,Y 13262.27,Z 5308.56,A 96.587,B -74.756,C 173.792,S 2,T 43,E1 -11700,E2 0,E3 0,E4 0,E5 0,E6 0}
DECL E6POS XVorpos_Str_1_3={X 1474.02,Y 13956.24,Z 959.41,A -163.829,B 87.499,C -165.044,S 6,T 51,E1 -11700,E2 0,E3 0,E4 0,E5 0,E6 0}
DECL E6POS XVorpos_Str_4_6={X 1281.62,Y 22972.63,Z 1921.89,A -153.814,B 87.5,C -165.337,S 6,T 51,E1 -20500,E2 0,E3 0,E4 0,E5 0,E6 0}
DECL E6POS XVorpos_Str_7_9={X 1418.94,Y 32574.34,Z 1205.31,A -157.756,B 87.504,C -163.821,S 6,T 51,E1 -30500,E2 0,E3 0,E4 0,E5 0,E6 0}
DECL E6POS XVorpos_Str_10_12={X 1269.71,Y 21788.22,Z 2085.24,A -161.812,B 87.5,C -166.013,S 6,T 51,E1 -19500,E2 0,E3 0,E4 0,E5 0,E6 0}
DECL E6POS XVorpos_Str_13_16={X 1305.63,Y 14844.21,Z 2859.94,A -163.829,B 87.499,C -165.044,S 6,T 51,E1 -12300,E2 0,E3 0,E4 0,E5 0,E6 0}
DECL E6POS XP10={X 1662.87,Y 4229.46,Z 3142.29,A 178.259,B 89.2,C 167.873,S 6,T 51,E1 -2000,E2 0,E3 0,E4 0,E5 0,E6 0}
DECL E6POS XP15={X 189.19,Y 3562.26,Z 5308.56,A 96.588,B -74.756,C 173.791,S 6,T 51,E1 -2000,E2 0,E3 0,E4 0,E5 0,E6 0}
DECL E6POS XP20={X 1060.05,Y 4102.83,Z 5540.22,A 43.838,B -87.243,C 141.344,S 6,T 51,E1 -4200,E2 0,E3 0,E4 0,E5 0,E6 0}
DECL E6POS XP25={X -189.2,Y 5137.74,Z 5308.56,A -83.412,B -74.756,C 173.791,S 2,T 42,E1 -6700,E2 0,E3 0,E4 0,E5 0,E6 0}
DECL E6POS XVorpos_Str_17_18={X 1305.63,Y 4551.95,Z 3623.32,A -1.681,B -89.199,C -167.914,S 2,T 42,E1 -6700,E2 0,E3 0,E4 0,E5 0,E6 0}
DECL E6POS XP30={X 1740.78,Y 8880.52,Z 3623.02,A -1.828,B -89.198,C 162.97,S 2,T 42,E1 -11400,E2 0,E3 0,E4 0,E5 0,E6 0}
DECL E6POS XP35={X -189.2,Y 9837.74,Z 5308.56,A -83.412,B -74.756,C 173.791,S 2,T 42,E1 -11400,E2 0,E3 0,E4 0,E5 0,E6 0}
DECL E6POS XP40={X 1060.04,Y 8302.82,Z 5540.22,A 43.838,B -87.243,C 141.343,S 2,T 43,E1 -8400,E2 0,E3 0,E4 0,E5 0,E6 0}
DECL E6POS XP5_S09={X 2040.61,Y 33423.6,Z 1458.06,A 178.132,B 89.196,C -165.948,S 2,T 43,E1 -31000,E2 0,E3 0,E4 0,E5 0,E6 0}
DECL E6POS XP10_S09={X 26148.74,Y 19913.3,Z -28.78,A -59.985,B -2.496,C 15.241,S 2,T 43,E1 -31000,E2 0,E3 0,E4 0,E5 0,E6 0}
DECL E6POS XE_S09_5={X 26127.19,Y 19901.54,Z -14.75,A -59.985,B -2.496,C 15.241,S 2,T 43,E1 -31000,E2 0,E3 0,E4 0,E5 0,E6 0}
DECL E6POS XE_S09_10={X 26124.98,Y 19900.25,Z -15.07,A -59.987,B -2.5,C -3.112,S 2,T 43,E1 -31000,E2 0,E3 0,E4 0,E5 0,E6 0}
DECL E6POS XE_S09_15={X 26007.44,Y 19832.56,Z -11.05,A -59.987,B -2.5,C -3.112,S 2,T 43,E1 -30864,E2 0,E3 0,E4 0,E5 0,E6 0}
DECL E6POS XE_S09_20={X 25955.49,Y 19802.71,Z -7.8,A -59.987,B -2.5,C -3.112,S 2,T 43,E1 -30804,E2 0,E3 0,E4 0,E5 0,E6 0}
DECL E6POS XE_S09_25={X 25738.95,Y 19678.05,Z 0.48,A -59.987,B -2.5,C -1.663,S 2,T 43,E1 -30553,E2 0,E3 0,E4 0,E5 0,E6 0}
DECL E6POS XE_S09_30={X 25522.4,Y 19553.33,Z 7.72,A -59.987,B -2.5,C -1.663,S 2,T 43,E1 -30302,E2 0,E3 0,E4 0,E5 0,E6 0}
DECL E6POS XE_S09_35={X 25305.86,Y 19428.61,Z 14.97,A -59.987,B -2.5,C -1.663,S 2,T 43,E1 -30051,E2 0,E3 0,E4 0,E5 0,E6 0}
DECL E6POS XE_S09_40={X 25089.32,Y 19303.88,Z 22.13,A -59.987,B -2.5,C -1.628,S 2,T 43,E1 -29800,E2 0,E3 0,E4 0,E5 0,E6 0}
DECL E6POS XE_S09_45={X 24872.77,Y 19179.15,Z 29.22,A -59.987,B -2.5,C -1.628,S 2,T 43,E1 -29549,E2 0,E3 0,E4 0,E5 0,E6 0}
DECL E6POS XE_S09_50={X 24656.22,Y 19054.42,Z 36.32,A -59.987,B -2.5,C -1.628,S 2,T 43,E1 -29298,E2 0,E3 0,E4 0,E5 0,E6 0}
DECL E6POS XE_S09_55={X 24563.54,Y 19001.04,Z 39.36,A -59.987,B -2.5,C -1.628,S 2,T 43,E1 -29191,E2 0,E3 0,E4 0,E5 0,E6 0}
DECL E6POS XE_S09_60={X 24537.55,Y 18986.07,Z 40.21,A -59.987,B -2.5,C -1.628,S 2,T 43,E1 -29161,E2 0,E3 0,E4 0,E5 0,E6 0}
DECL E6POS XE_S09_65={X 24528.89,Y 18981.08,Z 40.49,A -59.987,B -2.5,C -1.628,S 2,T 43,E1 -29151,E2 0,E3 0,E4 0,E5 0,E6 0}
DECL E6POS XE_S09_70={X 24484.41,Y 18955.39,Z 40.67,A -59.987,B -2.499,C -1.605,S 2,T 43,E1 -29099,E2 0,E3 0,E4 0,E5 0,E6 0}
DECL E6POS XE_S09_75={X 24475.75,Y 18950.4,Z 40.95,A -59.987,B -2.499,C -1.605,S 2,T 43,E1 -29089,E2 0,E3 0,E4 0,E5 0,E6 0}
DECL E6POS XE_S09_80={X 24452.36,Y 18936.93,Z 41.71,A -59.987,B -2.499,C -1.605,S 2,T 43,E1 -29062,E2 0,E3 0,E4 0,E5 0,E6 0}
DECL E6POS XE_S09_85={X 24223.14,Y 18804.89,Z 49.05,A -59.987,B -2.5,C -1.587,S 2,T 43,E1 -28797,E2 0,E3 0,E4 0,E5 0,E6 0}
DECL E6POS XE_S09_90={X 24006.59,Y 18680.15,Z 55.97,A -59.987,B -2.5,C -1.587,S 2,T 43,E1 -28546,E2 0,E3 0,E4 0,E5 0,E6 0}
DECL E6POS XE_S09_95={X 23790.05,Y 18555.41,Z 62.88,A -59.987,B -2.5,C -1.587,S 2,T 43,E1 -28295,E2 0,E3 0,E4 0,E5 0,E6 0}
DECL E6POS XE_S09_100={X 23746.74,Y 18530.46,Z 64.26,A -59.987,B -2.5,C -1.587,S 2,T 43,E1 -28245,E2 0,E3 0,E4 0,E5 0,E6 0}
DECL E6POS XE_S09_105={X 23573.51,Y 18430.68,Z 69.87,A -59.987,B -2.5,C -1.562,S 2,T 43,E1 -28044,E2 0,E3 0,E4 0,E5 0,E6 0}
DECL E6POS XE_S09_110={X 23436.73,Y 18351.87,Z 73.96,A -59.987,B -2.5,C -1.837,S 2,T 43,E1 -27886,E2 0,E3 0,E4 0,E5 0,E6 0}
DECL E6POS XE_S09_115={X 23410.74,Y 18336.91,Z 74.92,A -59.987,B -2.5,C -1.837,S 2,T 43,E1 -27856,E2 0,E3 0,E4 0,E5 0,E6 0}
DECL E6POS XE_S09_120={X 23402.08,Y 18331.92,Z 75.24,A -59.987,B -2.5,C 3.163,S 2,T 43,E1 -27846,E2 0,E3 0,E4 0,E5 0,E6 0}
DECL E6POS XE_S09_125={X 23341.66,Y 18296.76,Z 70.08,A -59.987,B -2.5,C 3.473,S 2,T 43,E1 -27775,E2 0,E3 0,E4 0,E5 0,E6 0}
DECL E6POS XE_S09_130={X 23331.26,Y 18290.77,Z 70.43,A -59.987,B -2.5,C -1.527,S 2,T 43,E1 -27763,E2 0,E3 0,E4 0,E5 0,E6 0}
DECL E6POS XE_S09_135={X 23197,Y 18213.43,Z 74.65,A -59.987,B -2.5,C -1.527,S 2,T 43,E1 -27608,E2 0,E3 0,E4 0,E5 0,E6 0}
DECL E6POS XE_S09_140={X 23140.7,Y 18181.02,Z 76.88,A -59.987,B -2.5,C -1.527,S 2,T 43,E1 -27542,E2 0,E3 0,E4 0,E5 0,E6 0}
DECL E6POS XE_S09_145={X 22924.16,Y 18056.27,Z 83.54,A -59.987,B -2.499,C -1.527,S 2,T 43,E1 -27292,E2 0,E3 0,E4 0,E5 0,E6 0}
DECL E6POS XE_S09_150={X 22694.41,Y 17923.92,Z 90.57,A -59.987,B -2.499,C -1.507,S 2,T 43,E1 -27025,E2 0,E3 0,E4 0,E5 0,E6 0}
DECL E6POS XE_S09_155={X 22603.57,Y 17871.46,Z 93.33,A -59.987,B -2.499,C -1.507,S 2,T 43,E1 -26920,E2 0,E3 0,E4 0,E5 0,E6 0}
DECL E6POS XE_S09_160={X 22491.06,Y 17806.77,Z 96.73,A -59.987,B -2.5,C -1.482,S 2,T 43,E1 -26790,E2 0,E3 0,E4 0,E5 0,E6 0}
DECL E6POS XE_S09_165={X 22274.51,Y 17682,Z 103.18,A -59.987,B -2.5,C -1.482,S 2,T 43,E1 -26539,E2 0,E3 0,E4 0,E5 0,E6 0}
DECL E6POS XE_S09_170={X 22057.97,Y 17557.24,Z 109.64,A -59.987,B -2.5,C -1.482,S 2,T 43,E1 -26288,E2 0,E3 0,E4 0,E5 0,E6 0}
DECL E6POS XE_S09_175={X 21893.4,Y 17462.41,Z 114.35,A -59.987,B -2.5,C -1.482,S 2,T 43,E1 -26097,E2 0,E3 0,E4 0,E5 0,E6 0}
DECL E6POS XE_S09_180={X 21841.43,Y 17432.46,Z 115.59,A -59.987,B -2.5,C -1.456,S 2,T 43,E1 -26037,E2 0,E3 0,E4 0,E5 0,E6 0}
DECL E6POS XE_S09_185={X 21621.43,Y 17305.66,Z 121.3,A -59.987,B -2.5,C -0.031,S 2,T 43,E1 -25782,E2 0,E3 0,E4 0,E5 0,E6 0}
DECL E6POS XE_S09_190={X 21536.54,Y 17256.74,Z 123.63,A -59.987,B -2.5,C -1.031,S 2,T 43,E1 -25684,E2 0,E3 0,E4 0,E5 0,E6 0}
DECL E6POS XE_S09_195={X 21510.55,Y 17241.77,Z 124.47,A -59.987,B -2.5,C -1.031,S 2,T 43,E1 -25654,E2 0,E3 0,E4 0,E5 0,E6 0}
DECL E6POS XE_S09_200={X 21501.89,Y 17236.78,Z 124.65,A -59.987,B -2.5,C -1.031,S 2,T 43,E1 -25644,E2 0,E3 0,E4 0,E5 0,E6 0}
DECL E6POS XE_S09_205={X 21492.37,Y 17231.24,Z 123.85,A -59.987,B -2.5,C -1.031,S 2,T 43,E1 -25633,E2 0,E3 0,E4 0,E5 0,E6 0}
DECL E6POS XE_S09_210={X 21483.71,Y 17226.24,Z 124.03,A -59.987,B -2.5,C -1.031,S 2,T 43,E1 -25623,E2 0,E3 0,E4 0,E5 0,E6 0}
DECL E6POS XE_S09_215={X 21408.39,Y 17182.86,Z 126.44,A -59.987,B -2.5,C -1.428,S 2,T 43,E1 -25536,E2 0,E3 0,E4 0,E5 0,E6 0}
DECL E6POS XE_S09_220={X 21191.84,Y 17058.08,Z 132.67,A -59.987,B -2.5,C -1.428,S 2,T 43,E1 -25285,E2 0,E3 0,E4 0,E5 0,E6 0}
DECL E6POS XE_S09_225={X 20975.29,Y 16933.3,Z 138.9,A -59.987,B -2.5,C -1.428,S 2,T 43,E1 -25034,E2 0,E3 0,E4 0,E5 0,E6 0}
DECL E6POS XE_S09_230={X 20921.45,Y 16902.25,Z 139.7,A -59.987,B -2.5,C -1.406,S 2,T 43,E1 -24971,E2 0,E3 0,E4 0,E5 0,E6 0}
DECL E6POS XE_S09_235={X 20780.26,Y 16820.89,Z 143.7,A -59.987,B -2.5,C -1.406,S 2,T 43,E1 -24808,E2 0,E3 0,E4 0,E5 0,E6 0}
DECL E6POS XE_S09_240={X 20659.86,Y 16751.51,Z 147.11,A -59.987,B -2.5,C -1.406,S 2,T 43,E1 -24668,E2 0,E3 0,E4 0,E5 0,E6 0}
DECL E6POS XE_S09_245={X 20633.87,Y 16736.54,Z 147.84,A -59.987,B -2.5,C -1.406,S 2,T 43,E1 -24638,E2 0,E3 0,E4 0,E5 0,E6 0}
DECL E6POS XE_S09_250={X 20625.21,Y 16731.55,Z 148.09,A -59.987,B -2.5,C -1.406,S 2,T 43,E1 -24628,E2 0,E3 0,E4 0,E5 0,E6 0}
DECL E6POS XE_S09_255={X 20616.55,Y 16726.6,Z 149.23,A -59.987,B -2.5,C -1.406,S 2,T 43,E1 -24618,E2 0,E3 0,E4 0,E5 0,E6 0}
DECL E6POS XE_S09_260={X 20607.89,Y 16721.62,Z 149.58,A -59.987,B -2.5,C -1.406,S 2,T 43,E1 -24608,E2 0,E3 0,E4 0,E5 0,E6 0}
DECL E6POS XE_S09_265={X 20542.25,Y 16683.79,Z 151.39,A -59.987,B -2.5,C -1.382,S 2,T 43,E1 -24532,E2 0,E3 0,E4 0,E5 0,E6 0}
DECL E6POS XE_S09_270={X 20325.7,Y 16559,Z 157.41,A -59.987,B -2.5,C -1.382,S 2,T 43,E1 -24281,E2 0,E3 0,E4 0,E5 0,E6 0}
DECL E6POS XE_S09_275={X 20109.15,Y 16434.22,Z 163.44,A -59.987,B -2.5,C -1.382,S 2,T 43,E1 -24030,E2 0,E3 0,E4 0,E5 0,E6 0}
DECL E6POS XE_S09_280={X 19892.61,Y 16309.43,Z 169.46,A -59.987,B -2.5,C -1.382,S 2,T 43,E1 -23779,E2 0,E3 0,E4 0,E5 0,E6 0}
DECL E6POS XE_S09_285={X 19748.96,Y 16226.64,Z 172.96,A -59.987,B -2.5,C -2.076,S 2,T 43,E1 -23613,E2 0,E3 0,E4 0,E5 0,E6 0}
DECL E6POS XE_S09_290={X 19722.97,Y 16211.68,Z 174.05,A -59.987,B -2.5,C -2.076,S 2,T 43,E1 -23583,E2 0,E3 0,E4 0,E5 0,E6 0}
DECL E6POS XE_S09_295={X 19714.31,Y 16206.7,Z 174.41,A -59.987,B -2.5,C -7.076,S 2,T 43,E1 -23573,E2 0,E3 0,E4 0,E5 0,E6 0}
DECL E6POS XE_S09_300={X 19643.47,Y 16166.28,Z 184.36,A -59.987,B -2.5,C -6.355,S 2,T 43,E1 -23490,E2 0,E3 0,E4 0,E5 0,E6 0}
DECL E6POS XE_S09_305={X 19634.81,Y 16161.29,Z 184.6,A -59.987,B -2.5,C -1.355,S 2,T 43,E1 -23480,E2 0,E3 0,E4 0,E5 0,E6 0}
DECL E6POS XE_S09_310={X 19459.84,Y 16060.46,Z 189.37,A -59.987,B -2.5,C -1.355,S 2,T 43,E1 -23278,E2 0,E3 0,E4 0,E5 0,E6 0}
DECL E6POS XE_S09_315={X 19349.44,Y 15996.82,Z 192.21,A -59.987,B -2.5,C 0.075,S 2,T 43,E1 -23150,E2 0,E3 0,E4 0,E5 0,E6 0}
DECL E6POS XE_S09_320={X 19323.47,Y 15981.8,Z 191.67,A -59.987,B -2.5,C 0.075,S 2,T 43,E1 -23120,E2 0,E3 0,E4 0,E5 0,E6 0}
DECL E6POS XE_S09_325={X 19260.65,Y 15945.59,Z 193.23,A -59.987,B -2.5,C -0.925,S 2,T 43,E1 -23047,E2 0,E3 0,E4 0,E5 0,E6 0}
DECL E6POS XE_S09_330={X 19222.55,Y 15923.59,Z 193.44,A -59.987,B -2.5,C -0.925,S 2,T 43,E1 -23003,E2 0,E3 0,E4 0,E5 0,E6 0}
DECL E6POS XE_S09_335={X 19111.67,Y 15859.7,Z 196.5,A -59.987,B -2.5,C -0.925,S 2,T 43,E1 -22874,E2 0,E3 0,E4 0,E5 0,E6 0}
DECL E6POS XE_S09_340={X 19102.15,Y 15854.16,Z 195.68,A -59.987,B -2.5,C -0.925,S 2,T 43,E1 -22863,E2 0,E3 0,E4 0,E5 0,E6 0}
DECL E6POS XE_S09_345={X 19026.83,Y 15810.75,Z 197.84,A -59.987,B -2.5,C -1.335,S 2,T 43,E1 -22776,E2 0,E3 0,E4 0,E5 0,E6 0}
DECL E6POS XE_S09_350={X 18810.29,Y 15685.96,Z 203.65,A -59.987,B -2.5,C -1.335,S 2,T 43,E1 -22525,E2 0,E3 0,E4 0,E5 0,E6 0}
DECL E6POS XE_S09_355={X 18615.4,Y 15573.65,Z 208.79,A -59.987,B -2.5,C -1.327,S 2,T 43,E1 -22299,E2 0,E3 0,E4 0,E5 0,E6 0}
DECL E6POS XE_S09_360={X 18599.81,Y 15564.63,Z 208.61,A -59.987,B -2.5,C -1.327,S 2,T 43,E1 -22281,E2 0,E3 0,E4 0,E5 0,E6 0}
DECL E6POS XE_S09_365={X 18497.78,Y 15506.2,Z 211.51,A -59.987,B -2.5,C -1.327,S 2,T 43,E1 -22163,E2 0,E3 0,E4 0,E5 0,E6 0}
DECL E6POS XE_S09_370={X 18438.36,Y 15471.96,Z 213.09,A -59.987,B -2.5,C -1.327,S 2,T 43,E1 -22094,E2 0,E3 0,E4 0,E5 0,E6 0}
DECL E6POS XE_S09_375={X 18412.37,Y 15456.98,Z 213.79,A -59.987,B -2.5,C -1.327,S 2,T 43,E1 -22064,E2 0,E3 0,E4 0,E5 0,E6 0}
DECL E6POS XE_S09_380={X 18403.71,Y 15451.99,Z 213.92,A -59.987,B -2.5,C -1.327,S 2,T 43,E1 -22054,E2 0,E3 0,E4 0,E5 0,E6 0}
DECL E6POS XE_S09_385={X 18386.74,Y 15441.74,Z 212.39,A -59.987,B -2.5,C -1.31,S 2,T 43,E1 -22034,E2 0,E3 0,E4 0,E5 0,E6 0}
DECL E6POS XE_S09_390={X 18378.08,Y 15436.75,Z 212.62,A -59.987,B -2.5,C -1.31,S 2,T 43,E1 -22024,E2 0,E3 0,E4 0,E5 0,E6 0}
DECL E6POS XE_S09_395={X 18160.75,Y 15311.5,Z 218.45,A -59.987,B -2.5,C -1.31,S 2,T 43,E1 -21773,E2 0,E3 0,E4 0,E5 0,E6 0}
DECL E6POS XE_S09_400={X 17944.2,Y 15186.7,Z 224.16,A -59.987,B -2.5,C -1.31,S 2,T 43,E1 -21522,E2 0,E3 0,E4 0,E5 0,E6 0}
DECL E6POS XE_S09_405={X 17854.12,Y 15134.78,Z 226.54,A -59.987,B -2.5,C -1.31,S 2,T 43,E1 -21417,E2 0,E3 0,E4 0,E5 0,E6 0}
DECL E6POS XE_S09_410={X 17828.13,Y 15119.8,Z 227.22,A -59.987,B -2.5,C -1.31,S 2,T 43,E1 -21387,E2 0,E3 0,E4 0,E5 0,E6 0}
DECL E6POS XE_S09_415={X 17819.47,Y 15114.81,Z 227.45,A -59.987,B -2.5,C 3.69,S 2,T 43,E1 -21377,E2 0,E3 0,E4 0,E5 0,E6 0}
DECL E6POS XE_S09_420={X 17741.76,Y 15069.57,Z 220.45,A -59.987,B -2.5,C 3.712,S 2,T 43,E1 -21287,E2 0,E3 0,E4 0,E5 0,E6 0}
DECL E6POS XE_S09_425={X 17731.36,Y 15063.58,Z 220.74,A -59.987,B -2.5,C -1.288,S 2,T 43,E1 -21275,E2 0,E3 0,E4 0,E5 0,E6 0}
DECL E6POS XE_S09_430={X 17688.05,Y 15038.62,Z 221.87,A -59.987,B -2.5,C -1.288,S 2,T 43,E1 -21224,E2 0,E3 0,E4 0,E5 0,E6 0}
DECL E6POS XE_S09_435={X 17464.75,Y 14909.91,Z 227.66,A -59.987,B -2.5,C -1.288,S 2,T 43,E1 -20966,E2 0,E3 0,E4 0,E5 0,E6 0}
DECL E6POS XE_S09_440={X 17437.02,Y 14894,Z 229.68,A -59.987,B -2.5,C -1.288,S 2,T 43,E1 -20934,E2 0,E3 0,E4 0,E5 0,E6 0}
DECL E6POS XE_S09_445={X 17295,Y 14812.16,Z 233.53,A -59.987,B -2.5,C -1.27,S 2,T 43,E1 -20769,E2 0,E3 0,E4 0,E5 0,E6 0}
DECL E6POS XE_S09_450={X 17084.53,Y 14690.85,Z 238.84,A -59.987,B -2.499,C -0.45,S 2,T 43,E1 -20525,E2 0,E3 0,E4 0,E5 0,E6 0}
DECL E6POS XE_S09_455={X 17074.14,Y 14684.83,Z 238.44,A -59.987,B -2.499,C -0.45,S 2,T 43,E1 -20513,E2 0,E3 0,E4 0,E5 0,E6 0}
DECL E6POS XE_S09_460={X 16919.94,Y 14595.95,Z 242.34,A -59.987,B -2.499,C -1.45,S 2,T 43,E1 -20335,E2 0,E3 0,E4 0,E5 0,E6 0}
DECL E6POS XE_S09_465={X 16893.96,Y 14580.98,Z 243.09,A -59.987,B -2.499,C -1.45,S 2,T 43,E1 -20304,E2 0,E3 0,E4 0,E5 0,E6 0}
DECL E6POS XE_S09_470={X 16885.3,Y 14575.99,Z 243.35,A -59.987,B -2.499,C -1.45,S 2,T 43,E1 -20294,E2 0,E3 0,E4 0,E5 0,E6 0}
DECL E6POS XE_S09_475={X 16858.45,Y 14560.66,Z 247.03,A -59.987,B -2.499,C -1.45,S 2,T 43,E1 -20263,E2 0,E3 0,E4 0,E5 0,E6 0}
DECL E6POS XE_S09_480={X 16849.78,Y 14555.67,Z 247.28,A -59.987,B -2.499,C -1.45,S 2,T 43,E1 -20253,E2 0,E3 0,E4 0,E5 0,E6 0}
DECL E6POS XE_S09_485={X 16809.97,Y 14532.58,Z 248.22,A -59.987,B -2.5,C -1.23,S 2,T 43,E1 -20207,E2 0,E3 0,E4 0,E5 0,E6 0}
DECL E6POS XE_S09_490={X 16645.4,Y 14437.72,Z 252.29,A -59.987,B -2.5,C -1.23,S 2,T 43,E1 -20016,E2 0,E3 0,E4 0,E5 0,E6 0}
DECL E6POS XE_S09_495={X 16428.86,Y 14312.91,Z 257.66,A -59.987,B -2.5,C -1.23,S 2,T 43,E1 -19765,E2 0,E3 0,E4 0,E5 0,E6 0}
DECL E6POS XE_S09_500={X 16287.76,Y 14231.57,Z 261.06,A -59.987,B -2.5,C -1.23,S 2,T 43,E1 -19602,E2 0,E3 0,E4 0,E5 0,E6 0}
DECL E6POS XE_S09_505={X 16261.77,Y 14216.59,Z 261.7,A -59.987,B -2.5,C -1.23,S 2,T 43,E1 -19572,E2 0,E3 0,E4 0,E5 0,E6 0}
DECL E6POS XE_S09_510={X 16253.11,Y 14211.6,Z 261.92,A -59.987,B -2.5,C -1.23,S 2,T 43,E1 -19562,E2 0,E3 0,E4 0,E5 0,E6 0}
DECL E6POS XE_S09_515={X 16209.98,Y 14186.54,Z 257.95,A -59.987,B -2.5,C -0.476,S 2,T 43,E1 -19512,E2 0,E3 0,E4 0,E5 0,E6 0}
DECL E6POS XE_S09_520={X 16201.32,Y 14181.54,Z 258.14,A -59.987,B -2.5,C -0.476,S 2,T 43,E1 -19502,E2 0,E3 0,E4 0,E5 0,E6 0}
DECL E6POS XE_S09_525={X 16164.94,Y 14160.57,Z 258.99,A -59.987,B -2.5,C -1.476,S 2,T 43,E1 -19459,E2 0,E3 0,E4 0,E5 0,E6 0}
DECL E6POS XE_S09_530={X 16002,Y 14066.65,Z 262.91,A -59.987,B -2.5,C -2.587,S 2,T 43,E1 -19271,E2 0,E3 0,E4 0,E5 0,E6 0}
DECL E6POS XE_S09_535={X 15967.36,Y 14046.73,Z 264.72,A -59.987,B -2.5,C -2.587,S 2,T 43,E1 -19231,E2 0,E3 0,E4 0,E5 0,E6 0}
DECL E6POS XE_S09_540={X 15779.4,Y 13938.37,Z 269.02,A -59.987,B -2.5,C -1.132,S 2,T 43,E1 -19013,E2 0,E3 0,E4 0,E5 0,E6 0}
DECL E6POS XE_S09_545={X 15562.86,Y 13813.53,Z 273.96,A -59.987,B -2.5,C -1.133,S 2,T 43,E1 -18762,E2 0,E3 0,E4 0,E5 0,E6 0}
DECL E6POS XE_S09_550={X 15517.91,Y 13787.61,Z 274.98,A -59.987,B -2.5,C -1.133,S 2,T 43,E1 -18710,E2 0,E3 0,E4 0,E5 0,E6 0}
DECL E6POS XE_S09_555={X 15491.93,Y 13772.63,Z 275.58,A -59.987,B -2.5,C -1.133,S 2,T 43,E1 -18680,E2 0,E3 0,E4 0,E5 0,E6 0}
DECL E6POS XE_S09_560={X 15483.26,Y 13767.64,Z 275.77,A -59.987,B -2.5,C -1.133,S 2,T 43,E1 -18670,E2 0,E3 0,E4 0,E5 0,E6 0}
DECL E6POS XE_S09_565={X 15422.83,Y 13732.55,Z 270.14,A -59.987,B -2.5,C -1.082,S 2,T 43,E1 -18599,E2 0,E3 0,E4 0,E5 0,E6 0}
DECL E6POS XE_S09_570={X 15414.17,Y 13727.56,Z 270.33,A -59.987,B -2.5,C -1.082,S 2,T 43,E1 -18589,E2 0,E3 0,E4 0,E5 0,E6 0}
DECL E6POS XE_S09_575={X 15354.49,Y 13693.15,Z 271.63,A -59.987,B -2.5,C -1.082,S 2,T 43,E1 -18520,E2 0,E3 0,E4 0,E5 0,E6 0}
DECL E6POS XE_S09_580={X 15309.45,Y 13667.18,Z 272.61,A -59.987,B -2.5,C -1.082,S 2,T 43,E1 -18468,E2 0,E3 0,E4 0,E5 0,E6 0}
DECL E6POS XE_S09_585={X 15285.19,Y 13653.25,Z 274.14,A -59.987,B -2.5,C -1.082,S 2,T 43,E1 -18440,E2 0,E3 0,E4 0,E5 0,E6 0}
DECL E6POS XE_S09_590={X 15130.01,Y 13563.78,Z 277.66,A -59.987,B -2.5,C -1.036,S 2,T 43,E1 -18260,E2 0,E3 0,E4 0,E5 0,E6 0}
DECL E6POS XE_S09_595={X 14913.48,Y 13438.93,Z 282.17,A -59.987,B -2.5,C -1.036,S 2,T 43,E1 -18009,E2 0,E3 0,E4 0,E5 0,E6 0}
DECL E6POS XE_S09_600={X 14772.47,Y 13357.63,Z 285.11,A -59.987,B -2.5,C -1.036,S 2,T 43,E1 -17846,E2 0,E3 0,E4 0,E5 0,E6 0}
DECL E6POS XE_S09_605={X 14746.48,Y 13342.64,Z 285.65,A -59.987,B -2.5,C -1.036,S 2,T 43,E1 -17816,E2 0,E3 0,E4 0,E5 0,E6 0}
DECL E6POS XE_S09_610={X 14737.82,Y 13337.65,Z 285.83,A -59.987,B -2.5,C -1.036,S 2,T 43,E1 -17806,E2 0,E3 0,E4 0,E5 0,E6 0}
DECL E6POS XE_S09_615={X 14703.36,Y 13317.57,Z 282.53,A -59.987,B -2.5,C -0.981,S 2,T 43,E1 -17766,E2 0,E3 0,E4 0,E5 0,E6 0}
DECL E6POS XE_S09_620={X 14694.7,Y 13312.58,Z 282.7,A -59.987,B -2.5,C -0.981,S 2,T 43,E1 -17756,E2 0,E3 0,E4 0,E5 0,E6 0}
DECL E6POS XE_S09_625={X 14668.72,Y 13297.59,Z 283.21,A -59.987,B -2.5,C -0.981,S 2,T 43,E1 -17726,E2 0,E3 0,E4 0,E5 0,E6 0}
DECL E6POS XE_S09_630={X 14636.2,Y 13278.85,Z 283.86,A -59.987,B -2.5,C -0.981,S 2,T 43,E1 -17688,E2 0,E3 0,E4 0,E5 0,E6 0}
DECL E6POS XE_S09_635={X 14480.59,Y 13189.11,Z 286.84,A -59.987,B -2.5,C -0.915,S 2,T 43,E1 -17508,E2 0,E3 0,E4 0,E5 0,E6 0}
DECL E6POS XE_S09_640={X 14264.05,Y 13064.23,Z 290.83,A -59.987,B -2.5,C -0.915,S 2,T 43,E1 -17257,E2 0,E3 0,E4 0,E5 0,E6 0}
DECL E6POS XE_S09_645={X 14047.51,Y 12939.35,Z 294.82,A -59.987,B -2.5,C -0.915,S 2,T 43,E1 -17006,E2 0,E3 0,E4 0,E5 0,E6 0}
DECL E6POS XE_S09_650={X 13869.95,Y 12836.95,Z 298.08,A -59.987,B -2.5,C -0.573,S 2,T 43,E1 -16800,E2 0,E3 0,E4 0,E5 0,E6 0}
DECL E6POS XE_S09_655={X 13843.96,Y 12821.96,Z 298.58,A -59.987,B -2.5,C -0.573,S 2,T 43,E1 -16770,E2 0,E3 0,E4 0,E5 0,E6 0}
DECL E6POS XE_S09_660={X 13835.3,Y 12816.96,Z 298.68,A -59.987,B -2.5,C -3.573,S 2,T 43,E1 -16760,E2 0,E3 0,E4 0,E5 0,E6 0}
DECL E6POS XE_S09_665={X 13826.66,Y 12812.03,Z 299.8,A -59.987,B -2.5,C -3.573,S 2,T 43,E1 -16750,E2 0,E3 0,E4 0,E5 0,E6 0}
DECL E6POS XE_S09_670={X 13818,Y 12807.03,Z 299.97,A -59.987,B -2.5,C -1.573,S 2,T 43,E1 -16740,E2 0,E3 0,E4 0,E5 0,E6 0}
DECL E6POS XE_S09_675={X 13614.47,Y 12689.64,Z 303.4,A -59.985,B -2.615,C -0.82,S 2,T 43,E1 -16504,E2 0,E3 0,E4 0,E5 0,E6 0}
DECL E6POS XE_S09_680={X 13397.94,Y 12564.74,Z 306.99,A -59.989,B -2.399,C -0.825,S 2,T 43,E1 -16253,E2 0,E3 0,E4 0,E5 0,E6 0}
DECL E6POS XE_S09_685={X 13181.41,Y 12439.83,Z 310.39,A -59.986,B -2.594,C -0.758,S 2,T 43,E1 -16002,E2 0,E3 0,E4 0,E5 0,E6 0}
DECL E6POS XE_S09_690={X 12964.87,Y 12314.91,Z 313.71,A -59.991,B -2.231,C -0.765,S 2,T 43,E1 -15752,E2 0,E3 0,E4 0,E5 0,E6 0}
DECL E6POS XE_S09_695={X 12748.34,Y 12190,Z 316.91,A -59.984,B -2.759,C -0.704,S 2,T 43,E1 -15501,E2 0,E3 0,E4 0,E5 0,E6 0}
DECL E6POS XE_S09_700={X 12531.82,Y 12065.07,Z 319.97,A -59.984,B -2.759,C -0.704,S 2,T 43,E1 -15250,E2 0,E3 0,E4 0,E5 0,E6 0}
DECL E6POS XE_S09_705={X 12315.29,Y 11940.15,Z 323.02,A -59.987,B -2.5,C -0.699,S 2,T 43,E1 -14999,E2 0,E3 0,E4 0,E5 0,E6 0}
DECL E6POS XE_S09_710={X 12230.41,Y 11891.18,Z 324.21,A -59.987,B -2.5,C -0.699,S 2,T 43,E1 -14901,E2 0,E3 0,E4 0,E5 0,E6 0}
DECL E6POS XE_S09_715={X 12204.43,Y 11876.19,Z 324.58,A -59.987,B -2.5,C -0.699,S 2,T 43,E1 -14870,E2 0,E3 0,E4 0,E5 0,E6 0}
DECL E6POS XE_S09_720={X 12195.77,Y 11871.19,Z 324.7,A -59.987,B -2.5,C -0.699,S 2,T 43,E1 -14860,E2 0,E3 0,E4 0,E5 0,E6 0}
DECL E6POS XE_S09_725={X 12186.23,Y 11865.74,Z 325.83,A -59.987,B -2.5,C -0.699,S 2,T 43,E1 -14849,E2 0,E3 0,E4 0,E5 0,E6 0}
DECL E6POS XE_S09_730={X 12177.57,Y 11860.74,Z 325.96,A -59.987,B -2.5,C -0.699,S 2,T 43,E1 -14839,E2 0,E3 0,E4 0,E5 0,E6 0}
DECL E6POS XE_S09_735={X 12098.79,Y 11815.29,Z 326.97,A -59.987,B -2.5,C -0.644,S 2,T 43,E1 -14748,E2 0,E3 0,E4 0,E5 0,E6 0}
DECL E6POS XE_S09_740={X 11882.26,Y 11690.35,Z 329.78,A -59.987,B -2.5,C -0.644,S 2,T 43,E1 -14497,E2 0,E3 0,E4 0,E5 0,E6 0}
DECL E6POS XE_S09_745={X 11665.74,Y 11565.42,Z 332.58,A -59.987,B -2.5,C -0.645,S 2,T 43,E1 -14246,E2 0,E3 0,E4 0,E5 0,E6 0}
DECL E6POS XE_S09_750={X 11449.21,Y 11440.48,Z 335.39,A -59.987,B -2.5,C -0.645,S 2,T 43,E1 -13995,E2 0,E3 0,E4 0,E5 0,E6 0}
DECL E6POS XE_S09_755={X 11437.95,Y 11433.98,Z 335.54,A -59.987,B -2.5,C -0.645,S 2,T 43,E1 -13982,E2 0,E3 0,E4 0,E5 0,E6 0}
DECL E6POS XE_S09_760={X 11411.97,Y 11418.99,Z 335.87,A -59.987,B -2.5,C -0.645,S 2,T 43,E1 -13952,E2 0,E3 0,E4 0,E5 0,E6 0}
DECL E6POS XE_S09_765={X 11403.31,Y 11413.99,Z 335.99,A -59.987,B -2.5,C -0.645,S 2,T 43,E1 -13942,E2 0,E3 0,E4 0,E5 0,E6 0}
DECL E6POS XE_S09_770={X 11377.29,Y 11399.13,Z 339.22,A -59.987,B -2.5,C -0.645,S 2,T 43,E1 -13912,E2 0,E3 0,E4 0,E5 0,E6 0}
DECL E6POS XE_S09_775={X 11368.63,Y 11394.13,Z 339.33,A -59.987,B -2.5,C -0.645,S 2,T 43,E1 -13902,E2 0,E3 0,E4 0,E5 0,E6 0}
DECL E6POS XE_S09_780={X 11289.81,Y 11348.67,Z 340.32,A -59.987,B -2.5,C -0.645,S 2,T 43,E1 -13811,E2 0,E3 0,E4 0,E5 0,E6 0}
DECL E6POS XE_S09_785={X 11278.54,Y 11342.19,Z 340.97,A -59.987,B -2.5,C -0.645,S 2,T 43,E1 -13798,E2 0,E3 0,E4 0,E5 0,E6 0}
DECL E6POS XE_S09_790={X 11232.73,Y 11315.65,Z 341.57,A -59.987,B -2.5,C -0.59,S 2,T 43,E1 -13745,E2 0,E3 0,E4 0,E5 0,E6 0}
DECL E6POS XE_S09_795={X 11016.22,Y 11190.71,Z 344.15,A -59.987,B -2.5,C -0.59,S 2,T 43,E1 -13494,E2 0,E3 0,E4 0,E5 0,E6 0}
DECL E6POS XE_S09_800={X 10799.69,Y 11065.76,Z 346.73,A -59.987,B -2.5,C -0.59,S 2,T 43,E1 -13243,E2 0,E3 0,E4 0,E5 0,E6 0}
DECL E6POS XE_S09_805={X 10658.52,Y 10984.3,Z 348.41,A -59.987,B -2.5,C -0.59,S 2,T 43,E1 -13079,E2 0,E3 0,E4 0,E5 0,E6 0}
DECL E6POS XE_S09_810={X 10632.54,Y 10969.3,Z 348.72,A -59.987,B -2.5,C -0.59,S 2,T 43,E1 -13049,E2 0,E3 0,E4 0,E5 0,E6 0}
DECL E6POS XE_S09_815={X 10623.87,Y 10964.31,Z 348.82,A -59.987,B -2.5,C -0.59,S 2,T 43,E1 -13039,E2 0,E3 0,E4 0,E5 0,E6 0}
DECL E6POS XE_S09_820={X 10614.49,Y 10958.94,Z 349.93,A -59.987,B -2.5,C -0.59,S 2,T 43,E1 -13028,E2 0,E3 0,E4 0,E5 0,E6 0}
DECL E6POS XE_S09_825={X 10605.83,Y 10953.95,Z 350.03,A -59.987,B -2.5,C -0.59,S 2,T 43,E1 -13018,E2 0,E3 0,E4 0,E5 0,E6 0}
DECL E6POS XE_S09_830={X 10583.18,Y 10940.83,Z 350.3,A -59.987,B -2.5,C -0.59,S 2,T 43,E1 -12992,E2 0,E3 0,E4 0,E5 0,E6 0}
DECL E6POS XE_S09_835={X 10493.55,Y 10889.1,Z 351.32,A -59.987,B -2.5,C -0.542,S 2,T 43,E1 -12888,E2 0,E3 0,E4 0,E5 0,E6 0}
DECL E6POS XE_S09_840={X 10487.05,Y 10885.36,Z 351.69,A -59.987,B -2.5,C -0.542,S 2,T 43,E1 -12881,E2 0,E3 0,E4 0,E5 0,E6 0}
DECL E6POS XE_S09_845={X 10366.66,Y 10815.89,Z 353,A -59.987,B -2.5,C -0.542,S 2,T 43,E1 -12741,E2 0,E3 0,E4 0,E5 0,E6 0}
DECL E6POS XE_S09_850={X 10150.13,Y 10690.94,Z 355.37,A -59.987,B -2.5,C -0.543,S 2,T 43,E1 -12490,E2 0,E3 0,E4 0,E5 0,E6 0}
DECL E6POS XE_S09_855={X 9933.61,Y 10565.98,Z 357.73,A -59.987,B -2.5,C -0.543,S 2,T 43,E1 -12239,E2 0,E3 0,E4 0,E5 0,E6 0}
DECL E6POS XE_S09_860={X 9839.9,Y 10511.89,Z 358.65,A -59.987,B -2.5,C -0.543,S 2,T 43,E1 -12131,E2 0,E3 0,E4 0,E5 0,E6 0}
DECL E6POS XE_S09_865={X 9813.92,Y 10496.9,Z 358.94,A -59.987,B -2.5,C -0.543,S 2,T 43,E1 -12101,E2 0,E3 0,E4 0,E5 0,E6 0}
DECL E6POS XE_S09_870={X 9805.26,Y 10491.9,Z 359.03,A -59.987,B -2.5,C -0.543,S 2,T 43,E1 -12091,E2 0,E3 0,E4 0,E5 0,E6 0}
DECL E6POS XE_S09_875={X 9788.09,Y 10482.1,Z 361.23,A -59.987,B -2.5,C -0.469,S 2,T 43,E1 -12071,E2 0,E3 0,E4 0,E5 0,E6 0}
DECL E6POS XE_S09_880={X 9777.7,Y 10476.1,Z 361.33,A -59.987,B -2.5,C -0.469,S 2,T 43,E1 -12059,E2 0,E3 0,E4 0,E5 0,E6 0}
DECL E6POS XE_S09_885={X 9717.16,Y 10441.16,Z 361.9,A -59.987,B -2.5,C -0.469,S 2,T 43,E1 -11988,E2 0,E3 0,E4 0,E5 0,E6 0}
DECL E6POS XE_S09_890={X 9500.64,Y 10316.19,Z 363.95,A -59.987,B -2.5,C -0.469,S 2,T 43,E1 -11738,E2 0,E3 0,E4 0,E5 0,E6 0}
DECL E6POS XE_S09_895={X 9284.13,Y 10191.22,Z 365.99,A -59.987,B -2.5,C -0.469,S 2,T 43,E1 -11487,E2 0,E3 0,E4 0,E5 0,E6 0}
DECL E6POS XE_S09_900={X 9103.99,Y 10087.24,Z 367.66,A -59.987,B -2.5,C -1.144,S 2,T 43,E1 -11278,E2 0,E3 0,E4 0,E5 0,E6 0}
DECL E6POS XE_S09_905={X 9078.01,Y 10072.25,Z 367.96,A -59.987,B -2.5,C -1.144,S 2,T 43,E1 -11248,E2 0,E3 0,E4 0,E5 0,E6 0}
DECL E6POS XE_S09_910={X 9069.34,Y 10067.25,Z 367.96,A -59.987,B -2.5,C -1.144,S 2,T 43,E1 -11238,E2 0,E3 0,E4 0,E5 0,E6 0}
DECL E6POS XE_S09_915={X 9052.01,Y 10057.34,Z 370.06,A -59.987,B -2.5,C -1.144,S 2,T 43,E1 -11218,E2 0,E3 0,E4 0,E5 0,E6 0}
DECL E6POS XE_S09_920={X 9043.35,Y 10052.34,Z 370.16,A -59.987,B -2.5,C -1.144,S 2,T 43,E1 -11208,E2 0,E3 0,E4 0,E5 0,E6 0}
DECL E6POS XE_S09_925={X 9001.78,Y 10028.35,Z 370.58,A -59.987,B -2.5,C -0.144,S 2,T 43,E1 -11160,E2 0,E3 0,E4 0,E5 0,E6 0}
DECL E6POS XE_S09_930={X 8967.14,Y 10008.35,Z 370.88,A -59.987,B -2.5,C -0.144,S 2,T 43,E1 -11119,E2 0,E3 0,E4 0,E5 0,E6 0}
DECL E6POS XE_S09_935={X 8958.48,Y 10003.35,Z 370.9,A -59.987,B -2.5,C -0.144,S 2,T 43,E1 -11109,E2 0,E3 0,E4 0,E5 0,E6 0}
DECL E6POS XE_S09_940={X 8938.56,Y 9991.91,Z 372.08,A -59.987,B -2.5,C -1.144,S 2,T 43,E1 -11086,E2 0,E3 0,E4 0,E5 0,E6 0}
DECL E6POS XE_S09_945={X 8929.9,Y 9986.91,Z 372.18,A -59.987,B -2.5,C -1.144,S 2,T 43,E1 -11076,E2 0,E3 0,E4 0,E5 0,E6 0}
DECL E6POS XE_S09_950={X 8851.14,Y 9941.39,Z 372.82,A -59.987,B -2.5,C -0.383,S 2,T 43,E1 -10985,E2 0,E3 0,E4 0,E5 0,E6 0}
DECL E6POS XE_S09_955={X 8634.62,Y 9816.42,Z 374.48,A -59.987,B -2.5,C -0.383,S 2,T 43,E1 -10734,E2 0,E3 0,E4 0,E5 0,E6 0}
DECL E6POS XE_S09_960={X 8418.12,Y 9691.44,Z 376.15,A -59.987,B -2.5,C -0.383,S 2,T 43,E1 -10483,E2 0,E3 0,E4 0,E5 0,E6 0}
DECL E6POS XE_S09_965={X 8332.04,Y 9641.75,Z 376.81,A -59.987,B -2.5,C -0.383,S 2,T 43,E1 -10383,E2 0,E3 0,E4 0,E5 0,E6 0}
DECL E6POS XE_S09_970={X 8201.64,Y 9566.56,Z 377.61,A -59.987,B -2.5,C -0.3,S 2,T 43,E1 -10232,E2 0,E3 0,E4 0,E5 0,E6 0}
DECL E6POS XE_S09_975={X 7985.13,Y 9441.56,Z 378.91,A -59.987,B -2.5,C -0.299,S 2,T 43,E1 -9982,E2 0,E3 0,E4 0,E5 0,E6 0}
DECL E6POS XE_S09_980={X 7757.82,Y 9310.32,Z 380.28,A -59.987,B -2.5,C -0.299,S 2,T 43,E1 -9718,E2 0,E3 0,E4 0,E5 0,E6 0}
DECL E6POS XE_S09_985={X 7746.57,Y 9303.8,Z 379.74,A -59.987,B -2.5,C -0.299,S 2,T 43,E1 -9705,E2 0,E3 0,E4 0,E5 0,E6 0}
DECL E6POS XE_S09_990={X 7685.95,Y 9268.8,Z 380.11,A -59.987,B -2.5,C -0.299,S 2,T 43,E1 -9635,E2 0,E3 0,E4 0,E5 0,E6 0}
DECL E6POS XE_S09_995={X 7659.97,Y 9253.8,Z 380.26,A -59.987,B -2.5,C -0.299,S 2,T 43,E1 -9605,E2 0,E3 0,E4 0,E5 0,E6 0}
DECL E6POS XE_S09_1000={X 7651.31,Y 9248.8,Z 380.32,A -59.987,B -2.5,C -0.299,S 2,T 43,E1 -9595,E2 0,E3 0,E4 0,E5 0,E6 0}
DECL E6POS XE_S09_1005={X 7633.53,Y 9238.53,Z 378.37,A -59.987,B -2.5,C -0.233,S 2,T 43,E1 -9574,E2 0,E3 0,E4 0,E5 0,E6 0}
DECL E6POS XE_S09_1010={X 7624.87,Y 9233.53,Z 378.41,A -59.987,B -2.5,C -0.233,S 2,T 43,E1 -9564,E2 0,E3 0,E4 0,E5 0,E6 0}
DECL E6POS XE_S09_1015={X 7552.13,Y 9191.53,Z 378.75,A -59.987,B -2.5,C -0.233,S 2,T 43,E1 -9480,E2 0,E3 0,E4 0,E5 0,E6 0}
DECL E6POS XE_S09_1020={X 7528.75,Y 9178.03,Z 378.86,A -59.987,B -2.5,C -0.233,S 2,T 43,E1 -9453,E2 0,E3 0,E4 0,E5 0,E6 0}
DECL E6POS XE_S09_1025={X 7518.79,Y 9172.28,Z 378.91,A -59.987,B -2.5,C -0.233,S 2,T 43,E1 -9441,E2 0,E3 0,E4 0,E5 0,E6 0}
DECL E6POS XE_S09_1030={X 7500.59,Y 9161.81,Z 379.89,A -59.987,B -2.5,C -0.233,S 2,T 43,E1 -9420,E2 0,E3 0,E4 0,E5 0,E6 0}
DECL E6POS XE_S09_1035={X 7491.93,Y 9156.81,Z 379.93,A -59.987,B -2.5,C -0.233,S 2,T 43,E1 -9410,E2 0,E3 0,E4 0,E5 0,E6 0}
DECL E6POS XE_S09_1040={X 7335.64,Y 9066.57,Z 380.52,A -59.987,B -2.5,C -0.158,S 2,T 43,E1 -9229,E2 0,E3 0,E4 0,E5 0,E6 0}
DECL E6POS XE_S09_1045={X 7119.15,Y 8941.54,Z 381.21,A -59.987,B -2.5,C -0.159,S 2,T 43,E1 -8978,E2 0,E3 0,E4 0,E5 0,E6 0}
DECL E6POS XE_S09_1050={X 7036.02,Y 8893.53,Z 381.48,A -59.987,B -2.5,C -0.159,S 2,T 43,E1 -8882,E2 0,E3 0,E4 0,E5 0,E6 0}
DECL E6POS XE_S09_1055={X 7010.04,Y 8878.53,Z 381.56,A -59.987,B -2.5,C -0.159,S 2,T 43,E1 -8852,E2 0,E3 0,E4 0,E5 0,E6 0}
DECL E6POS XE_S09_1060={X 7001.38,Y 8873.53,Z 381.59,A -59.987,B -2.5,C -0.159,S 2,T 43,E1 -8842,E2 0,E3 0,E4 0,E5 0,E6 0}
DECL E6POS XE_S09_1065={X 6984.02,Y 8863.6,Z 383.54,A -59.987,B -2.5,C -0.159,S 2,T 43,E1 -8821,E2 0,E3 0,E4 0,E5 0,E6 0}
DECL E6POS XE_S09_1070={X 6975.36,Y 8858.6,Z 383.57,A -59.987,B -2.5,C -0.159,S 2,T 43,E1 -8811,E2 0,E3 0,E4 0,E5 0,E6 0}
DECL E6POS XE_S09_1075={X 6902.75,Y 8816.52,Z 383.75,A -59.987,B -2.5,C -0.092,S 2,T 43,E1 -8727,E2 0,E3 0,E4 0,E5 0,E6 0}
DECL E6POS XE_S09_1080={X 6686.26,Y 8691.48,Z 383.97,A -59.987,B -2.5,C -0.05,S 2,T 43,E1 -8476,E2 0,E3 0,E4 0,E5 0,E6 0}
DECL E6POS XE_S09_1085={X 6469.79,Y 8566.43,Z 383.99,A -59.987,B -2.5,C 0.019,S 2,T 43,E1 -8225,E2 0,E3 0,E4 0,E5 0,E6 0}
DECL E6POS XE_S09_1090={X 6253.31,Y 8441.38,Z 383.91,A -59.987,B -2.5,C 0.019,S 2,T 43,E1 -7975,E2 0,E3 0,E4 0,E5 0,E6 0}
DECL E6POS XE_S09_1095={X 6207.76,Y 8415.07,Z 383.9,A -59.987,B -2.5,C 0.019,S 2,T 43,E1 -7922,E2 0,E3 0,E4 0,E5 0,E6 0}
DECL E6POS XE_S09_1100={X 6181.78,Y 8400.06,Z 383.89,A -59.987,B -2.5,C 0.019,S 2,T 43,E1 -7892,E2 0,E3 0,E4 0,E5 0,E6 0}
DECL E6POS XE_S09_1105={X 6173.13,Y 8395.06,Z 383.88,A -59.987,B -2.5,C 0.019,S 2,T 43,E1 -7882,E2 0,E3 0,E4 0,E5 0,E6 0}
DECL E6POS XE_S09_1110={X 6129.37,Y 8369.85,Z 378.73,A -59.987,B -2.5,C 1.668,S 2,T 43,E1 -7831,E2 0,E3 0,E4 0,E5 0,E6 0}
DECL E6POS XE_S09_1115={X 6120.7,Y 8364.85,Z 378.84,A -59.987,B -2.5,C 1.668,S 2,T 43,E1 -7821,E2 0,E3 0,E4 0,E5 0,E6 0}
DECL E6POS XE_S09_1120={X 6097.32,Y 8351.34,Z 378.79,A -59.987,B -2.5,C -1.332,S 2,T 43,E1 -7794,E2 0,E3 0,E4 0,E5 0,E6 0}
DECL E6POS XE_S09_1125={X 6041.01,Y 8318.81,Z 378.66,A -59.987,B -2.5,C 1.668,S 2,T 43,E1 -7728,E2 0,E3 0,E4 0,E5 0,E6 0}
DECL E6POS XE_S09_1130={X 6022.9,Y 8308.44,Z 379.21,A -59.987,B -2.5,C -0.14,S 2,T 43,E1 -7707,E2 0,E3 0,E4 0,E5 0,E6 0}
DECL E6POS XE_S09_1135={X 5894.81,Y 8234.45,Z 378.8,A -59.987,B -2.5,C 0.102,S 2,T 43,E1 -7559,E2 0,E3 0,E4 0,E5 0,E6 0}
DECL E6POS XE_S09_1140={X 5877.5,Y 8224.44,Z 378.67,A -59.987,B -2.5,C 0.102,S 2,T 43,E1 -7539,E2 0,E3 0,E4 0,E5 0,E6 0}
DECL E6POS XE_S09_1145={X 5820.35,Y 8191.42,Z 378.55,A -59.987,B -2.5,C 0.102,S 2,T 43,E1 -7473,E2 0,E3 0,E4 0,E5 0,E6 0}
DECL E6POS XE_S09_1150={X 5763.14,Y 8158.49,Z 378.31,A -59.987,B -2.5,C 0.102,S 2,T 43,E1 -7406,E2 0,E3 0,E4 0,E5 0,E6 0}
DECL E6POS XE_S09_1155={X 5745.82,Y 8148.49,Z 378.48,A -59.987,B -2.5,C 0.102,S 2,T 43,E1 -7386,E2 0,E3 0,E4 0,E5 0,E6 0}
DECL E6POS XE_S09_1160={X 5603.88,Y 8066.36,Z 378.3,A -59.987,B -2.5,C 0.151,S 2,T 43,E1 -7222,E2 0,E3 0,E4 0,E5 0,E6 0}
DECL E6POS XE_S09_1165={X 5472.27,Y 7990.32,Z 377.9,A -59.987,B -2.5,C 0.151,S 2,T 43,E1 -7069,E2 0,E3 0,E4 0,E5 0,E6 0}
DECL E6POS XE_S09_1170={X 5446.29,Y 7975.31,Z 377.82,A -59.987,B -2.5,C 0.151,S 2,T 43,E1 -7039,E2 0,E3 0,E4 0,E5 0,E6 0}
DECL E6POS XE_S09_1175={X 5437.63,Y 7970.3,Z 377.79,A -59.987,B -2.5,C 0.151,S 2,T 43,E1 -7029,E2 0,E3 0,E4 0,E5 0,E6 0}
DECL E6POS XE_S09_1180={X 5394.39,Y 7945.31,Z 382.66,A -59.987,B -2.5,C 0.151,S 2,T 43,E1 -6979,E2 0,E3 0,E4 0,E5 0,E6 0}
DECL E6POS XE_S09_1185={X 5385.73,Y 7940.31,Z 382.63,A -59.987,B -2.5,C 0.151,S 2,T 43,E1 -6969,E2 0,E3 0,E4 0,E5 0,E6 0}
DECL E6POS XE_S09_1190={X 5214.29,Y 7841.25,Z 382.11,A -59.987,B -2.5,C 0.151,S 2,T 43,E1 -6770,E2 0,E3 0,E4 0,E5 0,E6 0}
DECL E6POS XE_S09_1195={X 5170.72,Y 7816.1,Z 381.96,A -59.987,B -2.5,C 0.151,S 2,T 43,E1 -6720,E2 0,E3 0,E4 0,E5 0,E6 0}
DECL E6POS XE_S09_1200={X 5150.8,Y 7804.61,Z 382.3,A -59.987,B -2.5,C 0.151,S 2,T 43,E1 -6696,E2 0,E3 0,E4 0,E5 0,E6 0}
DECL E6POS XE_S09_1205={X 5106.64,Y 7779.09,Z 382.27,A -59.987,B -2.5,C 0.151,S 2,T 43,E1 -6645,E2 0,E3 0,E4 0,E5 0,E6 0}
DECL E6POS XE_S09_1210={X 5088.47,Y 7768.57,Z 381.71,A -59.987,B -2.5,C 0.151,S 2,T 43,E1 -6624,E2 0,E3 0,E4 0,E5 0,E6 0}
DECL E6POS XE_S09_1215={X 4974.46,Y 7702.67,Z 381.33,A -59.987,B -2.5,C 0.239,S 2,T 43,E1 -6492,E2 0,E3 0,E4 0,E5 0,E6 0}
DECL E6POS XE_S09_1220={X 4954.54,Y 7691.18,Z 381.63,A -59.987,B -2.5,C 0.239,S 2,T 43,E1 -6469,E2 0,E3 0,E4 0,E5 0,E6 0}
DECL E6POS XE_S09_1225={X 4738.09,Y 7566.1,Z 380.58,A -59.987,B -2.5,C 0.239,S 2,T 43,E1 -6218,E2 0,E3 0,E4 0,E5 0,E6 0}
DECL E6POS XE_S09_1230={X 4612.46,Y 7493.5,Z 379.98,A -59.987,B -2.5,C 0.239,S 2,T 43,E1 -6072,E2 0,E3 0,E4 0,E5 0,E6 0}
DECL E6POS XE_S09_1235={X 4586.49,Y 7478.49,Z 379.85,A -59.987,B -2.5,C 0.239,S 2,T 43,E1 -6042,E2 0,E3 0,E4 0,E5 0,E6 0}
DECL E6POS XE_S09_1240={X 4577.83,Y 7473.49,Z 379.81,A -59.987,B -2.5,C 0.239,S 2,T 43,E1 -6032,E2 0,E3 0,E4 0,E5 0,E6 0}
DECL E6POS XE_S09_1245={X 4560.72,Y 7463.7,Z 381.71,A -59.987,B -2.5,C 0.295,S 2,T 43,E1 -6012,E2 0,E3 0,E4 0,E5 0,E6 0}
DECL E6POS XE_S09_1250={X 4550.33,Y 7457.7,Z 381.65,A -59.987,B -2.5,C 0.295,S 2,T 43,E1 -6000,E2 0,E3 0,E4 0,E5 0,E6 0}
DECL E6POS XE_S09_1255={X 4521.67,Y 7441.13,Z 381.48,A -59.987,B -2.5,C 0.295,S 2,T 43,E1 -5967,E2 0,E3 0,E4 0,E5 0,E6 0}
DECL E6POS XE_S09_1260={X 4320.82,Y 7325.04,Z 380.22,A -59.987,B -2.5,C 0.316,S 2,T 43,E1 -5734,E2 0,E3 0,E4 0,E5 0,E6 0}
DECL E6POS XE_S09_1265={X 4303.51,Y 7315.03,Z 379.91,A -59.987,B -2.5,C 0.316,S 2,T 43,E1 -5714,E2 0,E3 0,E4 0,E5 0,E6 0}
DECL E6POS XE_S09_1270={X 4189.23,Y 7248.98,Z 379.18,A -59.987,B -2.5,C 0.316,S 2,T 43,E1 -5582,E2 0,E3 0,E4 0,E5 0,E6 0}
DECL E6POS XE_S09_1275={X 4171.9,Y 7238.97,Z 379.3,A -59.987,B -2.5,C 0.376,S 2,T 43,E1 -5562,E2 0,E3 0,E4 0,E5 0,E6 0}
DECL E6POS XE_S09_1280={X 4088.79,Y 7190.93,Z 378.67,A -59.987,B -2.5,C 0.376,S 2,T 43,E1 -5466,E2 0,E3 0,E4 0,E5 0,E6 0}
DECL E6POS XE_S09_1285={X 3872.35,Y 7065.82,Z 377.03,A -59.987,B -2.5,C 0.376,S 2,T 43,E1 -5215,E2 0,E3 0,E4 0,E5 0,E6 0}
DECL E6POS XE_S09_1290={X 3818.33,Y 7034.6,Z 376.62,A -59.987,B -2.5,C 0.376,S 2,T 43,E1 -5152,E2 0,E3 0,E4 0,E5 0,E6 0}
DECL E6POS XE_S09_1295={X 3792.36,Y 7019.58,Z 376.43,A -59.987,B -2.5,C 0.376,S 2,T 43,E1 -5122,E2 0,E3 0,E4 0,E5 0,E6 0}
DECL E6POS XE_S09_1300={X 3783.7,Y 7014.58,Z 376.36,A -59.987,B -2.5,C -4.624,S 2,T 43,E1 -5112,E2 0,E3 0,E4 0,E5 0,E6 0}
DECL E6POS XE_S09_1305={X 3723.11,Y 6979.91,Z 382.76,A -59.987,B -2.5,C -4.566,S 2,T 43,E1 -5042,E2 0,E3 0,E4 0,E5 0,E6 0}
DECL E6POS XE_S09_1310={X 3712.72,Y 6973.91,Z 382.74,A -59.987,B -2.5,C 0.434,S 2,T 43,E1 -5030,E2 0,E3 0,E4 0,E5 0,E6 0}
DECL E6POS XE_S09_1315={X 3656.02,Y 6941.12,Z 382.25,A -59.987,B -2.5,C 0.434,S 2,T 43,E1 -4964,E2 0,E3 0,E4 0,E5 0,E6 0}
DECL E6POS XE_S09_1320={X 3552.13,Y 6881.06,Z 381.34,A -59.987,B -2.5,C 0.434,S 2,T 43,E1 -4843,E2 0,E3 0,E4 0,E5 0,E6 0}
DECL E6POS XE_S09_1325={X 3534.83,Y 6871.04,Z 380.89,A -59.987,B -2.5,C 0.434,S 2,T 43,E1 -4823,E2 0,E3 0,E4 0,E5 0,E6 0}
DECL E6POS XE_S09_1330={X 3465.57,Y 6831,Z 380.23,A -59.987,B -2.5,C 0.471,S 2,T 43,E1 -4743,E2 0,E3 0,E4 0,E5 0,E6 0}
DECL E6POS XE_S09_1335={X 3420.55,Y 6804.98,Z 379.8,A -59.987,B -2.5,C 0.471,S 2,T 43,E1 -4691,E2 0,E3 0,E4 0,E5 0,E6 0}
DECL E6POS XE_S09_1340={X 3403.23,Y 6794.98,Z 379.83,A -59.987,B -2.5,C 0.471,S 2,T 43,E1 -4671,E2 0,E3 0,E4 0,E5 0,E6 0}
DECL E6POS XE_S09_1345={X 3223.17,Y 6690.88,Z 378.07,A -59.987,B -2.5,C 0.503,S 2,T 43,E1 -4462,E2 0,E3 0,E4 0,E5 0,E6 0}
DECL E6POS XE_S09_1350={X 3101.07,Y 6620.28,Z 376.73,A -59.987,B -2.5,C 0.503,S 2,T 43,E1 -4321,E2 0,E3 0,E4 0,E5 0,E6 0}
DECL E6POS XE_S09_1355={X 3075.1,Y 6605.27,Z 376.46,A -59.987,B -2.5,C 0.503,S 2,T 43,E1 -4290,E2 0,E3 0,E4 0,E5 0,E6 0}
DECL E6POS XE_S09_1360={X 3066.44,Y 6600.26,Z 376.38,A -59.987,B -2.5,C 5.503,S 2,T 43,E1 -4280,E2 0,E3 0,E4 0,E5 0,E6 0}
DECL E6POS XE_S09_1365={X 3022.78,Y 6574.62,Z 370.93,A -59.987,B -2.5,C 5.576,S 2,T 43,E1 -4229,E2 0,E3 0,E4 0,E5 0,E6 0}
DECL E6POS XE_S09_1370={X 3013.26,Y 6569.11,Z 370.73,A -59.987,B -2.5,C 0.576,S 2,T 43,E1 -4218,E2 0,E3 0,E4 0,E5 0,E6 0}
DECL E6POS XE_S09_1375={X 2790.95,Y 6440.57,Z 368.24,A -59.987,B -2.5,C 0.576,S 2,T 43,E1 -3961,E2 0,E3 0,E4 0,E5 0,E6 0}
DECL E6POS XE_S09_1380={X 2711.32,Y 6394.51,Z 367.02,A -59.987,B -2.5,C 0.576,S 2,T 43,E1 -3868,E2 0,E3 0,E4 0,E5 0,E6 0}
DECL E6POS XE_S09_1385={X 2597.06,Y 6328.43,Z 365.59,A -59.987,B -2.5,C 0.576,S 2,T 43,E1 -3736,E2 0,E3 0,E4 0,E5 0,E6 0}
DECL E6POS XE_S09_1390={X 2574.55,Y 6315.43,Z 365.63,A -59.987,B -2.5,C 0.647,S 2,T 43,E1 -3710,E2 0,E3 0,E4 0,E5 0,E6 0}
DECL E6POS XE_S09_1395={X 2358.15,Y 6190.29,Z 362.8,A -59.987,B -2.5,C 0.647,S 2,T 43,E1 -3459,E2 0,E3 0,E4 0,E5 0,E6 0}
DECL E6POS XE_S09_1400={X 2250.82,Y 6128.21,Z 361.33,A -59.987,B -2.5,C 0.681,S 2,T 43,E1 -3334,E2 0,E3 0,E4 0,E5 0,E6 0}
DECL E6POS XE_S09_1405={X 2216.2,Y 6108.18,Z 360.85,A -59.987,B -2.5,C 0.681,S 2,T 43,E1 -3294,E2 0,E3 0,E4 0,E5 0,E6 0}
DECL E6POS XE_S09_1410={X 2195.44,Y 6096.16,Z 360.17,A -59.987,B -2.5,C 0.681,S 2,T 43,E1 -3270,E2 0,E3 0,E4 0,E5 0,E6 0}
DECL E6POS XE_S09_1415={X 2159.95,Y 6075.63,Z 359.68,A -59.987,B -2.5,C 0.681,S 2,T 43,E1 -3229,E2 0,E3 0,E4 0,E5 0,E6 0}
DECL E6POS XE_S09_1420={X 2151.29,Y 6070.62,Z 359.56,A -59.987,B -2.5,C 0.681,S 2,T 43,E1 -3219,E2 0,E3 0,E4 0,E5 0,E6 0}
DECL E6POS XE_S09_1425={X 2103.76,Y 6043.02,Z 356.71,A -59.987,B -2.5,C 0.681,S 2,T 43,E1 -3164,E2 0,E3 0,E4 0,E5 0,E6 0}
DECL E6POS XE_S09_1430={X 2095.11,Y 6038,Z 356.19,A -59.987,B -2.5,C 0.681,S 2,T 43,E1 -3154,E2 0,E3 0,E4 0,E5 0,E6 0}
DECL E6POS XE_S09_1435={X 2065.79,Y 6020.87,Z 352.29,A -59.987,B -2.5,C 0.681,S 2,T 43,E1 -3119,E2 0,E3 0,E4 0,E5 0,E6 0}
DECL E6POS XE_S09_1440={X 2057.14,Y 6015.86,Z 352.17,A -59.987,B -2.5,C 0.681,S 2,T 43,E1 -3109,E2 0,E3 0,E4 0,E5 0,E6 0}
DECL E6POS XE_S09_1445={X 2030.31,Y 6000.35,Z 351.8,A -59.987,B -2.5,C 0.681,S 2,T 43,E1 -3078,E2 0,E3 0,E4 0,E5 0,E6 0}
DECL E6POS XE_S09_1450={X 2021.65,Y 5995.34,Z 351.69,A -59.987,B -2.5,C 0.681,S 2,T 43,E1 -3068,E2 0,E3 0,E4 0,E5 0,E6 0}
DECL E6POS XE_S09_1455={X 1913.61,Y 5932.6,Z 345.21,A -59.987,B -2.5,C 0.681,S 2,T 43,E1 -2943,E2 0,E3 0,E4 0,E5 0,E6 0}
DECL E6POS XE_S09_1460={X 1904.96,Y 5927.6,Z 345.09,A -59.987,B -2.5,C 0.681,S 2,T 43,E1 -2933,E2 0,E3 0,E4 0,E5 0,E6 0}
DECL E6POS XE_S09_1465={X 1864.93,Y 5904.86,Z 344.46,A -59.987,B -2.5,C 0.724,S 2,T 43,E1 -2886,E2 0,E3 0,E4 0,E5 0,E6 0}
DECL E6POS XE_S09_1470={X 1709.13,Y 5814.74,Z 342.08,A -59.987,B -2.5,C 0.724,S 2,T 43,E1 -2706,E2 0,E3 0,E4 0,E5 0,E6 0}
DECL E6POS XE_S09_1475={X 1492.74,Y 5689.58,Z 338.88,A -59.987,B -2.5,C 0.776,S 2,T 43,E1 -2455,E2 0,E3 0,E4 0,E5 0,E6 0}
DECL E6POS XE_S09_1480={X 1276.35,Y 5564.41,Z 335.49,A -59.987,B -2.5,C 0.776,S 2,T 43,E1 -2204,E2 0,E3 0,E4 0,E5 0,E6 0}
DECL E6POS XE_S09_1485={X 1237.4,Y 5541.88,Z 334.88,A -59.987,B -2.5,C 0.776,S 2,T 43,E1 -2159,E2 0,E3 0,E4 0,E5 0,E6 0}
DECL E6POS XE_S09_1490={X 1228.75,Y 5536.87,Z 334.75,A -59.987,B -2.5,C 0.776,S 2,T 43,E1 -2149,E2 0,E3 0,E4 0,E5 0,E6 0}
DECL E6POS XE_S09_1495={X 1182.91,Y 5510.3,Z 332.83,A -59.987,B -2.5,C 0.776,S 2,T 43,E1 -2096,E2 0,E3 0,E4 0,E5 0,E6 0}
DECL E6POS XE_S09_1500={X 1174.27,Y 5505.28,Z 332.4,A -59.987,B -2.5,C 0.776,S 2,T 43,E1 -2086,E2 0,E3 0,E4 0,E5 0,E6 0}
DECL E6POS XE_S09_1505={X 1165.59,Y 5500.29,Z 332.86,A -59.987,B -2.5,C 0.776,S 2,T 43,E1 -2076,E2 0,E3 0,E4 0,E5 0,E6 0}
DECL E6POS XE_S09_1510={X 1067.88,Y 5443.74,Z 335.69,A -59.987,B -2.5,C 0.842,S 2,T 43,E1 -1962,E2 0,E3 0,E4 0,E5 0,E6 0}
DECL E6POS XE_S09_1515={X 1059.22,Y 5438.73,Z 335.55,A -59.987,B -2.5,C 0.842,S 2,T 43,E1 -1952,E2 0,E3 0,E4 0,E5 0,E6 0}
DECL E6POS XE_S09_1520={X 843.71,Y 5314.06,Z 331.89,A -59.987,B -2.5,C 0.843,S 2,T 43,E1 -1702,E2 0,E3 0,E4 0,E5 0,E6 0}
DECL E6POS XE_S09_1525={X 627.34,Y 5188.88,Z 328.19,A -59.987,B -2.5,C 0.91,S 2,T 43,E1 -1452,E2 0,E3 0,E4 0,E5 0,E6 0}
DECL E6POS XE_S09_1530={X 410.97,Y 5063.71,Z 324.23,A -59.987,B -2.5,C 0.91,S 2,T 43,E1 -1201,E2 0,E3 0,E4 0,E5 0,E6 0}
DECL E6POS XE_S09_1535={X 370.3,Y 5040.17,Z 323.18,A -59.987,B -2.5,C 0.91,S 2,T 43,E1 -1154,E2 0,E3 0,E4 0,E5 0,E6 0}
DECL E6POS XE_S09_1540={X 237.88,Y 4963.56,Z 320.87,A -59.987,B -2.5,C 0.91,S 2,T 43,E1 -1000,E2 0,E3 0,E4 0,E5 0,E6 0}
DECL E6POS XE_S09_1545={X 192.23,Y 4937.25,Z 320.4,A -59.987,B -2.5,C -11.289,S 2,T 43,E1 -1000,E2 0,E3 0,E4 0,E5 0,E6 0}
DECL E6POS XP15_S09={X 172.19,Y 4924.89,Z 304.72,A -59.987,B -2.5,C -11.289,S 2,T 43,E1 -1000,E2 0,E3 0,E4 0,E5 0,E6 0}
DECL E6POS XP20_S09={X 2013.87,Y 3325.9,Z 1445.91,A 178.269,B 89.2,C 167.659,S 2,T 43,E1 -1000,E2 0,E3 0,E4 0,E5 0,E6 0}
DECL E6POS XP5_S08={X 2021.04,Y 33275.55,Z 1217.28,A 178.132,B 89.196,C -165.938,S 2,T 43,E1 -31000,E2 0,E3 0,E4 0,E5 0,E6 0}
DECL E6POS XP10_S08={X 26141.03,Y 19630.09,Z -32.72,A -59.985,B -2.496,C 15.251,S 2,T 43,E1 -31000,E2 0,E3 0,E4 0,E5 0,E6 0}
DECL E6POS XE_S08_5={X 26119.47,Y 19618.34,Z -18.7,A -59.985,B -2.496,C 15.251,S 2,T 43,E1 -31000,E2 0,E3 0,E4 0,E5 0,E6 0}
DECL E6POS XE_S08_10={X 26117.06,Y 19616.93,Z -19,A -59.987,B -2.5,C -1.664,S 2,T 43,E1 -31000,E2 0,E3 0,E4 0,E5 0,E6 0}
DECL E6POS XE_S08_15={X 25957.48,Y 19525.13,Z -11.44,A -59.987,B -2.5,C -1.664,S 2,T 43,E1 -30815,E2 0,E3 0,E4 0,E5 0,E6 0}
DECL E6POS XE_S08_20={X 25740.93,Y 19400.41,Z -4.19,A -59.987,B -2.5,C -1.664,S 2,T 43,E1 -30565,E2 0,E3 0,E4 0,E5 0,E6 0}
DECL E6POS XE_S08_25={X 25478.11,Y 19249.03,Z 4.59,A -59.987,B -2.5,C -1.631,S 2,T 43,E1 -30261,E2 0,E3 0,E4 0,E5 0,E6 0}
DECL E6POS XE_S08_30={X 25391.53,Y 19199.23,Z 7.42,A -59.987,B -2.5,C -1.631,S 2,T 43,E1 -30161,E2 0,E3 0,E4 0,E5 0,E6 0}
DECL E6POS XE_S08_35={X 25307.84,Y 19150.96,Z 10.17,A -59.987,B -2.5,C -1.631,S 2,T 43,E1 -30064,E2 0,E3 0,E4 0,E5 0,E6 0}
DECL E6POS XE_S08_40={X 25091.29,Y 19026.23,Z 17.28,A -59.987,B -2.5,C -1.631,S 2,T 43,E1 -29813,E2 0,E3 0,E4 0,E5 0,E6 0}
DECL E6POS XE_S08_45={X 24874.75,Y 18901.5,Z 24.39,A -59.987,B -2.5,C -1.631,S 2,T 43,E1 -29563,E2 0,E3 0,E4 0,E5 0,E6 0}
DECL E6POS XE_S08_50={X 24678.55,Y 18788.49,Z 30.79,A -59.987,B -2.5,C -2.193,S 2,T 43,E1 -29336,E2 0,E3 0,E4 0,E5 0,E6 0}
DECL E6POS XE_S08_55={X 24632.91,Y 18762.14,Z 30.97,A -59.987,B -2.5,C -0.193,S 2,T 43,E1 -29283,E2 0,E3 0,E4 0,E5 0,E6 0}
DECL E6POS XE_S08_60={X 24465.91,Y 18665.95,Z 36.41,A -59.987,B -2.5,C -1.598,S 2,T 43,E1 -29090,E2 0,E3 0,E4 0,E5 0,E6 0}
DECL E6POS XE_S08_65={X 24439.93,Y 18650.98,Z 37.25,A -59.987,B -2.5,C -1.598,S 2,T 43,E1 -29060,E2 0,E3 0,E4 0,E5 0,E6 0}
DECL E6POS XE_S08_70={X 24431.27,Y 18645.99,Z 37.52,A -59.987,B -2.5,C -1.598,S 2,T 43,E1 -29049,E2 0,E3 0,E4 0,E5 0,E6 0}
DECL E6POS XE_S08_75={X 24414.11,Y 18636.01,Z 36.07,A -59.987,B -2.5,C -1.582,S 2,T 43,E1 -29030,E2 0,E3 0,E4 0,E5 0,E6 0}
DECL E6POS XE_S08_80={X 24405.45,Y 18631.02,Z 36.35,A -59.987,B -2.5,C -1.582,S 2,T 43,E1 -29020,E2 0,E3 0,E4 0,E5 0,E6 0}
DECL E6POS XE_S08_85={X 24225.2,Y 18527.18,Z 42.09,A -59.987,B -2.5,C -1.582,S 2,T 43,E1 -28811,E2 0,E3 0,E4 0,E5 0,E6 0}
DECL E6POS XE_S08_90={X 24008.65,Y 18402.44,Z 48.98,A -59.987,B -2.5,C -1.582,S 2,T 43,E1 -28560,E2 0,E3 0,E4 0,E5 0,E6 0}
DECL E6POS XE_S08_95={X 23887.38,Y 18332.58,Z 52.84,A -59.987,B -2.5,C -1.582,S 2,T 43,E1 -28420,E2 0,E3 0,E4 0,E5 0,E6 0}
DECL E6POS XE_S08_100={X 23792.1,Y 18277.71,Z 56,A -59.987,B -2.5,C -1.559,S 2,T 43,E1 -28310,E2 0,E3 0,E4 0,E5 0,E6 0}
DECL E6POS XE_S08_105={X 23575.55,Y 18152.96,Z 62.79,A -59.987,B -2.5,C -1.559,S 2,T 43,E1 -28059,E2 0,E3 0,E4 0,E5 0,E6 0}
DECL E6POS XE_S08_110={X 23513.01,Y 18116.93,Z 64.75,A -59.987,B -2.5,C -1.559,S 2,T 43,E1 -27987,E2 0,E3 0,E4 0,E5 0,E6 0}
DECL E6POS XE_S08_115={X 23487.03,Y 18101.96,Z 65.56,A -59.987,B -2.5,C -1.559,S 2,T 43,E1 -27957,E2 0,E3 0,E4 0,E5 0,E6 0}
DECL E6POS XE_S08_120={X 23478.36,Y 18096.97,Z 65.84,A -59.987,B -2.5,C -1.559,S 2,T 43,E1 -27947,E2 0,E3 0,E4 0,E5 0,E6 0}
DECL E6POS XE_S08_125={X 23461.28,Y 18086.88,Z 64.28,A -59.987,B -2.5,C -1.539,S 2,T 43,E1 -27927,E2 0,E3 0,E4 0,E5 0,E6 0}
DECL E6POS XE_S08_130={X 23450.89,Y 18080.89,Z 64.6,A -59.987,B -2.5,C -1.539,S 2,T 43,E1 -27915,E2 0,E3 0,E4 0,E5 0,E6 0}
DECL E6POS XE_S08_135={X 23359.25,Y 18028.1,Z 67.54,A -59.987,B -2.5,C -1.539,S 2,T 43,E1 -27809,E2 0,E3 0,E4 0,E5 0,E6 0}
DECL E6POS XE_S08_140={X 23315.94,Y 18003.15,Z 68.88,A -59.987,B -2.5,C -1.539,S 2,T 43,E1 -27759,E2 0,E3 0,E4 0,E5 0,E6 0}
DECL E6POS XE_S08_145={X 23255.31,Y 17968.3,Z 72.46,A -59.987,B -2.5,C -1.539,S 2,T 43,E1 -27689,E2 0,E3 0,E4 0,E5 0,E6 0}
DECL E6POS XE_S08_150={X 23142.73,Y 17903.45,Z 75.97,A -59.987,B -2.5,C -1.519,S 2,T 43,E1 -27558,E2 0,E3 0,E4 0,E5 0,E6 0}
DECL E6POS XE_S08_155={X 22926.17,Y 17778.69,Z 82.59,A -59.987,B -2.5,C -1.519,S 2,T 43,E1 -27308,E2 0,E3 0,E4 0,E5 0,E6 0}
DECL E6POS XE_S08_160={X 22709.63,Y 17653.94,Z 89.22,A -59.987,B -2.5,C -1.519,S 2,T 43,E1 -27057,E2 0,E3 0,E4 0,E5 0,E6 0}
DECL E6POS XE_S08_165={X 22610.02,Y 17596.55,Z 92.27,A -59.987,B -2.5,C -1.519,S 2,T 43,E1 -26942,E2 0,E3 0,E4 0,E5 0,E6 0}
DECL E6POS XE_S08_170={X 22584.03,Y 17581.58,Z 93.06,A -59.987,B -2.5,C -1.519,S 2,T 43,E1 -26912,E2 0,E3 0,E4 0,E5 0,E6 0}
DECL E6POS XE_S08_175={X 22575.37,Y 17576.59,Z 93.32,A -59.987,B -2.5,C -1.519,S 2,T 43,E1 -26902,E2 0,E3 0,E4 0,E5 0,E6 0}
DECL E6POS XE_S08_180={X 22566.71,Y 17571.55,Z 92.59,A -59.987,B -2.5,C -1.519,S 2,T 43,E1 -26892,E2 0,E3 0,E4 0,E5 0,E6 0}
DECL E6POS XE_S08_185={X 22558.05,Y 17566.56,Z 92.86,A -59.987,B -2.5,C -1.519,S 2,T 43,E1 -26882,E2 0,E3 0,E4 0,E5 0,E6 0}
DECL E6POS XE_S08_190={X 22493.08,Y 17529.17,Z 94.71,A -59.987,B -2.5,C -1.482,S 2,T 43,E1 -26807,E2 0,E3 0,E4 0,E5 0,E6 0}
DECL E6POS XE_S08_195={X 22276.53,Y 17404.41,Z 101.17,A -59.987,B -2.499,C -1.482,S 2,T 43,E1 -26556,E2 0,E3 0,E4 0,E5 0,E6 0}
DECL E6POS XE_S08_200={X 22059.98,Y 17279.64,Z 107.63,A -59.987,B -2.499,C -1.482,S 2,T 43,E1 -26306,E2 0,E3 0,E4 0,E5 0,E6 0}
DECL E6POS XE_S08_205={X 22005.41,Y 17248.2,Z 109.26,A -59.987,B -2.499,C -1.482,S 2,T 43,E1 -26242,E2 0,E3 0,E4 0,E5 0,E6 0}
DECL E6POS XE_S08_210={X 21986.2,Y 17237.09,Z 108.81,A -59.987,B -2.5,C -1.455,S 2,T 43,E1 -26220,E2 0,E3 0,E4 0,E5 0,E6 0}
DECL E6POS XE_S08_215={X 21843.45,Y 17154.84,Z 112.99,A -59.987,B -2.5,C -1.455,S 2,T 43,E1 -26055,E2 0,E3 0,E4 0,E5 0,E6 0}
DECL E6POS XE_S08_220={X 21672.79,Y 17056.61,Z 117.98,A -59.987,B -2.5,C -1.455,S 2,T 43,E1 -25858,E2 0,E3 0,E4 0,E5 0,E6 0}
DECL E6POS XE_S08_225={X 21646.8,Y 17041.64,Z 118.74,A -59.987,B -2.5,C -1.455,S 2,T 43,E1 -25828,E2 0,E3 0,E4 0,E5 0,E6 0}
DECL E6POS XE_S08_230={X 21638.14,Y 17036.65,Z 119,A -59.987,B -2.5,C -1.455,S 2,T 43,E1 -25818,E2 0,E3 0,E4 0,E5 0,E6 0}
DECL E6POS XE_S08_235={X 21620.82,Y 17026.57,Z 117.51,A -59.987,B -2.5,C -1.455,S 2,T 43,E1 -25797,E2 0,E3 0,E4 0,E5 0,E6 0}
DECL E6POS XE_S08_240={X 21612.16,Y 17021.58,Z 117.76,A -59.987,B -2.5,C -1.455,S 2,T 43,E1 -25787,E2 0,E3 0,E4 0,E5 0,E6 0}
DECL E6POS XE_S08_245={X 21560.66,Y 16991.86,Z 119.24,A -59.987,B -2.5,C -1.425,S 2,T 43,E1 -25728,E2 0,E3 0,E4 0,E5 0,E6 0}
DECL E6POS XE_S08_250={X 21410.38,Y 16905.27,Z 123.55,A -59.987,B -2.5,C -1.425,S 2,T 43,E1 -25554,E2 0,E3 0,E4 0,E5 0,E6 0}
DECL E6POS XE_S08_255={X 21193.84,Y 16780.5,Z 129.77,A -59.987,B -2.5,C -1.426,S 2,T 43,E1 -25303,E2 0,E3 0,E4 0,E5 0,E6 0}
DECL E6POS XE_S08_260={X 20977.3,Y 16655.73,Z 135.98,A -59.987,B -2.5,C -1.426,S 2,T 43,E1 -25053,E2 0,E3 0,E4 0,E5 0,E6 0}
DECL E6POS XE_S08_265={X 20853.24,Y 16584.2,Z 139.54,A -59.987,B -2.5,C -1.426,S 2,T 43,E1 -24909,E2 0,E3 0,E4 0,E5 0,E6 0}
DECL E6POS XE_S08_270={X 20769.4,Y 16535.94,Z 141.91,A -59.987,B -2.5,C -1.404,S 2,T 43,E1 -24812,E2 0,E3 0,E4 0,E5 0,E6 0}
DECL E6POS XE_S08_275={X 20745.15,Y 16521.96,Z 142.59,A -59.987,B -2.5,C -1.404,S 2,T 43,E1 -24784,E2 0,E3 0,E4 0,E5 0,E6 0}
DECL E6POS XE_S08_280={X 20736.49,Y 16516.97,Z 142.84,A -59.987,B -2.5,C -1.404,S 2,T 43,E1 -24774,E2 0,E3 0,E4 0,E5 0,E6 0}
DECL E6POS XE_S08_285={X 20701.84,Y 16497.2,Z 147.71,A -59.987,B -2.5,C -1.404,S 2,T 43,E1 -24734,E2 0,E3 0,E4 0,E5 0,E6 0}
DECL E6POS XE_S08_290={X 20693.18,Y 16492.21,Z 147.95,A -59.987,B -2.5,C -1.404,S 2,T 43,E1 -24724,E2 0,E3 0,E4 0,E5 0,E6 0}
DECL E6POS XE_S08_295={X 20544.27,Y 16406.25,Z 152.2,A -59.987,B -2.5,C -1.385,S 2,T 43,E1 -24552,E2 0,E3 0,E4 0,E5 0,E6 0}
DECL E6POS XE_S08_300={X 20327.72,Y 16281.46,Z 158.23,A -59.987,B -2.5,C -1.385,S 2,T 43,E1 -24301,E2 0,E3 0,E4 0,E5 0,E6 0}
DECL E6POS XE_S08_305={X 20111.17,Y 16156.68,Z 164.27,A -59.987,B -2.5,C -1.385,S 2,T 43,E1 -24050,E2 0,E3 0,E4 0,E5 0,E6 0}
DECL E6POS XE_S08_310={X 19955.26,Y 16066.81,Z 168.12,A -59.987,B -2.5,C -1.385,S 2,T 43,E1 -23870,E2 0,E3 0,E4 0,E5 0,E6 0}
DECL E6POS XE_S08_315={X 19894.64,Y 16031.87,Z 169.58,A -59.987,B -2.5,C -1.368,S 2,T 43,E1 -23800,E2 0,E3 0,E4 0,E5 0,E6 0}
DECL E6POS XE_S08_320={X 19842.58,Y 16001.89,Z 171.21,A -59.987,B -2.5,C -1.368,S 2,T 43,E1 -23740,E2 0,E3 0,E4 0,E5 0,E6 0}
DECL E6POS XE_S08_325={X 19833.92,Y 15996.89,Z 171.45,A -59.987,B -2.5,C -6.368,S 2,T 43,E1 -23730,E2 0,E3 0,E4 0,E5 0,E6 0}
DECL E6POS XE_S08_330={X 19798.75,Y 15977.03,Z 176.43,A -59.987,B -2.5,C -6.357,S 2,T 43,E1 -23689,E2 0,E3 0,E4 0,E5 0,E6 0}
DECL E6POS XE_S08_335={X 19790.04,Y 15972,Z 176.57,A -59.987,B -2.5,C -1.357,S 2,T 43,E1 -23679,E2 0,E3 0,E4 0,E5 0,E6 0}
DECL E6POS XE_S08_340={X 19678.39,Y 15907.66,Z 179.7,A -59.987,B -2.5,C -1.357,S 2,T 43,E1 -23550,E2 0,E3 0,E4 0,E5 0,E6 0}
DECL E6POS XE_S08_345={X 19493.9,Y 15801.34,Z 184.73,A -59.987,B -2.5,C 1.521,S 2,T 43,E1 -23336,E2 0,E3 0,E4 0,E5 0,E6 0}
DECL E6POS XE_S08_350={X 19456.7,Y 15779.79,Z 183.59,A -59.987,B -2.5,C 1.521,S 2,T 43,E1 -23293,E2 0,E3 0,E4 0,E5 0,E6 0}
DECL E6POS XE_S08_355={X 19343.22,Y 15714.38,Z 186.28,A -59.987,B -2.5,C -0.479,S 2,T 43,E1 -23162,E2 0,E3 0,E4 0,E5 0,E6 0}
DECL E6POS XE_S08_360={X 19262.67,Y 15667.96,Z 188.47,A -59.987,B -2.5,C -1.346,S 2,T 43,E1 -23069,E2 0,E3 0,E4 0,E5 0,E6 0}
DECL E6POS XE_S08_365={X 19230.62,Y 15649.49,Z 189.34,A -59.987,B -2.5,C -1.346,S 2,T 43,E1 -23031,E2 0,E3 0,E4 0,E5 0,E6 0}
DECL E6POS XE_S08_370={X 19221.96,Y 15644.5,Z 189.57,A -59.987,B -2.5,C -1.346,S 2,T 43,E1 -23021,E2 0,E3 0,E4 0,E5 0,E6 0}
DECL E6POS XE_S08_375={X 19212.43,Y 15639.06,Z 190.83,A -59.987,B -2.5,C -1.346,S 2,T 43,E1 -23010,E2 0,E3 0,E4 0,E5 0,E6 0}
DECL E6POS XE_S08_380={X 19203.77,Y 15634.07,Z 191.07,A -59.987,B -2.5,C -1.346,S 2,T 43,E1 -23000,E2 0,E3 0,E4 0,E5 0,E6 0}
DECL E6POS XE_S08_385={X 19028.84,Y 15533.26,Z 195.77,A -59.987,B -2.5,C -1.335,S 2,T 43,E1 -22798,E2 0,E3 0,E4 0,E5 0,E6 0}
DECL E6POS XE_S08_390={X 18812.29,Y 15408.46,Z 201.59,A -59.987,B -2.5,C -1.334,S 2,T 43,E1 -22547,E2 0,E3 0,E4 0,E5 0,E6 0}
DECL E6POS XE_S08_395={X 18723.94,Y 15357.52,Z 203.46,A -59.987,B -2.5,C -1.334,S 2,T 43,E1 -22445,E2 0,E3 0,E4 0,E5 0,E6 0}
DECL E6POS XE_S08_400={X 18595.76,Y 15283.64,Z 206.87,A -59.987,B -2.5,C -1.324,S 2,T 43,E1 -22297,E2 0,E3 0,E4 0,E5 0,E6 0}
DECL E6POS XE_S08_405={X 18558.51,Y 15262.17,Z 207.86,A -59.987,B -2.5,C -1.324,S 2,T 43,E1 -22254,E2 0,E3 0,E4 0,E5 0,E6 0}
DECL E6POS XE_S08_410={X 18532.53,Y 15247.2,Z 208.56,A -59.987,B -2.5,C -1.324,S 2,T 43,E1 -22224,E2 0,E3 0,E4 0,E5 0,E6 0}
DECL E6POS XE_S08_415={X 18523.87,Y 15242.21,Z 208.79,A -59.987,B -2.5,C -1.324,S 2,T 43,E1 -22214,E2 0,E3 0,E4 0,E5 0,E6 0}
DECL E6POS XE_S08_420={X 18506.55,Y 15232.12,Z 207.25,A -59.987,B -2.5,C -1.324,S 2,T 43,E1 -22194,E2 0,E3 0,E4 0,E5 0,E6 0}
DECL E6POS XE_S08_425={X 18497.88,Y 15227.13,Z 207.48,A -59.987,B -2.5,C -1.324,S 2,T 43,E1 -22184,E2 0,E3 0,E4 0,E5 0,E6 0}
DECL E6POS XE_S08_430={X 18379.3,Y 15158.81,Z 210.59,A -59.987,B -2.5,C -1.31,S 2,T 43,E1 -22046,E2 0,E3 0,E4 0,E5 0,E6 0}
DECL E6POS XE_S08_435={X 18162.75,Y 15034.01,Z 216.3,A -59.987,B -2.5,C -1.309,S 2,T 43,E1 -21796,E2 0,E3 0,E4 0,E5 0,E6 0}
DECL E6POS XE_S08_440={X 17965.09,Y 14920.08,Z 221.52,A -59.987,B -2.5,C -1.309,S 2,T 43,E1 -21567,E2 0,E3 0,E4 0,E5 0,E6 0}
DECL E6POS XE_S08_445={X 17939.1,Y 14905.1,Z 222.2,A -59.987,B -2.5,C -1.309,S 2,T 43,E1 -21537,E2 0,E3 0,E4 0,E5 0,E6 0}
DECL E6POS XE_S08_450={X 17930.44,Y 14900.11,Z 222.43,A -59.987,B -2.5,C 3.691,S 2,T 43,E1 -21527,E2 0,E3 0,E4 0,E5 0,E6 0}
DECL E6POS XE_S08_455={X 17859.69,Y 14858.93,Z 216.18,A -59.987,B -2.5,C 3.721,S 2,T 43,E1 -21445,E2 0,E3 0,E4 0,E5 0,E6 0}
DECL E6POS XE_S08_460={X 17851.03,Y 14853.94,Z 216.4,A -59.987,B -2.5,C -1.279,S 2,T 43,E1 -21435,E2 0,E3 0,E4 0,E5 0,E6 0}
DECL E6POS XE_S08_465={X 17730.02,Y 14784.2,Z 219.62,A -59.987,B -2.5,C -1.279,S 2,T 43,E1 -21295,E2 0,E3 0,E4 0,E5 0,E6 0}
DECL E6POS XE_S08_470={X 17513.47,Y 14659.4,Z 225.2,A -59.987,B -2.5,C -1.28,S 2,T 43,E1 -21044,E2 0,E3 0,E4 0,E5 0,E6 0}
DECL E6POS XE_S08_475={X 17296.93,Y 14534.59,Z 230.77,A -59.987,B -2.5,C -1.28,S 2,T 43,E1 -20794,E2 0,E3 0,E4 0,E5 0,E6 0}
DECL E6POS XE_S08_480={X 17196.66,Y 14476.77,Z 232.82,A -59.987,B -2.5,C -1.957,S 2,T 43,E1 -20678,E2 0,E3 0,E4 0,E5 0,E6 0}
DECL E6POS XE_S08_485={X 17072.23,Y 14404.95,Z 236.01,A -59.987,B -2.5,C -1.234,S 2,T 43,E1 -20534,E2 0,E3 0,E4 0,E5 0,E6 0}
DECL E6POS XE_S08_490={X 16864,Y 14284.93,Z 241.18,A -59.987,B -2.5,C -1.234,S 2,T 43,E1 -20293,E2 0,E3 0,E4 0,E5 0,E6 0}
DECL E6POS XE_S08_495={X 16647.46,Y 14160.11,Z 246.57,A -59.987,B -2.5,C -1.234,S 2,T 43,E1 -20042,E2 0,E3 0,E4 0,E5 0,E6 0}
DECL E6POS XE_S08_500={X 16430.91,Y 14035.3,Z 251.93,A -59.987,B -2.5,C -1.209,S 2,T 43,E1 -19792,E2 0,E3 0,E4 0,E5 0,E6 0}
DECL E6POS XE_S08_505={X 16381.45,Y 14006.79,Z 253.14,A -59.987,B -2.5,C -1.209,S 2,T 43,E1 -19734,E2 0,E3 0,E4 0,E5 0,E6 0}
DECL E6POS XE_S08_510={X 16372.79,Y 14001.79,Z 253.35,A -59.987,B -2.5,C -1.209,S 2,T 43,E1 -19724,E2 0,E3 0,E4 0,E5 0,E6 0}
DECL E6POS XE_S08_515={X 16329.67,Y 13976.68,Z 249.3,A -59.987,B -2.5,C -1.193,S 2,T 43,E1 -19674,E2 0,E3 0,E4 0,E5 0,E6 0}
DECL E6POS XE_S08_520={X 16321.01,Y 13971.69,Z 249.51,A -59.987,B -2.5,C -1.193,S 2,T 43,E1 -19664,E2 0,E3 0,E4 0,E5 0,E6 0}
DECL E6POS XE_S08_525={X 16214.56,Y 13910.33,Z 252.16,A -59.987,B -2.5,C -1.193,S 2,T 43,E1 -19541,E2 0,E3 0,E4 0,E5 0,E6 0}
DECL E6POS XE_S08_530={X 16119.28,Y 13855.41,Z 254.47,A -59.987,B -2.5,C -1.155,S 2,T 43,E1 -19431,E2 0,E3 0,E4 0,E5 0,E6 0}
DECL E6POS XE_S08_535={X 15998.01,Y 13785.55,Z 258.29,A -59.987,B -2.5,C -1.155,S 2,T 43,E1 -19290,E2 0,E3 0,E4 0,E5 0,E6 0}
DECL E6POS XE_S08_540={X 15781.46,Y 13660.73,Z 263.32,A -59.987,B -2.5,C -1.154,S 2,T 43,E1 -19040,E2 0,E3 0,E4 0,E5 0,E6 0}
DECL E6POS XE_S08_545={X 15628.86,Y 13572.85,Z 266.58,A -59.987,B -2.5,C -1.412,S 2,T 43,E1 -18863,E2 0,E3 0,E4 0,E5 0,E6 0}
DECL E6POS XE_S08_550={X 15602.87,Y 13557.87,Z 267.32,A -59.987,B -2.5,C -1.412,S 2,T 43,E1 -18833,E2 0,E3 0,E4 0,E5 0,E6 0}
DECL E6POS XE_S08_555={X 15594.21,Y 13552.88,Z 267.57,A -59.987,B -2.5,C -1.412,S 2,T 43,E1 -18823,E2 0,E3 0,E4 0,E5 0,E6 0}
DECL E6POS XE_S08_560={X 15541.04,Y 13521.21,Z 262.82,A -59.987,B -2.5,C -1.073,S 2,T 43,E1 -18761,E2 0,E3 0,E4 0,E5 0,E6 0}
DECL E6POS XE_S08_565={X 15532.38,Y 13516.22,Z 263.01,A -59.987,B -2.5,C -1.073,S 2,T 43,E1 -18751,E2 0,E3 0,E4 0,E5 0,E6 0}
DECL E6POS XE_S08_570={X 15428.09,Y 13456.1,Z 265.46,A -59.987,B -2.5,C -1.073,S 2,T 43,E1 -18630,E2 0,E3 0,E4 0,E5 0,E6 0}
DECL E6POS XE_S08_575={X 15403.83,Y 13442.17,Z 267.28,A -59.987,B -2.5,C -1.073,S 2,T 43,E1 -18602,E2 0,E3 0,E4 0,E5 0,E6 0}
DECL E6POS XE_S08_580={X 15348.57,Y 13411.02,Z 268.43,A -59.987,B -2.5,C -1.073,S 2,T 43,E1 -18539,E2 0,E3 0,E4 0,E5 0,E6 0}
DECL E6POS XE_S08_585={X 15132.03,Y 13286.18,Z 273.11,A -59.987,B -2.5,C -1.073,S 2,T 43,E1 -18288,E2 0,E3 0,E4 0,E5 0,E6 0}
DECL E6POS XE_S08_590={X 14915.48,Y 13161.32,Z 277.79,A -59.987,B -2.5,C -1.073,S 2,T 43,E1 -18038,E2 0,E3 0,E4 0,E5 0,E6 0}
DECL E6POS XE_S08_595={X 14883.69,Y 13143,Z 278.47,A -59.987,B -2.5,C -1.073,S 2,T 43,E1 -18001,E2 0,E3 0,E4 0,E5 0,E6 0}
DECL E6POS XE_S08_600={X 14857.7,Y 13128.01,Z 279.03,A -59.987,B -2.5,C -1.073,S 2,T 43,E1 -17971,E2 0,E3 0,E4 0,E5 0,E6 0}
DECL E6POS XE_S08_605={X 14849.04,Y 13123.02,Z 279.22,A -59.987,B -2.5,C -1.073,S 2,T 43,E1 -17961,E2 0,E3 0,E4 0,E5 0,E6 0}
DECL E6POS XE_S08_610={X 14814.6,Y 13102.95,Z 275.85,A -59.987,B -2.5,C -1.018,S 2,T 43,E1 -17921,E2 0,E3 0,E4 0,E5 0,E6 0}
DECL E6POS XE_S08_615={X 14805.94,Y 13097.95,Z 276.03,A -59.987,B -2.5,C -1.018,S 2,T 43,E1 -17911,E2 0,E3 0,E4 0,E5 0,E6 0}
DECL E6POS XE_S08_620={X 14699.14,Y 13036.38,Z 278.32,A -59.987,B -2.5,C -1.018,S 2,T 43,E1 -17787,E2 0,E3 0,E4 0,E5 0,E6 0}
DECL E6POS XE_S08_625={X 14482.6,Y 12911.51,Z 282.59,A -59.987,B -2.5,C -0.97,S 2,T 43,E1 -17536,E2 0,E3 0,E4 0,E5 0,E6 0}
DECL E6POS XE_S08_630={X 14266.06,Y 12786.64,Z 286.82,A -59.987,B -2.5,C -0.97,S 2,T 43,E1 -17286,E2 0,E3 0,E4 0,E5 0,E6 0}
DECL E6POS XE_S08_635={X 14049.53,Y 12661.77,Z 291.04,A -59.987,B -2.5,C -0.97,S 2,T 43,E1 -17035,E2 0,E3 0,E4 0,E5 0,E6 0}
DECL E6POS XE_S08_640={X 13832.99,Y 12536.88,Z 294.99,A -59.987,B -2.5,C -0.902,S 2,T 43,E1 -16785,E2 0,E3 0,E4 0,E5 0,E6 0}
DECL E6POS XE_S08_645={X 13616.45,Y 12412,Z 298.78,A -59.987,B -2.5,C -0.851,S 2,T 43,E1 -16534,E2 0,E3 0,E4 0,E5 0,E6 0}
DECL E6POS XE_S08_650={X 13399.91,Y 12287.1,Z 302.59,A -59.987,B -2.5,C -0.851,S 2,T 43,E1 -16284,E2 0,E3 0,E4 0,E5 0,E6 0}
DECL E6POS XE_S08_655={X 13183.38,Y 12162.2,Z 306.26,A -59.987,B -2.5,C -0.817,S 2,T 43,E1 -16033,E2 0,E3 0,E4 0,E5 0,E6 0}
DECL E6POS XE_S08_660={X 13134.88,Y 12134.22,Z 307.06,A -59.987,B -2.5,C -0.817,S 2,T 43,E1 -15977,E2 0,E3 0,E4 0,E5 0,E6 0}
DECL E6POS XE_S08_665={X 13124.91,Y 12128.52,Z 308.22,A -59.987,B -2.5,C -0.817,S 2,T 43,E1 -15965,E2 0,E3 0,E4 0,E5 0,E6 0}
DECL E6POS XE_S08_670={X 13030.93,Y 12074.31,Z 309.67,A -59.987,B -2.5,C -0.817,S 2,T 43,E1 -15857,E2 0,E3 0,E4 0,E5 0,E6 0}
DECL E6POS XE_S08_675={X 13020.1,Y 12068.09,Z 310.44,A -59.987,B -2.5,C -0.817,S 2,T 43,E1 -15844,E2 0,E3 0,E4 0,E5 0,E6 0}
DECL E6POS XE_S08_680={X 12966.87,Y 12037.4,Z 311.24,A -59.987,B -2.5,C -0.762,S 2,T 43,E1 -15783,E2 0,E3 0,E4 0,E5 0,E6 0}
DECL E6POS XE_S08_685={X 12750.35,Y 11912.49,Z 314.57,A -59.987,B -2.5,C -0.762,S 2,T 43,E1 -15532,E2 0,E3 0,E4 0,E5 0,E6 0}
DECL E6POS XE_S08_690={X 12533.81,Y 11787.58,Z 317.89,A -59.987,B -2.5,C -0.762,S 2,T 43,E1 -15282,E2 0,E3 0,E4 0,E5 0,E6 0}
DECL E6POS XE_S08_695={X 12317.28,Y 11662.67,Z 321.21,A -59.987,B -2.5,C -0.762,S 2,T 43,E1 -15031,E2 0,E3 0,E4 0,E5 0,E6 0}
DECL E6POS XE_S08_700={X 12100.75,Y 11537.75,Z 324.38,A -59.987,B -2.5,C -0.701,S 2,T 43,E1 -14780,E2 0,E3 0,E4 0,E5 0,E6 0}
DECL E6POS XE_S08_705={X 11884.22,Y 11412.82,Z 327.43,A -59.987,B -2.5,C -0.701,S 2,T 43,E1 -14530,E2 0,E3 0,E4 0,E5 0,E6 0}
DECL E6POS XE_S08_710={X 11667.7,Y 11287.9,Z 330.49,A -59.987,B -2.5,C -0.701,S 2,T 43,E1 -14279,E2 0,E3 0,E4 0,E5 0,E6 0}
DECL E6POS XE_S08_715={X 11557.7,Y 11224.44,Z 332.04,A -59.987,B -2.5,C -0.701,S 2,T 43,E1 -14152,E2 0,E3 0,E4 0,E5 0,E6 0}
DECL E6POS XE_S08_720={X 11531.72,Y 11209.45,Z 332.41,A -59.987,B -2.5,C -0.701,S 2,T 43,E1 -14122,E2 0,E3 0,E4 0,E5 0,E6 0}
DECL E6POS XE_S08_725={X 11522.63,Y 11204.2,Z 332.54,A -59.987,B -2.5,C -0.701,S 2,T 43,E1 -14112,E2 0,E3 0,E4 0,E5 0,E6 0}
DECL E6POS XE_S08_730={X 11496.18,Y 11189.08,Z 335.71,A -59.987,B -2.5,C -0.701,S 2,T 43,E1 -14081,E2 0,E3 0,E4 0,E5 0,E6 0}
DECL E6POS XE_S08_735={X 11487.52,Y 11184.09,Z 335.83,A -59.987,B -2.5,C -0.701,S 2,T 43,E1 -14071,E2 0,E3 0,E4 0,E5 0,E6 0}
DECL E6POS XE_S08_740={X 11407.92,Y 11138.07,Z 337.05,A -59.987,B -2.5,C -0.659,S 2,T 43,E1 -13979,E2 0,E3 0,E4 0,E5 0,E6 0}
DECL E6POS XE_S08_745={X 11234.69,Y 11038.12,Z 339.35,A -59.987,B -2.5,C -0.659,S 2,T 43,E1 -13778,E2 0,E3 0,E4 0,E5 0,E6 0}
DECL E6POS XE_S08_750={X 11018.16,Y 10913.19,Z 342.22,A -59.987,B -2.5,C -0.659,S 2,T 43,E1 -13528,E2 0,E3 0,E4 0,E5 0,E6 0}
DECL E6POS XE_S08_755={X 10801.63,Y 10788.25,Z 345.09,A -59.987,B -2.5,C -0.659,S 2,T 43,E1 -13277,E2 0,E3 0,E4 0,E5 0,E6 0}
DECL E6POS XE_S08_760={X 10740.97,Y 10753.25,Z 345.89,A -59.987,B -2.5,C -0.659,S 2,T 43,E1 -13207,E2 0,E3 0,E4 0,E5 0,E6 0}
DECL E6POS XE_S08_765={X 10732.3,Y 10748.25,Z 346.01,A -59.987,B -2.5,C -0.659,S 2,T 43,E1 -13197,E2 0,E3 0,E4 0,E5 0,E6 0}
DECL E6POS XE_S08_770={X 10705.49,Y 10732.93,Z 349.36,A -59.987,B -2.5,C -0.659,S 2,T 43,E1 -13166,E2 0,E3 0,E4 0,E5 0,E6 0}
DECL E6POS XE_S08_775={X 10696.83,Y 10727.93,Z 349.48,A -59.987,B -2.5,C -0.659,S 2,T 43,E1 -13156,E2 0,E3 0,E4 0,E5 0,E6 0}
DECL E6POS XE_S08_780={X 10613.04,Y 10679.58,Z 350.39,A -59.987,B -2.5,C -0.659,S 2,T 43,E1 -13059,E2 0,E3 0,E4 0,E5 0,E6 0}
DECL E6POS XE_S08_785={X 10585.16,Y 10663.43,Z 351.63,A -59.987,B -2.5,C -0.613,S 2,T 43,E1 -13026,E2 0,E3 0,E4 0,E5 0,E6 0}
DECL E6POS XE_S08_790={X 10368.64,Y 10538.5,Z 354.3,A -59.987,B -2.5,C -0.613,S 2,T 43,E1 -12776,E2 0,E3 0,E4 0,E5 0,E6 0}
DECL E6POS XE_S08_795={X 10152.11,Y 10413.56,Z 356.97,A -59.987,B -2.5,C -0.613,S 2,T 43,E1 -12525,E2 0,E3 0,E4 0,E5 0,E6 0}
DECL E6POS XE_S08_800={X 9959.32,Y 10302.32,Z 359.21,A -59.987,B -2.5,C -0.586,S 2,T 43,E1 -12302,E2 0,E3 0,E4 0,E5 0,E6 0}
DECL E6POS XE_S08_805={X 9933.34,Y 10287.32,Z 359.52,A -59.987,B -2.5,C -0.586,S 2,T 43,E1 -12272,E2 0,E3 0,E4 0,E5 0,E6 0}
DECL E6POS XE_S08_810={X 9924.68,Y 10282.32,Z 359.62,A -59.987,B -2.5,C -0.586,S 2,T 43,E1 -12262,E2 0,E3 0,E4 0,E5 0,E6 0}
DECL E6POS XE_S08_815={X 9905.77,Y 10271.51,Z 361.94,A -59.987,B -2.5,C -0.549,S 2,T 43,E1 -12240,E2 0,E3 0,E4 0,E5 0,E6 0}
DECL E6POS XE_S08_820={X 9897.11,Y 10266.52,Z 362.04,A -59.987,B -2.5,C -0.549,S 2,T 43,E1 -12230,E2 0,E3 0,E4 0,E5 0,E6 0}
DECL E6POS XE_S08_825={X 9719.13,Y 10163.8,Z 364,A -59.987,B -2.5,C -0.549,S 2,T 43,E1 -12024,E2 0,E3 0,E4 0,E5 0,E6 0}
DECL E6POS XE_S08_830={X 9502.61,Y 10038.85,Z 366.4,A -59.987,B -2.5,C -0.549,S 2,T 43,E1 -11774,E2 0,E3 0,E4 0,E5 0,E6 0}
DECL E6POS XE_S08_835={X 9286.09,Y 9913.9,Z 368.79,A -59.987,B -2.5,C -0.549,S 2,T 43,E1 -11523,E2 0,E3 0,E4 0,E5 0,E6 0}
DECL E6POS XE_S08_840={X 9187.96,Y 9857.27,Z 369.87,A -59.987,B -2.5,C -0.549,S 2,T 43,E1 -11410,E2 0,E3 0,E4 0,E5 0,E6 0}
DECL E6POS XE_S08_845={X 9069.61,Y 9788.96,Z 371.08,A -59.987,B -2.5,C -0.509,S 2,T 43,E1 -11273,E2 0,E3 0,E4 0,E5 0,E6 0}
DECL E6POS XE_S08_850={X 9047.97,Y 9776.52,Z 372.31,A -59.987,B -2.5,C -0.477,S 2,T 43,E1 -11248,E2 0,E3 0,E4 0,E5 0,E6 0}
DECL E6POS XE_S08_855={X 9004.67,Y 9751.53,Z 372.73,A -59.987,B -2.5,C -0.477,S 2,T 43,E1 -11198,E2 0,E3 0,E4 0,E5 0,E6 0}
DECL E6POS XE_S08_860={X 8853.11,Y 9664.05,Z 374.18,A -59.987,B -2.5,C -0.477,S 2,T 43,E1 -11022,E2 0,E3 0,E4 0,E5 0,E6 0}
DECL E6POS XE_S08_865={X 8636.58,Y 9539.08,Z 376.26,A -59.987,B -2.5,C -0.477,S 2,T 43,E1 -10772,E2 0,E3 0,E4 0,E5 0,E6 0}
DECL E6POS XE_S08_870={X 8512.14,Y 9467.22,Z 376.86,A -59.987,B -2.5,C -0.477,S 2,T 43,E1 -10628,E2 0,E3 0,E4 0,E5 0,E6 0}
DECL E6POS XE_S08_875={X 8469.7,Y 9442.73,Z 377.27,A -59.987,B -2.5,C -0.477,S 2,T 43,E1 -10578,E2 0,E3 0,E4 0,E5 0,E6 0}
DECL E6POS XE_S08_880={X 8461.04,Y 9437.73,Z 377.35,A -59.987,B -2.5,C -0.477,S 2,T 43,E1 -10568,E2 0,E3 0,E4 0,E5 0,E6 0}
DECL E6POS XE_S08_885={X 8451.53,Y 9432.19,Z 376.44,A -59.987,B -2.5,C -0.477,S 2,T 43,E1 -10557,E2 0,E3 0,E4 0,E5 0,E6 0}
DECL E6POS XE_S08_890={X 8442.87,Y 9427.19,Z 376.53,A -59.987,B -2.5,C -0.477,S 2,T 43,E1 -10547,E2 0,E3 0,E4 0,E5 0,E6 0}
DECL E6POS XE_S08_895={X 8420.08,Y 9414.25,Z 376.75,A -59.987,B -2.5,C -0.436,S 2,T 43,E1 -10521,E2 0,E3 0,E4 0,E5 0,E6 0}
DECL E6POS XE_S08_900={X 8343.59,Y 9370.1,Z 377.42,A -59.987,B -2.5,C -0.436,S 2,T 43,E1 -10433,E2 0,E3 0,E4 0,E5 0,E6 0}
DECL E6POS XE_S08_905={X 8203.57,Y 9289.27,Z 378.54,A -59.987,B -2.5,C -0.395,S 2,T 43,E1 -10271,E2 0,E3 0,E4 0,E5 0,E6 0}
DECL E6POS XE_S08_910={X 7987.06,Y 9164.29,Z 380.26,A -59.987,B -2.5,C -0.395,S 2,T 43,E1 -10020,E2 0,E3 0,E4 0,E5 0,E6 0}
DECL E6POS XE_S08_915={X 7770.55,Y 9039.31,Z 381.97,A -59.987,B -2.5,C -0.395,S 2,T 43,E1 -9769,E2 0,E3 0,E4 0,E5 0,E6 0}
DECL E6POS XE_S08_920={X 7627.65,Y 8956.82,Z 383.11,A -59.987,B -2.5,C -0.395,S 2,T 43,E1 -9604,E2 0,E3 0,E4 0,E5 0,E6 0}
DECL E6POS XE_S08_925={X 7554.04,Y 8914.36,Z 384.08,A -59.987,B -2.5,C -0.318,S 2,T 43,E1 -9519,E2 0,E3 0,E4 0,E5 0,E6 0}
DECL E6POS XE_S08_930={X 7337.53,Y 8789.36,Z 385.46,A -59.987,B -2.5,C -0.318,S 2,T 43,E1 -9268,E2 0,E3 0,E4 0,E5 0,E6 0}
DECL E6POS XE_S08_935={X 7155.93,Y 8684.51,Z 386.65,A -59.987,B -2.5,C -0.318,S 2,T 43,E1 -9058,E2 0,E3 0,E4 0,E5 0,E6 0}
DECL E6POS XE_S08_940={X 7129.95,Y 8669.51,Z 386.81,A -59.987,B -2.5,C -0.318,S 2,T 43,E1 -9028,E2 0,E3 0,E4 0,E5 0,E6 0}
DECL E6POS XE_S08_945={X 7121.29,Y 8664.51,Z 386.87,A -59.987,B -2.5,C -0.318,S 2,T 43,E1 -9018,E2 0,E3 0,E4 0,E5 0,E6 0}
DECL E6POS XE_S08_950={X 7111.91,Y 8659.01,Z 387.84,A -59.987,B -2.5,C 0.582,S 2,T 43,E1 -9007,E2 0,E3 0,E4 0,E5 0,E6 0}
DECL E6POS XE_S08_955={X 7103.25,Y 8654.01,Z 387.94,A -59.987,B -2.5,C 0.582,S 2,T 43,E1 -8997,E2 0,E3 0,E4 0,E5 0,E6 0}
DECL E6POS XE_S08_960={X 6904.69,Y 8539.35,Z 388.8,A -59.987,B -2.5,C -0.22,S 2,T 43,E1 -8767,E2 0,E3 0,E4 0,E5 0,E6 0}
DECL E6POS XE_S08_965={X 6688.19,Y 8414.34,Z 389.75,A -59.987,B -2.5,C -0.22,S 2,T 43,E1 -8517,E2 0,E3 0,E4 0,E5 0,E6 0}
DECL E6POS XE_S08_970={X 6471.69,Y 8289.32,Z 390.56,A -59.987,B -2.5,C -0.135,S 2,T 43,E1 -8266,E2 0,E3 0,E4 0,E5 0,E6 0}
DECL E6POS XE_S08_975={X 6315.07,Y 8199,Z 390.93,A -59.987,B -2.5,C 0.18,S 2,T 43,E1 -8085,E2 0,E3 0,E4 0,E5 0,E6 0}
DECL E6POS XE_S08_980={X 6289.09,Y 8184,Z 391.04,A -59.987,B -2.5,C 0.18,S 2,T 43,E1 -8055,E2 0,E3 0,E4 0,E5 0,E6 0}
DECL E6POS XE_S08_985={X 6280.43,Y 8179,Z 391.01,A -59.987,B -2.5,C 0.18,S 2,T 43,E1 -8045,E2 0,E3 0,E4 0,E5 0,E6 0}
DECL E6POS XE_S08_990={X 6237.39,Y 8153.9,Z 386.07,A -59.987,B -2.5,C 0.18,S 2,T 43,E1 -7995,E2 0,E3 0,E4 0,E5 0,E6 0}
DECL E6POS XE_S08_995={X 6228.73,Y 8148.89,Z 386.04,A -59.987,B -2.5,C 0.18,S 2,T 43,E1 -7985,E2 0,E3 0,E4 0,E5 0,E6 0}
DECL E6POS XE_S08_1000={X 6148.67,Y 8102.92,Z 386.35,A -59.987,B -2.5,C -0.069,S 2,T 43,E1 -7892,E2 0,E3 0,E4 0,E5 0,E6 0}
DECL E6POS XE_S08_1005={X 6026.81,Y 8032.55,Z 387.01,A -59.987,B -2.5,C -0.069,S 2,T 43,E1 -7751,E2 0,E3 0,E4 0,E5 0,E6 0}
DECL E6POS XE_S08_1010={X 5822.21,Y 7914.38,Z 387.23,A -59.987,B -2.5,C -0.039,S 2,T 43,E1 -7514,E2 0,E3 0,E4 0,E5 0,E6 0}
DECL E6POS XE_S08_1015={X 5605.74,Y 7789.33,Z 387.21,A -59.987,B -2.5,C 0.016,S 2,T 43,E1 -7264,E2 0,E3 0,E4 0,E5 0,E6 0}
DECL E6POS XE_S08_1020={X 5570.24,Y 7768.82,Z 387.2,A -59.987,B -2.5,C 0.016,S 2,T 43,E1 -7223,E2 0,E3 0,E4 0,E5 0,E6 0}
DECL E6POS XE_S08_1025={X 5544.26,Y 7753.82,Z 387.19,A -59.987,B -2.5,C 0.016,S 2,T 43,E1 -7193,E2 0,E3 0,E4 0,E5 0,E6 0}
DECL E6POS XE_S08_1030={X 5535.6,Y 7748.81,Z 387.19,A -59.987,B -2.5,C 0.016,S 2,T 43,E1 -7183,E2 0,E3 0,E4 0,E5 0,E6 0}
DECL E6POS XE_S08_1035={X 5492.2,Y 7723.99,Z 392.18,A -59.987,B -2.5,C -0.984,S 2,T 43,E1 -7132,E2 0,E3 0,E4 0,E5 0,E6 0}
DECL E6POS XE_S08_1040={X 5483.53,Y 7718.99,Z 392.25,A -59.987,B -2.5,C -0.984,S 2,T 43,E1 -7122,E2 0,E3 0,E4 0,E5 0,E6 0}
DECL E6POS XE_S08_1045={X 5389.31,Y 7664.3,Z 392.14,A -59.987,B -2.5,C 0.016,S 2,T 43,E1 -7013,E2 0,E3 0,E4 0,E5 0,E6 0}
DECL E6POS XE_S08_1050={X 5259.43,Y 7589.27,Z 392,A -59.987,B -2.5,C 0.105,S 2,T 43,E1 -6863,E2 0,E3 0,E4 0,E5 0,E6 0}
DECL E6POS XE_S08_1055={X 5172.83,Y 7539.27,Z 392.42,A -59.987,B -2.5,C 0.105,S 2,T 43,E1 -6763,E2 0,E3 0,E4 0,E5 0,E6 0}
DECL E6POS XE_S08_1060={X 4956.37,Y 7414.2,Z 391.97,A -59.987,B -2.5,C 0.105,S 2,T 43,E1 -6512,E2 0,E3 0,E4 0,E5 0,E6 0}
DECL E6POS XE_S08_1065={X 4739.89,Y 7289.15,Z 391.51,A -59.987,B -2.5,C 0.105,S 2,T 43,E1 -6262,E2 0,E3 0,E4 0,E5 0,E6 0}
DECL E6POS XE_S08_1070={X 4695.73,Y 7263.64,Z 391.42,A -59.987,B -2.5,C 0.105,S 2,T 43,E1 -6210,E2 0,E3 0,E4 0,E5 0,E6 0}
DECL E6POS XE_S08_1075={X 4669.75,Y 7248.63,Z 391.36,A -59.987,B -2.5,C 0.105,S 2,T 43,E1 -6180,E2 0,E3 0,E4 0,E5 0,E6 0}
DECL E6POS XE_S08_1080={X 4661.1,Y 7243.63,Z 391.34,A -59.987,B -2.5,C 0.105,S 2,T 43,E1 -6170,E2 0,E3 0,E4 0,E5 0,E6 0}
DECL E6POS XE_S08_1085={X 4627.12,Y 7224.2,Z 395.17,A -59.987,B -2.5,C 0.105,S 2,T 43,E1 -6131,E2 0,E3 0,E4 0,E5 0,E6 0}
DECL E6POS XE_S08_1090={X 4618.47,Y 7219.19,Z 395.15,A -59.987,B -2.5,C 0.105,S 2,T 43,E1 -6121,E2 0,E3 0,E4 0,E5 0,E6 0}
DECL E6POS XE_S08_1095={X 4523.47,Y 7164.15,Z 394.78,A -59.987,B -2.5,C 0.202,S 2,T 43,E1 -6011,E2 0,E3 0,E4 0,E5 0,E6 0}
DECL E6POS XE_S08_1100={X 4307.01,Y 7039.07,Z 393.9,A -59.987,B -2.5,C 0.202,S 2,T 43,E1 -5760,E2 0,E3 0,E4 0,E5 0,E6 0}
DECL E6POS XE_S08_1105={X 4090.57,Y 6913.98,Z 392.85,A -59.987,B -2.5,C 0.283,S 2,T 43,E1 -5510,E2 0,E3 0,E4 0,E5 0,E6 0}
DECL E6POS XE_S08_1110={X 3887.45,Y 6796.59,Z 391.69,A -59.987,B -2.5,C 0.283,S 2,T 43,E1 -5275,E2 0,E3 0,E4 0,E5 0,E6 0}
DECL E6POS XE_S08_1115={X 3861.48,Y 6781.58,Z 391.54,A -59.987,B -2.5,C 0.283,S 2,T 43,E1 -5245,E2 0,E3 0,E4 0,E5 0,E6 0}
DECL E6POS XE_S08_1120={X 3852.82,Y 6776.58,Z 391.49,A -59.987,B -2.5,C -4.717,S 2,T 43,E1 -5235,E2 0,E3 0,E4 0,E5 0,E6 0}
DECL E6POS XE_S08_1125={X 3818.28,Y 6756.96,Z 395.2,A -59.987,B -2.5,C -4.609,S 2,T 43,E1 -5195,E2 0,E3 0,E4 0,E5 0,E6 0}
DECL E6POS XE_S08_1130={X 3809.63,Y 6751.95,Z 395.13,A -59.987,B -2.5,C 0.391,S 2,T 43,E1 -5185,E2 0,E3 0,E4 0,E5 0,E6 0}
DECL E6POS XE_S08_1135={X 3657.76,Y 6664.18,Z 394.13,A -59.987,B -2.5,C 0.391,S 2,T 43,E1 -5009,E2 0,E3 0,E4 0,E5 0,E6 0}
DECL E6POS XE_S08_1140={X 3441.33,Y 6539.07,Z 392.43,A -59.987,B -2.5,C 0.391,S 2,T 43,E1 -4758,E2 0,E3 0,E4 0,E5 0,E6 0}
DECL E6POS XE_S08_1145={X 3235.11,Y 6419.87,Z 390.76,A -59.987,B -2.5,C 0.443,S 2,T 43,E1 -4520,E2 0,E3 0,E4 0,E5 0,E6 0}
DECL E6POS XE_S08_1150={X 3165.93,Y 6379.88,Z 390.14,A -59.987,B -2.5,C 0.443,S 2,T 43,E1 -4439,E2 0,E3 0,E4 0,E5 0,E6 0}
DECL E6POS XE_S08_1155={X 3139.96,Y 6364.87,Z 389.91,A -59.987,B -2.5,C 0.443,S 2,T 43,E1 -4409,E2 0,E3 0,E4 0,E5 0,E6 0}
DECL E6POS XE_S08_1160={X 3131.31,Y 6359.86,Z 389.84,A -59.987,B -2.5,C 5.443,S 2,T 43,E1 -4399,E2 0,E3 0,E4 0,E5 0,E6 0}
DECL E6POS XE_S08_1165={X 3079,Y 6329.21,Z 383.33,A -59.987,B -2.5,C 5.487,S 2,T 43,E1 -4338,E2 0,E3 0,E4 0,E5 0,E6 0}
DECL E6POS XE_S08_1170={X 3069.48,Y 6323.71,Z 383.14,A -59.987,B -2.5,C 0.487,S 2,T 43,E1 -4327,E2 0,E3 0,E4 0,E5 0,E6 0}
DECL E6POS XE_S08_1175={X 3009.05,Y 6288.77,Z 382.65,A -59.987,B -2.5,C 0.487,S 2,T 43,E1 -4257,E2 0,E3 0,E4 0,E5 0,E6 0}
DECL E6POS XE_S08_1180={X 2792.63,Y 6163.65,Z 380.47,A -59.987,B -2.5,C 0.55,S 2,T 43,E1 -4007,E2 0,E3 0,E4 0,E5 0,E6 0}
DECL E6POS XE_S08_1185={X 2576.21,Y 6038.51,Z 378.06,A -59.987,B -2.5,C 0.55,S 2,T 43,E1 -3756,E2 0,E3 0,E4 0,E5 0,E6 0}
DECL E6POS XE_S08_1190={X 2359.8,Y 5913.38,Z 375.67,A -59.987,B -2.5,C 0.55,S 2,T 43,E1 -3506,E2 0,E3 0,E4 0,E5 0,E6 0}
DECL E6POS XE_S08_1195={X 2234.29,Y 5840.79,Z 373.78,A -59.987,B -2.5,C 0.55,S 2,T 43,E1 -3360,E2 0,E3 0,E4 0,E5 0,E6 0}
DECL E6POS XE_S08_1200={X 2160.72,Y 5798.25,Z 372.88,A -59.987,B -2.5,C 0.599,S 2,T 43,E1 -3275,E2 0,E3 0,E4 0,E5 0,E6 0}
DECL E6POS XE_S08_1205={X 2134.75,Y 5783.24,Z 372.57,A -59.987,B -2.5,C 0.599,S 2,T 43,E1 -3245,E2 0,E3 0,E4 0,E5 0,E6 0}
DECL E6POS XE_S08_1210={X 2126.1,Y 5778.23,Z 372.46,A -59.987,B -2.5,C 0.599,S 2,T 43,E1 -3235,E2 0,E3 0,E4 0,E5 0,E6 0}
DECL E6POS XE_S08_1215={X 1931.4,Y 5665.54,Z 361.02,A -59.987,B -2.5,C 0.663,S 2,T 43,E1 -3009,E2 0,E3 0,E4 0,E5 0,E6 0}
DECL E6POS XE_S08_1220={X 1922.74,Y 5660.54,Z 360.9,A -59.987,B -2.5,C 0.663,S 2,T 43,E1 -2999,E2 0,E3 0,E4 0,E5 0,E6 0}
DECL E6POS XE_S08_1225={X 1883.79,Y 5638.01,Z 360.38,A -59.987,B -2.5,C 0.663,S 2,T 43,E1 -2954,E2 0,E3 0,E4 0,E5 0,E6 0}
DECL E6POS XE_S08_1230={X 1710.68,Y 5537.89,Z 358.07,A -59.987,B -2.5,C 0.663,S 2,T 43,E1 -2754,E2 0,E3 0,E4 0,E5 0,E6 0}
DECL E6POS XE_S08_1235={X 1494.27,Y 5412.73,Z 355.17,A -59.987,B -2.5,C 0.663,S 2,T 43,E1 -2503,E2 0,E3 0,E4 0,E5 0,E6 0}
DECL E6POS XE_S08_1240={X 1277.87,Y 5287.59,Z 352.29,A -59.987,B -2.5,C 0.663,S 2,T 43,E1 -2253,E2 0,E3 0,E4 0,E5 0,E6 0}
DECL E6POS XE_S08_1245={X 1225.93,Y 5257.55,Z 351.6,A -59.987,B -2.5,C 0.663,S 2,T 43,E1 -2193,E2 0,E3 0,E4 0,E5 0,E6 0}
DECL E6POS XE_S08_1250={X 1199.12,Y 5242.01,Z 350.54,A -59.987,B -2.5,C 0.663,S 2,T 43,E1 -2161,E2 0,E3 0,E4 0,E5 0,E6 0}
DECL E6POS XE_S08_1255={X 1190.47,Y 5237,Z 350.12,A -59.987,B -2.5,C 0.663,S 2,T 43,E1 -2151,E2 0,E3 0,E4 0,E5 0,E6 0}
DECL E6POS XE_S08_1260={X 1059.57,Y 5161.32,Z 354.09,A -59.987,B -2.5,C 0.813,S 2,T 43,E1 -2000,E2 0,E3 0,E4 0,E5 0,E6 0}
DECL E6POS XE_S08_1265={X 1050.91,Y 5156.32,Z 353.95,A -59.987,B -2.5,C 0.813,S 2,T 43,E1 -1990,E2 0,E3 0,E4 0,E5 0,E6 0}
DECL E6POS XE_S08_1270={X 1015.42,Y 5135.79,Z 353.37,A -59.987,B -2.5,C 0.813,S 2,T 43,E1 -1949,E2 0,E3 0,E4 0,E5 0,E6 0}
DECL E6POS XE_S08_1275={X 845.19,Y 5037.33,Z 350.94,A -59.987,B -2.5,C 0.752,S 2,T 43,E1 -1752,E2 0,E3 0,E4 0,E5 0,E6 0}
DECL E6POS XE_S08_1280={X 628.8,Y 4912.16,Z 347.62,A -59.987,B -2.5,C 0.818,S 2,T 43,E1 -1501,E2 0,E3 0,E4 0,E5 0,E6 0}
DECL E6POS XE_S08_1285={X 412.43,Y 4786.99,Z 344.05,A -59.987,B -2.5,C 0.818,S 2,T 43,E1 -1251,E2 0,E3 0,E4 0,E5 0,E6 0}
DECL E6POS XE_S08_1290={X 369.16,Y 4761.95,Z 343.04,A -59.987,B -2.5,C 0.818,S 2,T 43,E1 -1200,E2 0,E3 0,E4 0,E5 0,E6 0}
DECL E6POS XE_S08_1295={X 196.06,Y 4661.82,Z 340.26,A -59.987,B -2.5,C 0.818,S 2,T 43,E1 -1000,E2 0,E3 0,E4 0,E5 0,E6 0}
DECL E6POS XE_S08_1300={X 193.69,Y 4660.57,Z 340.57,A -59.988,B -2.499,C -11.372,S 2,T 43,E1 -1000,E2 0,E3 0,E4 0,E5 0,E6 0}
DECL E6POS XP15_S08={X 173.64,Y 4648.2,Z 324.92,A -59.988,B -2.499,C -11.372,S 2,T 43,E1 -1000,E2 0,E3 0,E4 0,E5 0,E6 0}
DECL E6POS XP20_S08={X 2018.66,Y 3188.67,Z 1204.8,A 178.342,B 89.199,C 167.649,S 2,T 43,E1 -1000,E2 0,E3 0,E4 0,E5 0,E6 0}
DECL E6POS XP5_S07={X 2024.69,Y 31084.51,Z 975.49,A 178.269,B 89.2,C -165.739,S 2,T 43,E1 -29000,E2 0,E3 0,E4 0,E5 0,E6 0}
DECL E6POS XP10_S07={X 24363.48,Y 18327.13,Z 10.69,A -59.987,B -2.5,C 15.313,S 2,T 43,E1 -29000,E2 0,E3 0,E4 0,E5 0,E6 0}
DECL E6POS XE_S07_5={X 24341.89,Y 18315.36,Z 24.68,A -59.987,B -2.5,C 15.313,S 2,T 43,E1 -29000,E2 0,E3 0,E4 0,E5 0,E6 0}
DECL E6POS XE_S07_10={X 24339.73,Y 18314.09,Z 24.26,A -59.987,B -2.5,C -1.608,S 2,T 43,E1 -29000,E2 0,E3 0,E4 0,E5 0,E6 0}
DECL E6POS XE_S07_15={X 24228.43,Y 18249.98,Z 27.86,A -59.987,B -2.5,C -1.608,S 2,T 43,E1 -28871,E2 0,E3 0,E4 0,E5 0,E6 0}
DECL E6POS XE_S07_20={X 24011.88,Y 18125.25,Z 34.88,A -59.987,B -2.5,C -2.218,S 2,T 43,E1 -28620,E2 0,E3 0,E4 0,E5 0,E6 0}
DECL E6POS XE_S07_25={X 23795.34,Y 18000.51,Z 41.92,A -59.987,B -2.5,C -1.582,S 2,T 43,E1 -28369,E2 0,E3 0,E4 0,E5 0,E6 0}
DECL E6POS XE_S07_30={X 23578.8,Y 17875.77,Z 48.82,A -59.987,B -2.5,C -1.582,S 2,T 43,E1 -28118,E2 0,E3 0,E4 0,E5 0,E6 0}
DECL E6POS XE_S07_35={X 23435.88,Y 17793.44,Z 53.37,A -59.987,B -2.5,C -1.582,S 2,T 43,E1 -27952,E2 0,E3 0,E4 0,E5 0,E6 0}
DECL E6POS XE_S07_40={X 23362.27,Y 17751.13,Z 57.46,A -59.987,B -2.5,C -1.584,S 2,T 43,E1 -27867,E2 0,E3 0,E4 0,E5 0,E6 0}
DECL E6POS XE_S07_45={X 23169.07,Y 17639.84,Z 63.51,A -59.987,B -2.5,C -1.548,S 2,T 43,E1 -27643,E2 0,E3 0,E4 0,E5 0,E6 0}
DECL E6POS XE_S07_50={X 23064.8,Y 17579.88,Z 66.74,A -59.987,B -2.5,C -1.548,S 2,T 43,E1 -27522,E2 0,E3 0,E4 0,E5 0,E6 0}
DECL E6POS XE_S07_55={X 22977.94,Y 17529.91,Z 69.42,A -59.987,B -2.5,C -1.548,S 2,T 43,E1 -27421,E2 0,E3 0,E4 0,E5 0,E6 0}
DECL E6POS XE_S07_60={X 22891.66,Y 17480.02,Z 72.1,A -59.987,B -2.499,C -1.536,S 2,T 43,E1 -27321,E2 0,E3 0,E4 0,E5 0,E6 0}
DECL E6POS XE_S07_65={X 22800.69,Y 17427.57,Z 74.12,A -59.987,B -2.499,C -1.536,S 2,T 43,E1 -27215,E2 0,E3 0,E4 0,E5 0,E6 0}
DECL E6POS XE_S07_70={X 22738.2,Y 17391.57,Z 76.06,A -59.987,B -2.499,C -1.524,S 2,T 43,E1 -27143,E2 0,E3 0,E4 0,E5 0,E6 0}
DECL E6POS XE_S07_75={X 22712.21,Y 17376.6,Z 76.85,A -59.987,B -2.499,C -1.524,S 2,T 43,E1 -27113,E2 0,E3 0,E4 0,E5 0,E6 0}
DECL E6POS XE_S07_80={X 22703.55,Y 17371.61,Z 77.12,A -59.987,B -2.499,C -1.524,S 2,T 43,E1 -27103,E2 0,E3 0,E4 0,E5 0,E6 0}
DECL E6POS XE_S07_85={X 22685.52,Y 17361.13,Z 75.67,A -59.987,B -2.5,C -1.505,S 2,T 43,E1 -27082,E2 0,E3 0,E4 0,E5 0,E6 0}
DECL E6POS XE_S07_90={X 22676.85,Y 17356.14,Z 75.94,A -59.987,B -2.5,C -1.505,S 2,T 43,E1 -27072,E2 0,E3 0,E4 0,E5 0,E6 0}
DECL E6POS XE_S07_95={X 22633.55,Y 17331.19,Z 77.25,A -59.987,B -2.5,C -1.505,S 2,T 43,E1 -27021,E2 0,E3 0,E4 0,E5 0,E6 0}
DECL E6POS XE_S07_100={X 22496.17,Y 17252.04,Z 81.41,A -59.987,B -2.5,C -1.505,S 2,T 43,E1 -26862,E2 0,E3 0,E4 0,E5 0,E6 0}
DECL E6POS XE_S07_105={X 22279.62,Y 17127.29,Z 87.97,A -59.987,B -2.5,C -1.505,S 2,T 43,E1 -26611,E2 0,E3 0,E4 0,E5 0,E6 0}
DECL E6POS XE_S07_110={X 22106.39,Y 17027.46,Z 92.72,A -59.987,B -2.5,C -1.48,S 2,T 43,E1 -26410,E2 0,E3 0,E4 0,E5 0,E6 0}
DECL E6POS XE_S07_115={X 22026.7,Y 16981.5,Z 94.1,A -59.987,B -2.5,C -1.48,S 2,T 43,E1 -26318,E2 0,E3 0,E4 0,E5 0,E6 0}
DECL E6POS XE_S07_120={X 21846.55,Y 16877.71,Z 99.59,A -59.987,B -2.5,C -1.48,S 2,T 43,E1 -26109,E2 0,E3 0,E4 0,E5 0,E6 0}
DECL E6POS XE_S07_125={X 21775.53,Y 16836.78,Z 101.61,A -59.987,B -2.5,C -1.48,S 2,T 43,E1 -26027,E2 0,E3 0,E4 0,E5 0,E6 0}
DECL E6POS XE_S07_130={X 21749.54,Y 16821.81,Z 102.38,A -59.987,B -2.5,C -1.48,S 2,T 43,E1 -25996,E2 0,E3 0,E4 0,E5 0,E6 0}
DECL E6POS XE_S07_135={X 21740.88,Y 16816.82,Z 102.64,A -59.987,B -2.5,C -1.48,S 2,T 43,E1 -25986,E2 0,E3 0,E4 0,E5 0,E6 0}
DECL E6POS XE_S07_140={X 21731.56,Y 16811.4,Z 102,A -59.987,B -2.5,C -1.447,S 2,T 43,E1 -25976,E2 0,E3 0,E4 0,E5 0,E6 0}
DECL E6POS XE_S07_145={X 21722.89,Y 16806.41,Z 102.26,A -59.987,B -2.5,C -1.447,S 2,T 43,E1 -25965,E2 0,E3 0,E4 0,E5 0,E6 0}
DECL E6POS XE_S07_150={X 21630.04,Y 16752.91,Z 104.96,A -59.987,B -2.5,C -1.447,S 2,T 43,E1 -25858,E2 0,E3 0,E4 0,E5 0,E6 0}
DECL E6POS XE_S07_155={X 21413.5,Y 16628.14,Z 111.26,A -59.987,B -2.5,C -1.447,S 2,T 43,E1 -25607,E2 0,E3 0,E4 0,E5 0,E6 0}
DECL E6POS XE_S07_160={X 21196.95,Y 16503.37,Z 117.57,A -59.987,B -2.5,C -1.447,S 2,T 43,E1 -25356,E2 0,E3 0,E4 0,E5 0,E6 0}
DECL E6POS XE_S07_165={X 20980.4,Y 16378.6,Z 123.87,A -59.987,B -2.5,C -1.447,S 2,T 43,E1 -25105,E2 0,E3 0,E4 0,E5 0,E6 0}
DECL E6POS XE_S07_170={X 20898.89,Y 16331.63,Z 126.24,A -59.987,B -2.5,C -1.447,S 2,T 43,E1 -25010,E2 0,E3 0,E4 0,E5 0,E6 0}
DECL E6POS XE_S07_175={X 20872.9,Y 16316.66,Z 127,A -59.987,B -2.5,C -1.447,S 2,T 43,E1 -24980,E2 0,E3 0,E4 0,E5 0,E6 0}
DECL E6POS XE_S07_180={X 20864.24,Y 16311.67,Z 127.25,A -59.987,B -2.5,C -1.447,S 2,T 43,E1 -24970,E2 0,E3 0,E4 0,E5 0,E6 0}
DECL E6POS XE_S07_185={X 20821.15,Y 16287.1,Z 133.49,A -59.987,B -2.5,C -1.421,S 2,T 43,E1 -24920,E2 0,E3 0,E4 0,E5 0,E6 0}
DECL E6POS XE_S07_190={X 20812.49,Y 16282.1,Z 133.73,A -59.987,B -2.5,C -1.421,S 2,T 43,E1 -24910,E2 0,E3 0,E4 0,E5 0,E6 0}
DECL E6POS XE_S07_195={X 20763.9,Y 16254.1,Z 135.12,A -59.987,B -2.5,C -1.421,S 2,T 43,E1 -24853,E2 0,E3 0,E4 0,E5 0,E6 0}
DECL E6POS XE_S07_200={X 20547.4,Y 16129.2,Z 142.39,A -59.987,B -2.5,C -1.411,S 2,T 43,E1 -24602,E2 0,E3 0,E4 0,E5 0,E6 0}
DECL E6POS XE_S07_205={X 20431.42,Y 16062.37,Z 145.68,A -59.987,B -2.5,C -1.411,S 2,T 43,E1 -24468,E2 0,E3 0,E4 0,E5 0,E6 0}
DECL E6POS XE_S07_210={X 20405.44,Y 16047.4,Z 146.42,A -59.987,B -2.5,C -1.411,S 2,T 43,E1 -24437,E2 0,E3 0,E4 0,E5 0,E6 0}
DECL E6POS XE_S07_215={X 20396.77,Y 16042.41,Z 146.66,A -59.987,B -2.5,C -1.411,S 2,T 43,E1 -24427,E2 0,E3 0,E4 0,E5 0,E6 0}
DECL E6POS XE_S07_220={X 20388.06,Y 16037.65,Z 147.9,A -59.987,B -2.5,C -1.411,S 2,T 43,E1 -24417,E2 0,E3 0,E4 0,E5 0,E6 0}
DECL E6POS XE_S07_225={X 20379.4,Y 16032.66,Z 148.15,A -59.987,B -2.5,C -1.411,S 2,T 43,E1 -24407,E2 0,E3 0,E4 0,E5 0,E6 0}
DECL E6POS XE_S07_230={X 20353.42,Y 16017.68,Z 148.89,A -59.987,B -2.5,C -1.411,S 2,T 43,E1 -24377,E2 0,E3 0,E4 0,E5 0,E6 0}
DECL E6POS XE_S07_235={X 20344.76,Y 16012.69,Z 149.14,A -59.987,B -2.5,C -1.411,S 2,T 43,E1 -24367,E2 0,E3 0,E4 0,E5 0,E6 0}
DECL E6POS XE_S07_240={X 20334.75,Y 16006.88,Z 148.38,A -59.987,B -2.499,C -0.689,S 2,T 43,E1 -24356,E2 0,E3 0,E4 0,E5 0,E6 0}
DECL E6POS XE_S07_245={X 20326.09,Y 16001.88,Z 148.6,A -59.987,B -2.499,C -0.689,S 2,T 43,E1 -24345,E2 0,E3 0,E4 0,E5 0,E6 0}
DECL E6POS XE_S07_250={X 20299.23,Y 15986.41,Z 149.28,A -59.987,B -2.499,C -0.689,S 2,T 43,E1 -24314,E2 0,E3 0,E4 0,E5 0,E6 0}
DECL E6POS XE_S07_255={X 20114.73,Y 15879.9,Z 154.58,A -59.987,B -2.5,C -1.391,S 2,T 43,E1 -24100,E2 0,E3 0,E4 0,E5 0,E6 0}
DECL E6POS XE_S07_260={X 19988.27,Y 15807.03,Z 158.02,A -59.987,B -2.5,C -1.391,S 2,T 43,E1 -23954,E2 0,E3 0,E4 0,E5 0,E6 0}
DECL E6POS XE_S07_265={X 19962.28,Y 15792.06,Z 158.75,A -59.987,B -2.5,C -1.391,S 2,T 43,E1 -23924,E2 0,E3 0,E4 0,E5 0,E6 0}
DECL E6POS XE_S07_270={X 19953.62,Y 15787.06,Z 158.99,A -59.987,B -2.5,C -6.391,S 2,T 43,E1 -23913,E2 0,E3 0,E4 0,E5 0,E6 0}
DECL E6POS XE_S07_275={X 19919.33,Y 15767.69,Z 163.93,A -59.987,B -2.5,C -8.094,S 2,T 43,E1 -23874,E2 0,E3 0,E4 0,E5 0,E6 0}
DECL E6POS XE_S07_280={X 19910.66,Y 15762.71,Z 164.27,A -59.987,B -2.5,C -3.094,S 2,T 43,E1 -23864,E2 0,E3 0,E4 0,E5 0,E6 0}
DECL E6POS XE_S07_285={X 19867.33,Y 15737.74,Z 165.47,A -59.987,B -2.5,C -3.094,S 2,T 43,E1 -23813,E2 0,E3 0,E4 0,E5 0,E6 0}
DECL E6POS XE_S07_290={X 19681.93,Y 15630.9,Z 170.6,A -59.987,B -2.5,C -1.374,S 2,T 43,E1 -23598,E2 0,E3 0,E4 0,E5 0,E6 0}
DECL E6POS XE_S07_295={X 19608.3,Y 15588.42,Z 171.64,A -59.987,B -2.5,C -1.374,S 2,T 43,E1 -23513,E2 0,E3 0,E4 0,E5 0,E6 0}
DECL E6POS XE_S07_300={X 19465.42,Y 15506.06,Z 175.06,A -59.987,B -2.5,C -0.638,S 2,T 43,E1 -23347,E2 0,E3 0,E4 0,E5 0,E6 0}
DECL E6POS XE_S07_305={X 19377.06,Y 15455.14,Z 177.39,A -59.987,B -2.5,C -0.638,S 2,T 43,E1 -23245,E2 0,E3 0,E4 0,E5 0,E6 0}
DECL E6POS XE_S07_310={X 19351.08,Y 15440.16,Z 178.13,A -59.987,B -2.5,C -0.638,S 2,T 43,E1 -23215,E2 0,E3 0,E4 0,E5 0,E6 0}
DECL E6POS XE_S07_315={X 19341.55,Y 15434.67,Z 178.35,A -59.987,B -2.5,C -0.638,S 2,T 43,E1 -23204,E2 0,E3 0,E4 0,E5 0,E6 0}
DECL E6POS XE_S07_320={X 19332.01,Y 15429.22,Z 179.57,A -59.987,B -2.5,C -0.638,S 2,T 43,E1 -23193,E2 0,E3 0,E4 0,E5 0,E6 0}
DECL E6POS XE_S07_325={X 19323.34,Y 15424.23,Z 179.88,A -59.987,B -2.5,C -0.638,S 2,T 43,E1 -23182,E2 0,E3 0,E4 0,E5 0,E6 0}
DECL E6POS XE_S07_330={X 19248.91,Y 15381.34,Z 181.95,A -59.987,B -2.5,C -1.349,S 2,T 43,E1 -23096,E2 0,E3 0,E4 0,E5 0,E6 0}
DECL E6POS XE_S07_335={X 19032.36,Y 15256.55,Z 187.83,A -59.987,B -2.5,C -1.349,S 2,T 43,E1 -22845,E2 0,E3 0,E4 0,E5 0,E6 0}
DECL E6POS XE_S07_340={X 18815.83,Y 15131.74,Z 193.18,A -59.987,B -2.5,C -1.325,S 2,T 43,E1 -22594,E2 0,E3 0,E4 0,E5 0,E6 0}
DECL E6POS XE_S07_345={X 18599.28,Y 15006.94,Z 198.96,A -59.987,B -2.5,C -1.325,S 2,T 43,E1 -22343,E2 0,E3 0,E4 0,E5 0,E6 0}
DECL E6POS XE_S07_350={X 18382.73,Y 14882.14,Z 204.73,A -59.987,B -2.5,C -1.325,S 2,T 43,E1 -22092,E2 0,E3 0,E4 0,E5 0,E6 0}
DECL E6POS XE_S07_355={X 18166.19,Y 14757.34,Z 210.51,A -59.987,B -2.5,C -1.325,S 2,T 43,E1 -21841,E2 0,E3 0,E4 0,E5 0,E6 0}
DECL E6POS XE_S07_360={X 18041.46,Y 14685.46,Z 213.84,A -59.987,B -2.5,C -1.325,S 2,T 43,E1 -21696,E2 0,E3 0,E4 0,E5 0,E6 0}
DECL E6POS XE_S07_365={X 18015.47,Y 14670.48,Z 214.53,A -59.987,B -2.5,C -1.325,S 2,T 43,E1 -21666,E2 0,E3 0,E4 0,E5 0,E6 0}
DECL E6POS XE_S07_370={X 18006.81,Y 14665.49,Z 214.76,A -59.987,B -2.5,C -1.325,S 2,T 43,E1 -21656,E2 0,E3 0,E4 0,E5 0,E6 0}
DECL E6POS XE_S07_375={X 17979.31,Y 14649.49,Z 212.48,A -59.987,B -2.5,C -1.292,S 2,T 43,E1 -21624,E2 0,E3 0,E4 0,E5 0,E6 0}
DECL E6POS XE_S07_380={X 17970.65,Y 14644.5,Z 212.71,A -59.987,B -2.5,C -1.292,S 2,T 43,E1 -21614,E2 0,E3 0,E4 0,E5 0,E6 0}
DECL E6POS XE_S07_385={X 17932.45,Y 14622.49,Z 213.7,A -59.987,B -2.5,C -1.292,S 2,T 43,E1 -21570,E2 0,E3 0,E4 0,E5 0,E6 0}
DECL E6POS XE_S07_390={X 17733.23,Y 14507.66,Z 218.87,A -59.987,B -2.5,C -1.292,S 2,T 43,E1 -21339,E2 0,E3 0,E4 0,E5 0,E6 0}
DECL E6POS XE_S07_395={X 17516.69,Y 14382.86,Z 224.5,A -59.987,B -2.5,C -1.292,S 2,T 43,E1 -21087,E2 0,E3 0,E4 0,E5 0,E6 0}
DECL E6POS XE_S07_400={X 17300.15,Y 14258.03,Z 229.37,A -59.987,B -2.5,C -1.275,S 2,T 43,E1 -20836,E2 0,E3 0,E4 0,E5 0,E6 0}
DECL E6POS XE_S07_405={X 17271.3,Y 14241.4,Z 230.11,A -59.987,B -2.5,C -1.275,S 2,T 43,E1 -20803,E2 0,E3 0,E4 0,E5 0,E6 0}
DECL E6POS XE_S07_410={X 17245.32,Y 14226.43,Z 230.77,A -59.987,B -2.5,C -1.275,S 2,T 43,E1 -20773,E2 0,E3 0,E4 0,E5 0,E6 0}
DECL E6POS XE_S07_415={X 17236.66,Y 14221.43,Z 231,A -59.987,B -2.5,C 3.725,S 2,T 43,E1 -20763,E2 0,E3 0,E4 0,E5 0,E6 0}
DECL E6POS XE_S07_420={X 17192.79,Y 14195.75,Z 227.11,A -59.987,B -2.5,C 3.736,S 2,T 43,E1 -20712,E2 0,E3 0,E4 0,E5 0,E6 0}
DECL E6POS XE_S07_425={X 17183.27,Y 14190.26,Z 227.27,A -59.987,B -2.5,C -1.264,S 2,T 43,E1 -20700,E2 0,E3 0,E4 0,E5 0,E6 0}
DECL E6POS XE_S07_430={X 17084,Y 14133.05,Z 229.9,A -59.987,B -2.5,C -1.264,S 2,T 43,E1 -20585,E2 0,E3 0,E4 0,E5 0,E6 0}
DECL E6POS XE_S07_435={X 16867.45,Y 14008.24,Z 235.32,A -59.987,B -2.5,C -1.244,S 2,T 43,E1 -20334,E2 0,E3 0,E4 0,E5 0,E6 0}
DECL E6POS XE_S07_440={X 16650.91,Y 13883.42,Z 240.75,A -59.987,B -2.5,C -1.245,S 2,T 43,E1 -20083,E2 0,E3 0,E4 0,E5 0,E6 0}
DECL E6POS XE_S07_445={X 16518.39,Y 13807.03,Z 244.07,A -59.987,B -2.5,C -1.245,S 2,T 43,E1 -19930,E2 0,E3 0,E4 0,E5 0,E6 0}
DECL E6POS XE_S07_450={X 16492.4,Y 13792.05,Z 244.72,A -59.987,B -2.5,C -1.245,S 2,T 43,E1 -19899,E2 0,E3 0,E4 0,E5 0,E6 0}
DECL E6POS XE_S07_455={X 16483.74,Y 13787.06,Z 244.94,A -59.987,B -2.5,C -1.245,S 2,T 43,E1 -19889,E2 0,E3 0,E4 0,E5 0,E6 0}
DECL E6POS XE_S07_460={X 16449.22,Y 13767.02,Z 241.79,A -59.987,B -2.5,C -1.212,S 2,T 43,E1 -19849,E2 0,E3 0,E4 0,E5 0,E6 0}
DECL E6POS XE_S07_465={X 16440.55,Y 13762.03,Z 242,A -59.987,B -2.5,C -1.212,S 2,T 43,E1 -19839,E2 0,E3 0,E4 0,E5 0,E6 0}
DECL E6POS XE_S07_470={X 16408.51,Y 13743.55,Z 242.78,A -59.987,B -2.5,C -1.212,S 2,T 43,E1 -19802,E2 0,E3 0,E4 0,E5 0,E6 0}
DECL E6POS XE_S07_475={X 16226.6,Y 13638.69,Z 247.18,A -59.987,B -2.5,C -2.632,S 2,T 43,E1 -19591,E2 0,E3 0,E4 0,E5 0,E6 0}
DECL E6POS XE_S07_480={X 16179.84,Y 13611.8,Z 249.66,A -59.987,B -2.5,C -2.632,S 2,T 43,E1 -19537,E2 0,E3 0,E4 0,E5 0,E6 0}
DECL E6POS XE_S07_485={X 16001.41,Y 13508.95,Z 253.86,A -59.987,B -2.5,C -1.18,S 2,T 43,E1 -19330,E2 0,E3 0,E4 0,E5 0,E6 0}
DECL E6POS XE_S07_490={X 15784.86,Y 13384.12,Z 259,A -59.987,B -2.5,C -1.18,S 2,T 43,E1 -19079,E2 0,E3 0,E4 0,E5 0,E6 0}
DECL E6POS XE_S07_495={X 15757.11,Y 13368.22,Z 259.65,A -59.987,B -2.5,C -1.18,S 2,T 43,E1 -19047,E2 0,E3 0,E4 0,E5 0,E6 0}
DECL E6POS XE_S07_500={X 15731.13,Y 13353.25,Z 260.27,A -59.987,B -2.5,C -1.18,S 2,T 43,E1 -19016,E2 0,E3 0,E4 0,E5 0,E6 0}
DECL E6POS XE_S07_505={X 15722.47,Y 13348.25,Z 260.48,A -59.987,B -2.5,C -1.18,S 2,T 43,E1 -19006,E2 0,E3 0,E4 0,E5 0,E6 0}
DECL E6POS XE_S07_510={X 15661.2,Y 13312.57,Z 254.83,A -59.987,B -2.5,C -1.143,S 2,T 43,E1 -18935,E2 0,E3 0,E4 0,E5 0,E6 0}
DECL E6POS XE_S07_515={X 15652.53,Y 13307.58,Z 255.03,A -59.987,B -2.5,C -1.143,S 2,T 43,E1 -18925,E2 0,E3 0,E4 0,E5 0,E6 0}
DECL E6POS XE_S07_520={X 15591.82,Y 13272.58,Z 256.53,A -59.987,B -2.5,C -1.143,S 2,T 43,E1 -18855,E2 0,E3 0,E4 0,E5 0,E6 0}
DECL E6POS XE_S07_525={X 15352,Y 13134.35,Z 262.42,A -59.987,B -2.5,C -1.111,S 2,T 43,E1 -18576,E2 0,E3 0,E4 0,E5 0,E6 0}
DECL E6POS XE_S07_530={X 15135.46,Y 13009.51,Z 267.26,A -59.987,B -2.5,C -1.11,S 2,T 43,E1 -18325,E2 0,E3 0,E4 0,E5 0,E6 0}
DECL E6POS XE_S07_535={X 15003.55,Y 12933.46,Z 270.21,A -59.987,B -2.5,C -1.11,S 2,T 43,E1 -18172,E2 0,E3 0,E4 0,E5 0,E6 0}
DECL E6POS XE_S07_540={X 14977.56,Y 12918.47,Z 270.79,A -59.987,B -2.5,C -1.11,S 2,T 43,E1 -18142,E2 0,E3 0,E4 0,E5 0,E6 0}
DECL E6POS XE_S07_545={X 14968.9,Y 12913.48,Z 270.98,A -59.987,B -2.5,C -1.11,S 2,T 43,E1 -18132,E2 0,E3 0,E4 0,E5 0,E6 0}
DECL E6POS XE_S07_550={X 14924.01,Y 12887.34,Z 266.87,A -59.987,B -2.5,C -1.068,S 2,T 43,E1 -18080,E2 0,E3 0,E4 0,E5 0,E6 0}
DECL E6POS XE_S07_555={X 14915.35,Y 12882.35,Z 267.06,A -59.987,B -2.5,C -1.068,S 2,T 43,E1 -18070,E2 0,E3 0,E4 0,E5 0,E6 0}
DECL E6POS XE_S07_560={X 14702.62,Y 12759.69,Z 271.61,A -59.987,B -2.5,C -1.022,S 2,T 43,E1 -17823,E2 0,E3 0,E4 0,E5 0,E6 0}
DECL E6POS XE_S07_565={X 14486.07,Y 12634.84,Z 276.06,A -59.987,B -2.5,C -1.022,S 2,T 43,E1 -17572,E2 0,E3 0,E4 0,E5 0,E6 0}
DECL E6POS XE_S07_570={X 14269.53,Y 12509.98,Z 280.52,A -59.987,B -2.5,C -1.022,S 2,T 43,E1 -17321,E2 0,E3 0,E4 0,E5 0,E6 0}
DECL E6POS XE_S07_575={X 14188.77,Y 12463.46,Z 282.18,A -59.987,B -2.5,C -1.022,S 2,T 43,E1 -17227,E2 0,E3 0,E4 0,E5 0,E6 0}
DECL E6POS XE_S07_580={X 14052.98,Y 12385.11,Z 284.79,A -59.987,B -2.5,C -0.938,S 2,T 43,E1 -17070,E2 0,E3 0,E4 0,E5 0,E6 0}
DECL E6POS XE_S07_585={X 13836.45,Y 12260.23,Z 288.87,A -59.987,B -2.5,C -0.938,S 2,T 43,E1 -16819,E2 0,E3 0,E4 0,E5 0,E6 0}
DECL E6POS XE_S07_590={X 13619.91,Y 12135.35,Z 292.96,A -59.987,B -2.5,C -0.938,S 2,T 43,E1 -16568,E2 0,E3 0,E4 0,E5 0,E6 0}
DECL E6POS XE_S07_595={X 13403.37,Y 12010.47,Z 296.98,A -59.987,B -2.5,C -0.881,S 2,T 43,E1 -16317,E2 0,E3 0,E4 0,E5 0,E6 0}
DECL E6POS XE_S07_600={X 13186.83,Y 11885.58,Z 300.82,A -59.987,B -2.5,C -0.881,S 2,T 43,E1 -16065,E2 0,E3 0,E4 0,E5 0,E6 0}
DECL E6POS XE_S07_605={X 12970.3,Y 11760.69,Z 304.51,A -59.987,B -2.5,C -0.833,S 2,T 43,E1 -15814,E2 0,E3 0,E4 0,E5 0,E6 0}
DECL E6POS XE_S07_610={X 12753.77,Y 11635.79,Z 308.13,A -59.987,B -2.5,C -0.832,S 2,T 43,E1 -15563,E2 0,E3 0,E4 0,E5 0,E6 0}
DECL E6POS XE_S07_615={X 12537.23,Y 11510.89,Z 311.76,A -59.987,B -2.5,C -0.832,S 2,T 43,E1 -15312,E2 0,E3 0,E4 0,E5 0,E6 0}
DECL E6POS XE_S07_620={X 12320.73,Y 11386.06,Z 316.28,A -59.987,B -2.5,C -0.782,S 2,T 43,E1 -15061,E2 0,E3 0,E4 0,E5 0,E6 0}
DECL E6POS XE_S07_625={X 12104.2,Y 11261.14,Z 319.68,A -59.987,B -2.5,C -0.782,S 2,T 43,E1 -14810,E2 0,E3 0,E4 0,E5 0,E6 0}
DECL E6POS XE_S07_630={X 11887.66,Y 11136.23,Z 323.09,A -59.987,B -2.5,C -0.783,S 2,T 43,E1 -14559,E2 0,E3 0,E4 0,E5 0,E6 0}
DECL E6POS XE_S07_635={X 11671.14,Y 11011.33,Z 326.47,A -59.987,B -2.5,C -0.76,S 2,T 43,E1 -14308,E2 0,E3 0,E4 0,E5 0,E6 0}
DECL E6POS XE_S07_640={X 11651.22,Y 10999.84,Z 326.77,A -59.987,B -2.5,C -0.76,S 2,T 43,E1 -14285,E2 0,E3 0,E4 0,E5 0,E6 0}
DECL E6POS XE_S07_645={X 11642.56,Y 10994.84,Z 326.91,A -59.987,B -2.5,C -0.76,S 2,T 43,E1 -14275,E2 0,E3 0,E4 0,E5 0,E6 0}
DECL E6POS XE_S07_650={X 11632.59,Y 10989.14,Z 327.96,A -59.987,B -2.5,C -0.76,S 2,T 43,E1 -14263,E2 0,E3 0,E4 0,E5 0,E6 0}
DECL E6POS XE_S07_655={X 11623.93,Y 10984.14,Z 328.09,A -59.987,B -2.5,C -0.76,S 2,T 43,E1 -14253,E2 0,E3 0,E4 0,E5 0,E6 0}
DECL E6POS XE_S07_660={X 11539.05,Y 10935.17,Z 329.39,A -59.987,B -2.5,C -0.76,S 2,T 43,E1 -14155,E2 0,E3 0,E4 0,E5 0,E6 0}
DECL E6POS XE_S07_665={X 11528.65,Y 10929.2,Z 330.15,A -59.987,B -2.5,C -0.76,S 2,T 43,E1 -14143,E2 0,E3 0,E4 0,E5 0,E6 0}
DECL E6POS XE_S07_670={X 11454.64,Y 10886.52,Z 331.23,A -59.987,B -2.5,C -0.733,S 2,T 43,E1 -14057,E2 0,E3 0,E4 0,E5 0,E6 0}
DECL E6POS XE_S07_675={X 11238.11,Y 10761.6,Z 334.42,A -59.987,B -2.5,C -0.733,S 2,T 43,E1 -13806,E2 0,E3 0,E4 0,E5 0,E6 0}
DECL E6POS XE_S07_680={X 11021.58,Y 10636.68,Z 337.61,A -59.987,B -2.5,C -0.733,S 2,T 43,E1 -13555,E2 0,E3 0,E4 0,E5 0,E6 0}
DECL E6POS XE_S07_685={X 10875.21,Y 10552.24,Z 339.77,A -59.987,B -2.5,C -0.733,S 2,T 43,E1 -13385,E2 0,E3 0,E4 0,E5 0,E6 0}
DECL E6POS XE_S07_690={X 10849.22,Y 10537.24,Z 340.15,A -59.987,B -2.5,C -0.733,S 2,T 43,E1 -13355,E2 0,E3 0,E4 0,E5 0,E6 0}
DECL E6POS XE_S07_695={X 10840.56,Y 10532.25,Z 340.28,A -59.987,B -2.5,C -0.733,S 2,T 43,E1 -13345,E2 0,E3 0,E4 0,E5 0,E6 0}
DECL E6POS XE_S07_700={X 10821.48,Y 10521.34,Z 342.56,A -59.987,B -2.5,C -0.733,S 2,T 43,E1 -13322,E2 0,E3 0,E4 0,E5 0,E6 0}
DECL E6POS XE_S07_705={X 10812.82,Y 10516.35,Z 342.69,A -59.987,B -2.5,C -0.733,S 2,T 43,E1 -13312,E2 0,E3 0,E4 0,E5 0,E6 0}
DECL E6POS XE_S07_710={X 10770.43,Y 10491.78,Z 343.31,A -59.987,B -2.5,C -0.733,S 2,T 43,E1 -13263,E2 0,E3 0,E4 0,E5 0,E6 0}
DECL E6POS XE_S07_715={X 10588.54,Y 10386.85,Z 345.93,A -59.987,B -2.5,C -0.696,S 2,T 43,E1 -13052,E2 0,E3 0,E4 0,E5 0,E6 0}
DECL E6POS XE_S07_720={X 10372.01,Y 10261.93,Z 348.97,A -59.987,B -2.5,C -0.696,S 2,T 43,E1 -12801,E2 0,E3 0,E4 0,E5 0,E6 0}
DECL E6POS XE_S07_725={X 10155.47,Y 10137,Z 352,A -59.987,B -2.5,C -0.674,S 2,T 43,E1 -12550,E2 0,E3 0,E4 0,E5 0,E6 0}
DECL E6POS XE_S07_730={X 10078.65,Y 10092.68,Z 353.04,A -59.987,B -2.5,C -0.674,S 2,T 43,E1 -12461,E2 0,E3 0,E4 0,E5 0,E6 0}
DECL E6POS XE_S07_735={X 10052.66,Y 10077.69,Z 353.39,A -59.987,B -2.5,C -0.674,S 2,T 43,E1 -12431,E2 0,E3 0,E4 0,E5 0,E6 0}
DECL E6POS XE_S07_740={X 10044,Y 10072.69,Z 353.51,A -59.987,B -2.5,C -0.674,S 2,T 43,E1 -12421,E2 0,E3 0,E4 0,E5 0,E6 0}
DECL E6POS XE_S07_745={X 10025.93,Y 10062.46,Z 355.74,A -59.987,B -2.5,C -0.664,S 2,T 43,E1 -12400,E2 0,E3 0,E4 0,E5 0,E6 0}
DECL E6POS XE_S07_750={X 10017.27,Y 10057.47,Z 355.85,A -59.987,B -2.5,C -0.664,S 2,T 43,E1 -12390,E2 0,E3 0,E4 0,E5 0,E6 0}
DECL E6POS XE_S07_755={X 9933,Y 10008.84,Z 356.98,A -59.987,B -2.5,C -0.664,S 2,T 43,E1 -12292,E2 0,E3 0,E4 0,E5 0,E6 0}
DECL E6POS XE_S07_760={X 9913.08,Y 9997.4,Z 358.26,A -59.987,B -2.5,C -0.625,S 2,T 43,E1 -12269,E2 0,E3 0,E4 0,E5 0,E6 0}
DECL E6POS XE_S07_765={X 9722.54,Y 9887.45,Z 360.66,A -59.987,B -2.5,C -0.625,S 2,T 43,E1 -12048,E2 0,E3 0,E4 0,E5 0,E6 0}
DECL E6POS XE_S07_770={X 9506.01,Y 9762.51,Z 363.38,A -59.987,B -2.5,C -0.625,S 2,T 43,E1 -11797,E2 0,E3 0,E4 0,E5 0,E6 0}
DECL E6POS XE_S07_775={X 9306.8,Y 9647.57,Z 365.89,A -59.987,B -2.5,C -0.625,S 2,T 43,E1 -11566,E2 0,E3 0,E4 0,E5 0,E6 0}
DECL E6POS XE_S07_780={X 9238.75,Y 9608.29,Z 366.74,A -59.987,B -2.5,C -0.625,S 2,T 43,E1 -11487,E2 0,E3 0,E4 0,E5 0,E6 0}
DECL E6POS XE_S07_785={X 9072.97,Y 9512.63,Z 368.64,A -59.987,B -2.5,C -0.557,S 2,T 43,E1 -11295,E2 0,E3 0,E4 0,E5 0,E6 0}
DECL E6POS XE_S07_790={X 8856.45,Y 9387.68,Z 371.07,A -59.987,B -2.5,C -0.558,S 2,T 43,E1 -11044,E2 0,E3 0,E4 0,E5 0,E6 0}
DECL E6POS XE_S07_795={X 8686.7,Y 9289.72,Z 372.98,A -59.987,B -2.5,C -0.558,S 2,T 43,E1 -10847,E2 0,E3 0,E4 0,E5 0,E6 0}
DECL E6POS XE_S07_800={X 8675.45,Y 9283.21,Z 372.59,A -59.987,B -2.5,C -0.525,S 2,T 43,E1 -10834,E2 0,E3 0,E4 0,E5 0,E6 0}
DECL E6POS XE_S07_805={X 8639.94,Y 9262.72,Z 372.97,A -59.987,B -2.5,C -0.525,S 2,T 43,E1 -10793,E2 0,E3 0,E4 0,E5 0,E6 0}
DECL E6POS XE_S07_810={X 8570.65,Y 9222.73,Z 373.7,A -59.987,B -2.5,C -0.525,S 2,T 43,E1 -10712,E2 0,E3 0,E4 0,E5 0,E6 0}
DECL E6POS XE_S07_815={X 8553.35,Y 9212.69,Z 372.89,A -59.987,B -2.5,C -0.525,S 2,T 43,E1 -10692,E2 0,E3 0,E4 0,E5 0,E6 0}
DECL E6POS XE_S07_820={X 8423.41,Y 9137.75,Z 374.24,A -59.987,B -2.5,C -0.499,S 2,T 43,E1 -10541,E2 0,E3 0,E4 0,E5 0,E6 0}
DECL E6POS XE_S07_825={X 8206.89,Y 9012.79,Z 376.41,A -59.987,B -2.5,C -0.499,S 2,T 43,E1 -10290,E2 0,E3 0,E4 0,E5 0,E6 0}
DECL E6POS XE_S07_830={X 7990.38,Y 8887.82,Z 378.59,A -59.987,B -2.5,C -0.5,S 2,T 43,E1 -10039,E2 0,E3 0,E4 0,E5 0,E6 0}
DECL E6POS XE_S07_835={X 7889.05,Y 8829.34,Z 379.61,A -59.987,B -2.5,C -0.5,S 2,T 43,E1 -9922,E2 0,E3 0,E4 0,E5 0,E6 0}
DECL E6POS XE_S07_840={X 7773.92,Y 8762.85,Z 380.72,A -59.987,B -2.5,C -0.48,S 2,T 43,E1 -9788,E2 0,E3 0,E4 0,E5 0,E6 0}
DECL E6POS XE_S07_845={X 7557.41,Y 8637.91,Z 383.23,A -59.987,B -2.5,C -0.459,S 2,T 43,E1 -9537,E2 0,E3 0,E4 0,E5 0,E6 0}
DECL E6POS XE_S07_850={X 7340.9,Y 8512.94,Z 385.23,A -59.987,B -2.5,C -0.459,S 2,T 43,E1 -9286,E2 0,E3 0,E4 0,E5 0,E6 0}
DECL E6POS XE_S07_855={X 7257.84,Y 8465,Z 386,A -59.987,B -2.5,C -0.459,S 2,T 43,E1 -9190,E2 0,E3 0,E4 0,E5 0,E6 0}
DECL E6POS XE_S07_860={X 7223.66,Y 8444.7,Z 386.26,A -59.987,B -2.5,C -0.459,S 2,T 43,E1 -9150,E2 0,E3 0,E4 0,E5 0,E6 0}
DECL E6POS XE_S07_865={X 7214.29,Y 8439.34,Z 387.35,A -59.987,B -2.5,C -0.459,S 2,T 43,E1 -9139,E2 0,E3 0,E4 0,E5 0,E6 0}
DECL E6POS XE_S07_870={X 7173.58,Y 8415.85,Z 387.73,A -59.987,B -2.5,C -0.459,S 2,T 43,E1 -9092,E2 0,E3 0,E4 0,E5 0,E6 0}
DECL E6POS XE_S07_875={X 7124.53,Y 8387.95,Z 388.13,A -59.987,B -2.5,C -0.42,S 2,T 43,E1 -9035,E2 0,E3 0,E4 0,E5 0,E6 0}
DECL E6POS XE_S07_880={X 6908.02,Y 8262.97,Z 389.82,A -59.987,B -2.5,C -0.378,S 2,T 43,E1 -8784,E2 0,E3 0,E4 0,E5 0,E6 0}
DECL E6POS XE_S07_885={X 6691.51,Y 8137.98,Z 391.4,A -59.987,B -2.5,C -0.309,S 2,T 43,E1 -8533,E2 0,E3 0,E4 0,E5 0,E6 0}
DECL E6POS XE_S07_890={X 6475,Y 8012.99,Z 392.75,A -59.987,B -2.5,C -0.309,S 2,T 43,E1 -8282,E2 0,E3 0,E4 0,E5 0,E6 0}
DECL E6POS XE_S07_895={X 6379.82,Y 7958.04,Z 393.34,A -59.987,B -2.5,C -0.309,S 2,T 43,E1 -8171,E2 0,E3 0,E4 0,E5 0,E6 0}
DECL E6POS XE_S07_900={X 6335.01,Y 7932.23,Z 393.26,A -59.987,B -2.5,C -0.963,S 2,T 43,E1 -8119,E2 0,E3 0,E4 0,E5 0,E6 0}
DECL E6POS XE_S07_905={X 6258.6,Y 7888.2,Z 393.99,A -59.987,B -2.5,C -0.963,S 2,T 43,E1 -8031,E2 0,E3 0,E4 0,E5 0,E6 0}
DECL E6POS XE_S07_910={X 6221.11,Y 7866.58,Z 394.65,A -59.987,B -2.5,C -0.963,S 2,T 43,E1 -7987,E2 0,E3 0,E4 0,E5 0,E6 0}
DECL E6POS XE_S07_915={X 6042.13,Y 7763.23,Z 395.43,A -59.987,B -2.5,C -0.199,S 2,T 43,E1 -7780,E2 0,E3 0,E4 0,E5 0,E6 0}
DECL E6POS XE_S07_920={X 5825.63,Y 7638.21,Z 396.22,A -59.987,B -2.5,C -0.122,S 2,T 43,E1 -7529,E2 0,E3 0,E4 0,E5 0,E6 0}
DECL E6POS XE_S07_925={X 5660.23,Y 7542.69,Z 396.63,A -59.987,B -2.5,C -0.122,S 2,T 43,E1 -7337,E2 0,E3 0,E4 0,E5 0,E6 0}
DECL E6POS XE_S07_930={X 5634.25,Y 7527.69,Z 396.69,A -59.987,B -2.5,C -0.122,S 2,T 43,E1 -7307,E2 0,E3 0,E4 0,E5 0,E6 0}
DECL E6POS XE_S07_935={X 5625.59,Y 7522.69,Z 396.71,A -59.987,B -2.5,C -0.122,S 2,T 43,E1 -7297,E2 0,E3 0,E4 0,E5 0,E6 0}
DECL E6POS XE_S07_940={X 5608.23,Y 7512.76,Z 398.75,A -59.987,B -2.5,C -0.122,S 2,T 43,E1 -7276,E2 0,E3 0,E4 0,E5 0,E6 0}
DECL E6POS XE_S07_945={X 5599.57,Y 7507.76,Z 398.77,A -59.987,B -2.5,C -0.122,S 2,T 43,E1 -7266,E2 0,E3 0,E4 0,E5 0,E6 0}
DECL E6POS XE_S07_950={X 5392.61,Y 7388.23,Z 399.28,A -59.987,B -2.5,C -0.122,S 2,T 43,E1 -7026,E2 0,E3 0,E4 0,E5 0,E6 0}
DECL E6POS XE_S07_955={X 5176.13,Y 7263.21,Z 399.97,A -59.987,B -2.5,C -0.02,S 2,T 43,E1 -6775,E2 0,E3 0,E4 0,E5 0,E6 0}
DECL E6POS XE_S07_960={X 4959.65,Y 7138.17,Z 400.06,A -59.987,B -2.5,C -0.02,S 2,T 43,E1 -6524,E2 0,E3 0,E4 0,E5 0,E6 0}
DECL E6POS XE_S07_965={X 4779.37,Y 7034,Z 399.61,A -59.987,B -2.499,C -0.674,S 2,T 43,E1 -6315,E2 0,E3 0,E4 0,E5 0,E6 0}
DECL E6POS XE_S07_970={X 4753.38,Y 7019.01,Z 399.96,A -59.987,B -2.499,C -0.674,S 2,T 43,E1 -6285,E2 0,E3 0,E4 0,E5 0,E6 0}
DECL E6POS XE_S07_975={X 4744.72,Y 7014.02,Z 400.08,A -59.987,B -2.499,C -0.674,S 2,T 43,E1 -6275,E2 0,E3 0,E4 0,E5 0,E6 0}
DECL E6POS XE_S07_980={X 4710.1,Y 6994.05,Z 403.56,A -59.987,B -2.499,C -0.674,S 2,T 43,E1 -6235,E2 0,E3 0,E4 0,E5 0,E6 0}
DECL E6POS XE_S07_985={X 4701.44,Y 6989.05,Z 403.68,A -59.987,B -2.499,C -0.674,S 2,T 43,E1 -6224,E2 0,E3 0,E4 0,E5 0,E6 0}
DECL E6POS XE_S07_990={X 4526.75,Y 6888.14,Z 403.78,A -59.987,B -2.5,C 0.083,S 2,T 43,E1 -6022,E2 0,E3 0,E4 0,E5 0,E6 0}
DECL E6POS XE_S07_995={X 4310.28,Y 6763.08,Z 403.42,A -59.987,B -2.5,C 0.083,S 2,T 43,E1 -5771,E2 0,E3 0,E4 0,E5 0,E6 0}
DECL E6POS XE_S07_1000={X 4093.82,Y 6638,Z 402.71,A -59.987,B -2.5,C 0.168,S 2,T 43,E1 -5520,E2 0,E3 0,E4 0,E5 0,E6 0}
DECL E6POS XE_S07_1005={X 3956.41,Y 6558.6,Z 402.25,A -59.987,B -2.5,C 0.168,S 2,T 43,E1 -5360,E2 0,E3 0,E4 0,E5 0,E6 0}
DECL E6POS XE_S07_1010={X 3930.44,Y 6543.59,Z 402.16,A -59.987,B -2.5,C 0.168,S 2,T 43,E1 -5330,E2 0,E3 0,E4 0,E5 0,E6 0}
DECL E6POS XE_S07_1015={X 3921.78,Y 6538.59,Z 402.13,A -59.987,B -2.5,C -4.832,S 2,T 43,E1 -5320,E2 0,E3 0,E4 0,E5 0,E6 0}
DECL E6POS XE_S07_1020={X 3887.39,Y 6519.06,Z 405.79,A -59.987,B -2.5,C -5.503,S 2,T 43,E1 -5280,E2 0,E3 0,E4 0,E5 0,E6 0}
DECL E6POS XE_S07_1025={X 3878.73,Y 6514.06,Z 405.88,A -59.987,B -2.5,C -0.503,S 2,T 43,E1 -5270,E2 0,E3 0,E4 0,E5 0,E6 0}
DECL E6POS XE_S07_1030={X 3661,Y 6388.24,Z 404.8,A -59.987,B -2.5,C 0.287,S 2,T 43,E1 -5018,E2 0,E3 0,E4 0,E5 0,E6 0}
DECL E6POS XE_S07_1035={X 3444.56,Y 6263.14,Z 403.56,A -59.987,B -2.5,C 0.287,S 2,T 43,E1 -4766,E2 0,E3 0,E4 0,E5 0,E6 0}
DECL E6POS XE_S07_1040={X 3294.73,Y 6176.57,Z 402.69,A -59.987,B -2.5,C 0.287,S 2,T 43,E1 -4593,E2 0,E3 0,E4 0,E5 0,E6 0}
DECL E6POS XE_S07_1045={X 3221.87,Y 6134.45,Z 402.14,A -59.987,B -2.5,C 0.343,S 2,T 43,E1 -4508,E2 0,E3 0,E4 0,E5 0,E6 0}
DECL E6POS XE_S07_1050={X 3195.89,Y 6119.44,Z 401.96,A -59.987,B -2.5,C 0.343,S 2,T 43,E1 -4478,E2 0,E3 0,E4 0,E5 0,E6 0}
DECL E6POS XE_S07_1055={X 3187.23,Y 6114.43,Z 401.9,A -59.987,B -2.5,C 5.343,S 2,T 43,E1 -4468,E2 0,E3 0,E4 0,E5 0,E6 0}
DECL E6POS XE_S07_1060={X 3134.94,Y 6083.79,Z 395.4,A -59.987,B -2.5,C 5.412,S 2,T 43,E1 -4407,E2 0,E3 0,E4 0,E5 0,E6 0}
DECL E6POS XE_S07_1065={X 3125.4,Y 6078.28,Z 395.43,A -59.987,B -2.5,C 0.412,S 2,T 43,E1 -4396,E2 0,E3 0,E4 0,E5 0,E6 0}
DECL E6POS XE_S07_1070={X 3012.25,Y 6012.87,Z 394.49,A -59.987,B -2.5,C 0.412,S 2,T 43,E1 -4264,E2 0,E3 0,E4 0,E5 0,E6 0}
DECL E6POS XE_S07_1075={X 2795.82,Y 5887.76,Z 392.7,A -59.987,B -2.5,C 0.412,S 2,T 43,E1 -4013,E2 0,E3 0,E4 0,E5 0,E6 0}
DECL E6POS XE_S07_1080={X 2579.39,Y 5762.65,Z 390.88,A -59.987,B -2.5,C 0.474,S 2,T 43,E1 -3762,E2 0,E3 0,E4 0,E5 0,E6 0}
DECL E6POS XE_S07_1085={X 2362.96,Y 5637.52,Z 388.82,A -59.987,B -2.5,C 0.474,S 2,T 43,E1 -3511,E2 0,E3 0,E4 0,E5 0,E6 0}
