DECL E6POS XD_s18r05u_41={X 3055.178100873,Y 9197.045498418,Z 237.947342487,A 29.968,B -0.932,C -7.252,S 2,T 43,E1 -6000,E2 0,E3 0,E4 0,E5 0,E6 0}
DECL E6POS XD_s18r05o_41={X 3112.268266136,Y 9049.824989378,Z 257.13432292,A 29.971,B -0.892,C -7.962,S 2,T 43,E1 -6000,E2 0,E3 0,E4 0,E5 0,E6 0}
DECL E6POS XD_s18r04u_41={X 2393.517965644,Y 8816.12602476,Z 225.088617058,A 29.965,B -0.982,C -7.37,S 2,T 43,E1 -5300,E2 0,E3 0,E4 0,E5 0,E6 0}
DECL E6POS XD_s18r04o_41={X 2445.218145569,Y 8662.39552419,Z 244.834201318,A 29.968,B -0.95,C -8.098,S 2,T 43,E1 -5300,E2 0,E3 0,E4 0,E5 0,E6 0}
DECL E6POS XD_s18r03u_41={X 1721.767855286,Y 8426.906766844,Z 211.243260625,A 29.961,B -1.07,C -7.462,S 2,T 43,E1 -4500,E2 0,E3 0,E4 0,E5 0,E6 0}
DECL E6POS XD_s18r03o_41={X 1765.437824385,Y 8267.406749031,Z 231.155180156,A 29.961,B -1.059,C -8.22,S 2,T 43,E1 -4500,E2 0,E3 0,E4 0,E5 0,E6 0}
DECL E6POS XD_s18r02u_36={X 773.297668983,Y 7888.697465112,Z 183.153488576,A 29.957,B -1.126,C -7.461,S 2,T 43,E1 -3500,E2 0,E3 0,E4 0,E5 0,E6 0}
DECL E6POS XD_s18r02o_41={X 813.017707836,Y 7711.167487505,Z 205.621220091,A 29.957,B -1.139,C -7.964,S 2,T 43,E1 -3500,E2 0,E3 0,E4 0,E5 0,E6 0}
DECL E6POS XD_s17r06u_41={X 3811.495720975,Y 9354.16437367,Z 278.344728327,A -60.16,B -8.252,C 0.907,S 2,T 35,E1 -7350,E2 0,E3 0,E4 0,E5 0,E6 0}
DECL E6POS XD_s17r06o_41={X 3868.095720975,Y 9227.04437367,Z 297.904728327,A -60.16,B -8.252,C 0.907,S 2,T 35,E1 -7350,E2 0,E3 0,E4 0,E5 0,E6 0}
DECL E6POS XD_s17r05u_41={X 3134.921257762,Y 8963.490069979,Z 268.015009853,A -60.154,B -7.961,C 0.901,S 2,T 35,E1 -6550,E2 0,E3 0,E4 0,E5 0,E6 0}
DECL E6POS XD_s17r05o_41={X 3182.541050616,Y 8833.544835273,Z 286.74311249,A -60.124,B -6.528,C 0.854,S 2,T 35,E1 -6550,E2 0,E3 0,E4 0,E5 0,E6 0}
DECL E6POS XD_s17r04u_41={X 2458.785006121,Y 8582.478397994,Z 254.411506058,A -60.168,B -8.097,C 0.96,S 2,T 35,E1 -5650,E2 0,E3 0,E4 0,E5 0,E6 0}
DECL E6POS XD_s17r04o_41={X 2507.154614274,Y 8431.213503949,Z 275.937799614,A -60.138,B -6.674,C 0.92,S 2,T 35,E1 -5650,E2 0,E3 0,E4 0,E5 0,E6 0}
DECL E6POS XD_s17r03u_41={X 1755.27010605,Y 8181.25783843,Z 239.510428519,A -60.192,B -8.219,C 1.07,S 2,T 35,E1 -4850,E2 0,E3 0,E4 0,E5 0,E6 0}
DECL E6POS XD_s17r03o_36={X 1797.119424107,Y 8019.413480202,Z 261.95734677,A -60.162,B -6.792,C 1.045,S 2,T 35,E1 -4850,E2 0,E3 0,E4 0,E5 0,E6 0}
DECL E6POS XD_s17r02u_41={X 806.808617902,Y 7634.634260975,Z 213.664837003,A -60.203,B -7.962,C 1.15,S 2,T 35,E1 -3800,E2 0,E3 0,E4 0,E5 0,E6 0}
DECL E6POS XD_s17r02o_41={X 838.604423911,Y 7465.669496562,Z 235.023078511,A -60.197,B -7.683,C 1.149,S 2,T 35,E1 -3800,E2 0,E3 0,E4 0,E5 0,E6 0}
DECL E6POS XD_s16r06u_41={X 3895.126263345,Y 9125.489685275,Z 310.082262128,A -60.114,B -6.187,C 0.824,S 2,T 35,E1 -6850,E2 0,E3 0,E4 0,E5 0,E6 0}
DECL E6POS XD_s16r06o_41={X 3949.086263345,Y 8997.709685275,Z 325.002262128,A -60.114,B -6.187,C 0.824,S 2,T 35,E1 -6850,E2 0,E3 0,E4 0,E5 0,E6 0}
DECL E6POS XD_s16r05u_41={X 3203.941050616,Y 8725.044835273,Z 299.40311249,A -60.124,B -6.528,C 0.854,S 2,T 35,E1 -6000,E2 0,E3 0,E4 0,E5 0,E6 0}
DECL E6POS XD_s16r05o_41={X 3252.415906253,Y 8592.889610154,Z 314.763303232,A -60.112,B -6.181,C 0.812,S 2,T 35,E1 -6000,E2 0,E3 0,E4 0,E5 0,E6 0}
DECL E6POS XD_s16r04u_36={X 2519.044614274,Y 8346.673503949,Z 285.657799614,A -60.138,B -6.674,C 0.92,S 2,T 35,E1 -5300,E2 0,E3 0,E4 0,E5 0,E6 0}
DECL E6POS XD_s16r04o_41={X 2564.7895007,Y 8186.038229751,Z 303.766064932,A -60.126,B -6.338,C 0.883,S 2,T 35,E1 -5300,E2 0,E3 0,E4 0,E5 0,E6 0}
DECL E6POS XD_s16r03u_41={X 1789.179424107,Y 7909.203480202,Z 272.67734677,A -60.162,B -6.792,C 1.045,S 2,T 35,E1 -4350,E2 0,E3 0,E4 0,E5 0,E6 0}
DECL E6POS XD_s16r03o_41={X 1821.264730123,Y 7763.888178286,Z 288.672476665,A -60.152,B -6.474,C 1.019,S 2,T 35,E1 -4350,E2 0,E3 0,E4 0,E5 0,E6 0}
DECL E6POS XD_s16r02u_41={X 827.534423911,Y 7360.159496562,Z 245.453078511,A -60.197,B -7.683,C 1.149,S 2,T 35,E1 -3350,E2 0,E3 0,E4 0,E5 0,E6 0}
DECL E6POS XD_s16r02o_41={X 862.360284904,Y 7203.184285224,Z 265.009967111,A -60.19,B -7.412,C 1.14,S 2,T 35,E1 -3350,E2 0,E3 0,E4 0,E5 0,E6 0}
DECL E6POS XVorpos_Unten={X 751.540135973,Y 7522.687935095,Z 3444.112628428,A 34.729,B 85.045,C -0.913,S 2,T 35,E1 -5000,E2 0,E3 0,E4 0,E5 0,E6 0}
DECL E6POS XP10={X 1018.307299889,Y 7293.758623623,Z 3683.857278751,A 111.699,B 0.099,C 85.836,S 2,T 43,E1 -4500,E2 0,E3 0,E4 0,E5 0,E6 0}
DECL E6POS XP20={X 990.912984665,Y 6226.976935591,Z 3692.28850048,A 111.981,B 0.106,C 85.837,S 2,T 43,E1 -3500,E2 0,E3 0,E4 0,E5 0,E6 0}
DECL E6POS XD_s18r05u_5={X 3204.878100873,Y 9271.465498418,Z 241.987342487,A 29.968,B -0.932,C -7.252,S 2,T 43,E1 -6000,E2 0,E3 0,E4 0,E5 0,E6 0}
DECL E6POS XD_s18r05u_10={X 3192.418100873,Y 9270.885498418,Z 241.077342487,A 29.968,B -0.932,C -7.252,S 2,T 43,E1 -6000,E2 0,E3 0,E4 0,E5 0,E6 0}
DECL E6POS XD_s18r05u_15={X 3173.108100873,Y 9270.805498418,Z 239.587342487,A 29.968,B -0.932,C -7.252,S 2,T 43,E1 -6000,E2 0,E3 0,E4 0,E5 0,E6 0}
DECL E6POS XD_s18r05u_20={X 3157.618100873,Y 9268.715498418,Z 238.597342487,A 29.968,B -0.932,C -7.252,S 2,T 43,E1 -6000,E2 0,E3 0,E4 0,E5 0,E6 0}
DECL E6POS XD_s18r05u_25={X 3143.168100873,Y 9262.695498418,Z 238.097342487,A 29.968,B -0.932,C -7.252,S 2,T 43,E1 -6000,E2 0,E3 0,E4 0,E5 0,E6 0}
DECL E6POS XD_s18r05u_30={X 3081.998100873,Y 9227.305498418,Z 236.947342487,A 29.968,B -0.932,C -7.252,S 2,T 43,E1 -6000,E2 0,E3 0,E4 0,E5 0,E6 0}
DECL E6POS XD_s18r05u_35={X 3069.578100873,Y 9217.765498418,Z 236.957342487,A 29.968,B -0.932,C -7.252,S 2,T 43,E1 -6000,E2 0,E3 0,E4 0,E5 0,E6 0}
DECL E6POS XD_s18r05u_40={X 3060.008100873,Y 9205.375498418,Z 237.487342487,A 29.968,B -0.932,C -7.252,S 2,T 43,E1 -6000,E2 0,E3 0,E4 0,E5 0,E6 0}
DECL E6POS XD_s18r05o_5={X 3252.938266136,Y 9140.834989378,Z 258.73432292,A 29.971,B -0.892,C -7.962,S 2,T 43,E1 -6000,E2 0,E3 0,E4 0,E5 0,E6 0}
DECL E6POS XD_s18r05o_10={X 3244.018266136,Y 9129.534989378,Z 259.17432292,A 29.971,B -0.892,C -7.962,S 2,T 43,E1 -6000,E2 0,E3 0,E4 0,E5 0,E6 0}
DECL E6POS XD_s18r05o_15={X 3236.658266136,Y 9118.154989378,Z 259.74432292,A 29.971,B -0.892,C -7.962,S 2,T 43,E1 -6000,E2 0,E3 0,E4 0,E5 0,E6 0}
DECL E6POS XD_s18r05o_20={X 3226.708266136,Y 9104.404989378,Z 260.35432292,A 29.971,B -0.892,C -7.962,S 2,T 43,E1 -6000,E2 0,E3 0,E4 0,E5 0,E6 0}
DECL E6POS XD_s18r05o_25={X 3213.338266136,Y 9093.904989378,Z 260.38432292,A 29.971,B -0.892,C -7.962,S 2,T 43,E1 -6000,E2 0,E3 0,E4 0,E5 0,E6 0}
DECL E6POS XD_s18r05o_30={X 3151.468266136,Y 9058.114989378,Z 259.26432292,A 29.971,B -0.892,C -7.962,S 2,T 43,E1 -6000,E2 0,E3 0,E4 0,E5 0,E6 0}
DECL E6POS XD_s18r05o_35={X 3137.018266136,Y 9052.094989378,Z 258.76432292,A 29.971,B -0.892,C -7.962,S 2,T 43,E1 -6000,E2 0,E3 0,E4 0,E5 0,E6 0}
DECL E6POS XD_s18r05o_40={X 3121.528266136,Y 9050.004989378,Z 257.81432292,A 29.971,B -0.892,C -7.962,S 2,T 43,E1 -6000,E2 0,E3 0,E4 0,E5 0,E6 0}
DECL E6POS XD_s18r04u_5={X 2563.327965644,Y 8900.64602476,Z 229.828617058,A 29.965,B -0.982,C -7.37,S 2,T 43,E1 -5300,E2 0,E3 0,E4 0,E5 0,E6 0}
DECL E6POS XD_s18r04u_10={X 2551.517965644,Y 8900.07602476,Z 228.948617058,A 29.965,B -0.982,C -7.37,S 2,T 43,E1 -5300,E2 0,E3 0,E4 0,E5 0,E6 0}
DECL E6POS XD_s18r04u_15={X 2522.437965644,Y 8899.96602476,Z 226.658617058,A 29.965,B -0.982,C -7.37,S 2,T 43,E1 -5300,E2 0,E3 0,E4 0,E5 0,E6 0}
DECL E6POS XD_s18r04u_20={X 2506.947965644,Y 8897.86602476,Z 225.638617058,A 29.965,B -0.982,C -7.37,S 2,T 43,E1 -5300,E2 0,E3 0,E4 0,E5 0,E6 0}
DECL E6POS XD_s18r04u_25={X 2492.497965644,Y 8891.84602476,Z 225.118617058,A 29.965,B -0.982,C -7.37,S 2,T 43,E1 -5300,E2 0,E3 0,E4 0,E5 0,E6 0}
DECL E6POS XD_s18r04u_30={X 2423.587965644,Y 8851.96602476,Z 223.758617058,A 29.965,B -0.982,C -7.37,S 2,T 43,E1 -5300,E2 0,E3 0,E4 0,E5 0,E6 0}
DECL E6POS XD_s18r04u_35={X 2411.147965644,Y 8842.44602476,Z 223.758617058,A 29.965,B -0.982,C -7.37,S 2,T 43,E1 -5300,E2 0,E3 0,E4 0,E5 0,E6 0}
DECL E6POS XD_s18r04u_40={X 2401.607965644,Y 8830.03602476,Z 224.288617058,A 29.965,B -0.982,C -7.37,S 2,T 43,E1 -5300,E2 0,E3 0,E4 0,E5 0,E6 0}
DECL E6POS XD_s18r04o_5={X 2600.788145569,Y 8759.22552419,Z 247.124201318,A 29.968,B -0.95,C -8.098,S 2,T 43,E1 -5300,E2 0,E3 0,E4 0,E5 0,E6 0}
DECL E6POS XD_s18r04o_10={X 2591.098145569,Y 8744.67552419,Z 247.834201318,A 29.968,B -0.95,C -8.098,S 2,T 43,E1 -5300,E2 0,E3 0,E4 0,E5 0,E6 0}
DECL E6POS XD_s18r04o_15={X 2585.018145569,Y 8734.20552419,Z 248.414201318,A 29.968,B -0.95,C -8.098,S 2,T 43,E1 -5300,E2 0,E3 0,E4 0,E5 0,E6 0}
DECL E6POS XD_s18r04o_20={X 2575.438145569,Y 8721.81552419,Z 248.924201318,A 29.968,B -0.95,C -8.098,S 2,T 43,E1 -5300,E2 0,E3 0,E4 0,E5 0,E6 0}
DECL E6POS XD_s18r04o_25={X 2563.028145569,Y 8712.27552419,Z 248.924201318,A 29.968,B -0.95,C -8.098,S 2,T 43,E1 -5300,E2 0,E3 0,E4 0,E5 0,E6 0}
DECL E6POS XD_s18r04o_30={X 2491.038145569,Y 8670.61552419,Z 247.544201318,A 29.968,B -0.95,C -8.098,S 2,T 43,E1 -5300,E2 0,E3 0,E4 0,E5 0,E6 0}
DECL E6POS XD_s18r04o_35={X 2476.588145569,Y 8664.59552419,Z 247.034201318,A 29.968,B -0.95,C -8.098,S 2,T 43,E1 -5300,E2 0,E3 0,E4 0,E5 0,E6 0}
DECL E6POS XD_s18r04o_40={X 2461.098145569,Y 8662.49552419,Z 246.044201318,A 29.968,B -0.95,C -8.098,S 2,T 43,E1 -5300,E2 0,E3 0,E4 0,E5 0,E6 0}
DECL E6POS XD_s18r03u_5={X 1890.167855286,Y 8508.356766844,Z 216.483260625,A 29.961,B -1.07,C -7.462,S 2,T 43,E1 -4500,E2 0,E3 0,E4 0,E5 0,E6 0}
DECL E6POS XD_s18r03u_10={X 1872.597855286,Y 8507.226766844,Z 215.173260625,A 29.961,B -1.07,C -7.462,S 2,T 43,E1 -4500,E2 0,E3 0,E4 0,E5 0,E6 0}
DECL E6POS XD_s18r03u_15={X 1844.507855286,Y 8507.116766844,Z 212.903260625,A 29.961,B -1.07,C -7.462,S 2,T 43,E1 -4500,E2 0,E3 0,E4 0,E5 0,E6 0}
DECL E6POS XD_s18r03u_20={X 1829.027855286,Y 8505.016766844,Z 211.863260625,A 29.961,B -1.07,C -7.462,S 2,T 43,E1 -4500,E2 0,E3 0,E4 0,E5 0,E6 0}
DECL E6POS XD_s18r03u_25={X 1814.577855286,Y 8498.986766844,Z 211.313260625,A 29.961,B -1.07,C -7.462,S 2,T 43,E1 -4500,E2 0,E3 0,E4 0,E5 0,E6 0}
DECL E6POS XD_s18r03u_30={X 1751.797855286,Y 8462.656766844,Z 209.963260625,A 29.961,B -1.07,C -7.462,S 2,T 43,E1 -4500,E2 0,E3 0,E4 0,E5 0,E6 0}
DECL E6POS XD_s18r03u_35={X 1739.367855286,Y 8453.126766844,Z 209.943260625,A 29.961,B -1.07,C -7.462,S 2,T 43,E1 -4500,E2 0,E3 0,E4 0,E5 0,E6 0}
DECL E6POS XD_s18r03u_40={X 1729.807855286,Y 8440.726766844,Z 210.453260625,A 29.961,B -1.07,C -7.462,S 2,T 43,E1 -4500,E2 0,E3 0,E4 0,E5 0,E6 0}
DECL E6POS XD_s18r03o_5={X 1909.157824385,Y 8361.146749031,Z 233.115180156,A 29.961,B -1.059,C -8.22,S 2,T 43,E1 -4500,E2 0,E3 0,E4 0,E5 0,E6 0}
DECL E6POS XD_s18r03o_10={X 1900.877824385,Y 8349.796749031,Z 233.605180156,A 29.961,B -1.059,C -8.22,S 2,T 43,E1 -4500,E2 0,E3 0,E4 0,E5 0,E6 0}
DECL E6POS XD_s18r03o_15={X 1893.297824385,Y 8337.216749031,Z 234.285180156,A 29.961,B -1.059,C -8.22,S 2,T 43,E1 -4500,E2 0,E3 0,E4 0,E5 0,E6 0}
DECL E6POS XD_s18r03o_20={X 1883.737824385,Y 8324.856749031,Z 234.775180156,A 29.961,B -1.059,C -8.22,S 2,T 43,E1 -4500,E2 0,E3 0,E4 0,E5 0,E6 0}
DECL E6POS XD_s18r03o_25={X 1871.327824385,Y 8315.336749031,Z 234.745180156,A 29.961,B -1.059,C -8.22,S 2,T 43,E1 -4500,E2 0,E3 0,E4 0,E5 0,E6 0}
DECL E6POS XD_s18r03o_30={X 1802.657824385,Y 8275.556749031,Z 233.295180156,A 29.961,B -1.059,C -8.22,S 2,T 43,E1 -4500,E2 0,E3 0,E4 0,E5 0,E6 0}
DECL E6POS XD_s18r03o_35={X 1788.207824385,Y 8269.526749031,Z 232.755180156,A 29.961,B -1.059,C -8.22,S 2,T 43,E1 -4500,E2 0,E3 0,E4 0,E5 0,E6 0}
DECL E6POS XD_s18r03o_40={X 1772.717824385,Y 8267.436749031,Z 231.725180156,A 29.961,B -1.059,C -8.22,S 2,T 43,E1 -4500,E2 0,E3 0,E4 0,E5 0,E6 0}
DECL E6POS XD_s18r02u_5={X 966.387668983,Y 7983.087465112,Z 189.303488576,A 29.957,B -1.126,C -7.461,S 2,T 43,E1 -3500,E2 0,E3 0,E4 0,E5 0,E6 0}
DECL E6POS XD_s18r02u_10={X 915.557668983,Y 7982.877465112,Z 185.113488576,A 29.957,B -1.126,C -7.461,S 2,T 43,E1 -3500,E2 0,E3 0,E4 0,E5 0,E6 0}
DECL E6POS XD_s18r02u_15={X 900.077668983,Y 7980.777465112,Z 184.063488576,A 29.957,B -1.126,C -7.461,S 2,T 43,E1 -3500,E2 0,E3 0,E4 0,E5 0,E6 0}
DECL E6POS XD_s18r02u_20={X 885.627668983,Y 7974.757465112,Z 183.483488576,A 29.957,B -1.126,C -7.461,S 2,T 43,E1 -3500,E2 0,E3 0,E4 0,E5 0,E6 0}
DECL E6POS XD_s18r02u_25={X 805.667668983,Y 7928.487465112,Z 181.683488576,A 29.957,B -1.126,C -7.461,S 2,T 43,E1 -3500,E2 0,E3 0,E4 0,E5 0,E6 0}
DECL E6POS XD_s18r02u_30={X 793.247668983,Y 7918.957465112,Z 181.643488576,A 29.957,B -1.126,C -7.461,S 2,T 43,E1 -3500,E2 0,E3 0,E4 0,E5 0,E6 0}
DECL E6POS XD_s18r02u_35={X 783.687668983,Y 7906.547465112,Z 182.153488576,A 29.957,B -1.126,C -7.461,S 2,T 43,E1 -3500,E2 0,E3 0,E4 0,E5 0,E6 0}
DECL E6POS XD_s18r02o_5={X 986.587707836,Y 7820.807487505,Z 208.501220091,A 29.957,B -1.139,C -7.964,S 2,T 43,E1 -3500,E2 0,E3 0,E4 0,E5 0,E6 0}
DECL E6POS XD_s18r02o_10={X 981.537707836,Y 7813.017487505,Z 208.941220091,A 29.957,B -1.139,C -7.964,S 2,T 43,E1 -3500,E2 0,E3 0,E4 0,E5 0,E6 0}
DECL E6POS XD_s18r02o_15={X 968.297707836,Y 7790.277487505,Z 210.351220091,A 29.957,B -1.139,C -7.964,S 2,T 43,E1 -3500,E2 0,E3 0,E4 0,E5 0,E6 0}
DECL E6POS XD_s18r02o_20={X 958.737707836,Y 7777.887487505,Z 210.901220091,A 29.957,B -1.139,C -7.964,S 2,T 43,E1 -3500,E2 0,E3 0,E4 0,E5 0,E6 0}
DECL E6POS XD_s18r02o_25={X 946.307707836,Y 7768.357487505,Z 210.881220091,A 29.957,B -1.139,C -7.964,S 2,T 43,E1 -3500,E2 0,E3 0,E4 0,E5 0,E6 0}
DECL E6POS XD_s18r02o_30={X 861.697707836,Y 7719.377487505,Z 208.971220091,A 29.957,B -1.139,C -7.964,S 2,T 43,E1 -3500,E2 0,E3 0,E4 0,E5 0,E6 0}
DECL E6POS XD_s18r02o_35={X 847.257707836,Y 7713.357487505,Z 208.381220091,A 29.957,B -1.139,C -7.964,S 2,T 43,E1 -3500,E2 0,E3 0,E4 0,E5 0,E6 0}
DECL E6POS XD_s18r02o_40={X 831.767707836,Y 7711.257487505,Z 207.251220091,A 29.957,B -1.139,C -7.964,S 2,T 43,E1 -3500,E2 0,E3 0,E4 0,E5 0,E6 0}
DECL E6POS XD_s17r06u_5={X 3954.225720975,Y 9428.56437367,Z 281.844728327,A -60.16,B -8.252,C 0.907,S 2,T 35,E1 -7350,E2 0,E3 0,E4 0,E5 0,E6 0}
DECL E6POS XD_s17r06u_10={X 3938.035720975,Y 9425.62437367,Z 280.804728327,A -60.16,B -8.252,C 0.907,S 2,T 35,E1 -7350,E2 0,E3 0,E4 0,E5 0,E6 0}
DECL E6POS XD_s17r06u_15={X 3921.315720975,Y 9424.39437367,Z 279.514728327,A -60.16,B -8.252,C 0.907,S 2,T 35,E1 -7350,E2 0,E3 0,E4 0,E5 0,E6 0}
DECL E6POS XD_s17r06u_20={X 3906.115720975,Y 9422.23437367,Z 278.464728327,A -60.16,B -8.252,C 0.907,S 2,T 35,E1 -7350,E2 0,E3 0,E4 0,E5 0,E6 0}
DECL E6POS XD_s17r06u_25={X 3891.925720975,Y 9416.27437367,Z 277.944728327,A -60.16,B -8.252,C 0.907,S 2,T 35,E1 -7350,E2 0,E3 0,E4 0,E5 0,E6 0}
DECL E6POS XD_s17r06u_30={X 3840.245720975,Y 9386.37437367,Z 277.024728327,A -60.16,B -8.252,C 0.907,S 2,T 35,E1 -7350,E2 0,E3 0,E4 0,E5 0,E6 0}
DECL E6POS XD_s17r06u_35={X 3828.015720975,Y 9377.03437367,Z 277.064728327,A -60.16,B -8.252,C 0.907,S 2,T 35,E1 -7350,E2 0,E3 0,E4 0,E5 0,E6 0}
DECL E6POS XD_s17r06u_40={X 3818.535720975,Y 9364.93437367,Z 277.674728327,A -60.16,B -8.252,C 0.907,S 2,T 35,E1 -7350,E2 0,E3 0,E4 0,E5 0,E6 0}
DECL E6POS XD_s17r06o_5={X 4000.635720975,Y 9309.97437367,Z 299.484728327,A -60.16,B -8.252,C 0.907,S 2,T 35,E1 -7350,E2 0,E3 0,E4 0,E5 0,E6 0}
DECL E6POS XD_s17r06o_10={X 3990.865720975,Y 9299.27437367,Z 299.894728327,A -60.16,B -8.252,C 0.907,S 2,T 35,E1 -7350,E2 0,E3 0,E4 0,E5 0,E6 0}
DECL E6POS XD_s17r06o_15={X 3980.815720975,Y 9285.62437367,Z 300.614728327,A -60.16,B -8.252,C 0.907,S 2,T 35,E1 -7350,E2 0,E3 0,E4 0,E5 0,E6 0}
DECL E6POS XD_s17r06o_20={X 3971.755720975,Y 9274.76437367,Z 301.094728327,A -60.16,B -8.252,C 0.907,S 2,T 35,E1 -7350,E2 0,E3 0,E4 0,E5 0,E6 0}
DECL E6POS XD_s17r06o_25={X 3960.425720975,Y 9266.29437367,Z 301.124728327,A -60.16,B -8.252,C 0.907,S 2,T 35,E1 -7350,E2 0,E3 0,E4 0,E5 0,E6 0}
DECL E6POS XD_s17r06o_30={X 3908.915720975,Y 9236.50437367,Z 300.234728327,A -60.16,B -8.252,C 0.907,S 2,T 35,E1 -7350,E2 0,E3 0,E4 0,E5 0,E6 0}
DECL E6POS XD_s17r06o_35={X 3895.935720975,Y 9230.89437367,Z 299.784728327,A -60.16,B -8.252,C 0.907,S 2,T 35,E1 -7350,E2 0,E3 0,E4 0,E5 0,E6 0}
DECL E6POS XD_s17r06o_40={X 3882.025720975,Y 9228.47437367,Z 298.904728327,A -60.16,B -8.252,C 0.907,S 2,T 35,E1 -7350,E2 0,E3 0,E4 0,E5 0,E6 0}
DECL E6POS XD_s17r05u_5={X 3280.101257762,Y 9038.380069979,Z 271.625009853,A -60.154,B -7.961,C 0.901,S 2,T 35,E1 -6550,E2 0,E3 0,E4 0,E5 0,E6 0}
DECL E6POS XD_s17r05u_10={X 3260.901257762,Y 9034.890069979,Z 270.425009853,A -60.154,B -7.961,C 0.901,S 2,T 35,E1 -6550,E2 0,E3 0,E4 0,E5 0,E6 0}
DECL E6POS XD_s17r05u_15={X 3242.621257762,Y 9033.890069979,Z 269.015009853,A -60.154,B -7.961,C 0.901,S 2,T 35,E1 -6550,E2 0,E3 0,E4 0,E5 0,E6 0}
DECL E6POS XD_s17r05u_20={X 3227.131257762,Y 9031.790069979,Z 267.975009853,A -60.154,B -7.961,C 0.901,S 2,T 35,E1 -6550,E2 0,E3 0,E4 0,E5 0,E6 0}
DECL E6POS XD_s17r05u_25={X 3212.691257762,Y 9025.770069979,Z 267.445009853,A -60.154,B -7.961,C 0.901,S 2,T 35,E1 -6550,E2 0,E3 0,E4 0,E5 0,E6 0}
DECL E6POS XD_s17r05u_30={X 3164.991257762,Y 8998.170069979,Z 266.595009853,A -60.154,B -7.961,C 0.901,S 2,T 35,E1 -6550,E2 0,E3 0,E4 0,E5 0,E6 0}
DECL E6POS XD_s17r05u_35={X 3151.811257762,Y 8987.880069979,Z 266.655009853,A -60.154,B -7.961,C 0.901,S 2,T 35,E1 -6550,E2 0,E3 0,E4 0,E5 0,E6 0}
DECL E6POS XD_s17r05u_40={X 3141.921257762,Y 8974.390069979,Z 267.375009853,A -60.154,B -7.961,C 0.901,S 2,T 35,E1 -6550,E2 0,E3 0,E4 0,E5 0,E6 0}
DECL E6POS XD_s17r05o_5={X 3321.001050616,Y 8918.604835273,Z 288.59311249,A -60.124,B -6.528,C 0.854,S 2,T 35,E1 -6550,E2 0,E3 0,E4 0,E5 0,E6 0}
DECL E6POS XD_s17r05o_10={X 3308.561050616,Y 8905.854835273,Z 288.99311249,A -60.124,B -6.528,C 0.854,S 2,T 35,E1 -6550,E2 0,E3 0,E4 0,E5 0,E6 0}
DECL E6POS XD_s17r05o_15={X 3297.361050616,Y 8891.304835273,Z 289.69311249,A -60.124,B -6.528,C 0.854,S 2,T 35,E1 -6550,E2 0,E3 0,E4 0,E5 0,E6 0}
DECL E6POS XD_s17r05o_20={X 3288.451050616,Y 8880.814835273,Z 290.12311249,A -60.124,B -6.528,C 0.854,S 2,T 35,E1 -6550,E2 0,E3 0,E4 0,E5 0,E6 0}
DECL E6POS XD_s17r05o_25={X 3277.391050616,Y 8872.614835273,Z 290.14311249,A -60.124,B -6.528,C 0.854,S 2,T 35,E1 -6550,E2 0,E3 0,E4 0,E5 0,E6 0}
DECL E6POS XD_s17r05o_30={X 3228.141050616,Y 8844.134835273,Z 289.28311249,A -60.124,B -6.528,C 0.854,S 2,T 35,E1 -6550,E2 0,E3 0,E4 0,E5 0,E6 0}
DECL E6POS XD_s17r05o_35={X 3215.531050616,Y 8838.634835273,Z 288.86311249,A -60.124,B -6.528,C 0.854,S 2,T 35,E1 -6550,E2 0,E3 0,E4 0,E5 0,E6 0}
DECL E6POS XD_s17r05o_40={X 3202.011050616,Y 8836.144835273,Z 288.04311249,A -60.124,B -6.528,C 0.854,S 2,T 35,E1 -6550,E2 0,E3 0,E4 0,E5 0,E6 0}
DECL E6POS XD_s17r04u_5={X 2614.535006121,Y 8663.988397994,Z 258.351506058,A -60.168,B -8.097,C 0.96,S 2,T 35,E1 -5650,E2 0,E3 0,E4 0,E5 0,E6 0}
DECL E6POS XD_s17r04u_10={X 2604.815006121,Y 8663.608397994,Z 257.571506058,A -60.168,B -8.097,C 0.96,S 2,T 35,E1 -5650,E2 0,E3 0,E4 0,E5 0,E6 0}
DECL E6POS XD_s17r04u_15={X 2587.755006121,Y 8663.518397994,Z 256.121506058,A -60.168,B -8.097,C 0.96,S 2,T 35,E1 -5650,E2 0,E3 0,E4 0,E5 0,E6 0}
DECL E6POS XD_s17r04u_20={X 2572.275006121,Y 8661.418397994,Z 255.041506058,A -60.168,B -8.097,C 0.96,S 2,T 35,E1 -5650,E2 0,E3 0,E4 0,E5 0,E6 0}
DECL E6POS XD_s17r04u_25={X 2557.825006121,Y 8655.398397994,Z 254.501506058,A -60.168,B -8.097,C 0.96,S 2,T 35,E1 -5650,E2 0,E3 0,E4 0,E5 0,E6 0}
DECL E6POS XD_s17r04u_30={X 2486.415006121,Y 8614.068397994,Z 253.151506058,A -60.168,B -8.097,C 0.96,S 2,T 35,E1 -5650,E2 0,E3 0,E4 0,E5 0,E6 0}
DECL E6POS XD_s17r04u_35={X 2473.975006121,Y 8604.538397994,Z 253.181506058,A -60.168,B -8.097,C 0.96,S 2,T 35,E1 -5650,E2 0,E3 0,E4 0,E5 0,E6 0}
DECL E6POS XD_s17r04u_40={X 2464.425006121,Y 8592.148397994,Z 253.791506058,A -60.168,B -8.097,C 0.96,S 2,T 35,E1 -5650,E2 0,E3 0,E4 0,E5 0,E6 0}
DECL E6POS XD_s17r04o_5={X 2660.494614274,Y 8524.543503949,Z 278.247799614,A -60.138,B -6.674,C 0.92,S 2,T 35,E1 -5650,E2 0,E3 0,E4 0,E5 0,E6 0}
DECL E6POS XD_s17r04o_10={X 2653.254614274,Y 8513.563503949,Z 278.877799614,A -60.138,B -6.674,C 0.92,S 2,T 35,E1 -5650,E2 0,E3 0,E4 0,E5 0,E6 0}
DECL E6POS XD_s17r04o_15={X 2647.094614274,Y 8502.983503949,Z 279.547799614,A -60.138,B -6.674,C 0.92,S 2,T 35,E1 -5650,E2 0,E3 0,E4 0,E5 0,E6 0}
DECL E6POS XD_s17r04o_20={X 2638.704614274,Y 8491.783503949,Z 280.097799614,A -60.138,B -6.674,C 0.92,S 2,T 35,E1 -5650,E2 0,E3 0,E4 0,E5 0,E6 0}
DECL E6POS XD_s17r04o_25={X 2625.094614274,Y 8481.043503949,Z 280.167799614,A -60.138,B -6.674,C 0.92,S 2,T 35,E1 -5650,E2 0,E3 0,E4 0,E5 0,E6 0}
DECL E6POS XD_s17r04o_30={X 2553.214614274,Y 8439.453503949,Z 278.847799614,A -60.138,B -6.674,C 0.92,S 2,T 35,E1 -5650,E2 0,E3 0,E4 0,E5 0,E6 0}
DECL E6POS XD_s17r04o_35={X 2538.764614274,Y 8433.433503949,Z 278.327799614,A -60.138,B -6.674,C 0.92,S 2,T 35,E1 -5650,E2 0,E3 0,E4 0,E5 0,E6 0}
DECL E6POS XD_s17r04o_40={X 2523.284614274,Y 8431.343503949,Z 277.267799614,A -60.138,B -6.674,C 0.92,S 2,T 35,E1 -5650,E2 0,E3 0,E4 0,E5 0,E6 0}
DECL E6POS XD_s17r03u_5={X 1913.54010605,Y 8257.29783843,Z 244.630428519,A -60.192,B -8.219,C 1.07,S 2,T 35,E1 -4850,E2 0,E3 0,E4 0,E5 0,E6 0}
DECL E6POS XD_s17r03u_10={X 1901.46010605,Y 8256.63783843,Z 243.650428519,A -60.192,B -8.219,C 1.07,S 2,T 35,E1 -4850,E2 0,E3 0,E4 0,E5 0,E6 0}
DECL E6POS XD_s17r03u_15={X 1875.14010605,Y 8256.50783843,Z 241.350428519,A -60.192,B -8.219,C 1.07,S 2,T 35,E1 -4850,E2 0,E3 0,E4 0,E5 0,E6 0}
DECL E6POS XD_s17r03u_20={X 1859.66010605,Y 8254.40783843,Z 240.240428519,A -60.192,B -8.219,C 1.07,S 2,T 35,E1 -4850,E2 0,E3 0,E4 0,E5 0,E6 0}
DECL E6POS XD_s17r03u_25={X 1845.21010605,Y 8248.38783843,Z 239.660428519,A -60.192,B -8.219,C 1.07,S 2,T 35,E1 -4850,E2 0,E3 0,E4 0,E5 0,E6 0}
DECL E6POS XD_s17r03u_30={X 1782.45010605,Y 8212.05783843,Z 238.330428519,A -60.192,B -8.219,C 1.07,S 2,T 35,E1 -4850,E2 0,E3 0,E4 0,E5 0,E6 0}
DECL E6POS XD_s17r03u_35={X 1770.02010605,Y 8202.52783843,Z 238.340428519,A -60.192,B -8.219,C 1.07,S 2,T 35,E1 -4850,E2 0,E3 0,E4 0,E5 0,E6 0}
DECL E6POS XD_s17r03u_40={X 1760.45010605,Y 8190.13783843,Z 238.930428519,A -60.192,B -8.219,C 1.07,S 2,T 35,E1 -4850,E2 0,E3 0,E4 0,E5 0,E6 0}
DECL E6POS XD_s17r03o_5={X 1938.419424107,Y 8111.223480202,Z 263.74734677,A -60.162,B -6.792,C 1.045,S 2,T 35,E1 -4850,E2 0,E3 0,E4 0,E5 0,E6 0}
DECL E6POS XD_s17r03o_10={X 1923.349424107,Y 8088.863480202,Z 264.98734677,A -60.162,B -6.792,C 1.045,S 2,T 35,E1 -4850,E2 0,E3 0,E4 0,E5 0,E6 0}
DECL E6POS XD_s17r03o_15={X 1913.779424107,Y 8076.473480202,Z 265.56734677,A -60.162,B -6.792,C 1.045,S 2,T 35,E1 -4850,E2 0,E3 0,E4 0,E5 0,E6 0}
DECL E6POS XD_s17r03o_20={X 1901.359424107,Y 8066.943480202,Z 265.56734677,A -60.162,B -6.792,C 1.045,S 2,T 35,E1 -4850,E2 0,E3 0,E4 0,E5 0,E6 0}
DECL E6POS XD_s17r03o_25={X 1833.349424107,Y 8027.583480202,Z 264.16734677,A -60.162,B -6.792,C 1.045,S 2,T 35,E1 -4850,E2 0,E3 0,E4 0,E5 0,E6 0}
DECL E6POS XD_s17r03o_30={X 1818.899424107,Y 8021.573480202,Z 263.58734677,A -60.162,B -6.792,C 1.045,S 2,T 35,E1 -4850,E2 0,E3 0,E4 0,E5 0,E6 0}
DECL E6POS XD_s17r03o_35={X 1803.419424107,Y 8019.463480202,Z 262.49734677,A -60.162,B -6.792,C 1.045,S 2,T 35,E1 -4850,E2 0,E3 0,E4 0,E5 0,E6 0}
DECL E6POS XD_s17r02u_5={X 980.388617902,Y 7717.844260975,Z 219.504837003,A -60.203,B -7.962,C 1.15,S 2,T 35,E1 -3800,E2 0,E3 0,E4 0,E5 0,E6 0}
DECL E6POS XD_s17r02u_10={X 970.198617902,Y 7717.444260975,Z 218.664837003,A -60.203,B -7.962,C 1.15,S 2,T 35,E1 -3800,E2 0,E3 0,E4 0,E5 0,E6 0}
DECL E6POS XD_s17r02u_15={X 937.148617902,Y 7717.284260975,Z 215.804837003,A -60.203,B -7.962,C 1.15,S 2,T 35,E1 -3800,E2 0,E3 0,E4 0,E5 0,E6 0}
DECL E6POS XD_s17r02u_20={X 921.668617902,Y 7715.184260975,Z 214.694837003,A -60.203,B -7.962,C 1.15,S 2,T 35,E1 -3800,E2 0,E3 0,E4 0,E5 0,E6 0}
DECL E6POS XD_s17r02u_25={X 907.228617902,Y 7709.164260975,Z 214.104837003,A -60.203,B -7.962,C 1.15,S 2,T 35,E1 -3800,E2 0,E3 0,E4 0,E5 0,E6 0}
DECL E6POS XD_s17r02u_30={X 835.138617902,Y 7667.444260975,Z 212.474837003,A -60.203,B -7.962,C 1.15,S 2,T 35,E1 -3800,E2 0,E3 0,E4 0,E5 0,E6 0}
DECL E6POS XD_s17r02u_35={X 822.708617902,Y 7657.914260975,Z 212.444837003,A -60.203,B -7.962,C 1.15,S 2,T 35,E1 -3800,E2 0,E3 0,E4 0,E5 0,E6 0}
DECL E6POS XD_s17r02u_40={X 813.148617902,Y 7645.514260975,Z 213.004837003,A -60.203,B -7.962,C 1.15,S 2,T 35,E1 -3800,E2 0,E3 0,E4 0,E5 0,E6 0}
DECL E6POS XD_s17r02o_5={X 999.544423911,Y 7563.859496562,Z 238.123078511,A -60.197,B -7.683,C 1.149,S 2,T 35,E1 -3800,E2 0,E3 0,E4 0,E5 0,E6 0}
DECL E6POS XD_s17r02o_10={X 991.564423911,Y 7551.719496562,Z 238.753078511,A -60.197,B -7.683,C 1.149,S 2,T 35,E1 -3800,E2 0,E3 0,E4 0,E5 0,E6 0}
DECL E6POS XD_s17r02o_15={X 985.044423911,Y 7540.519496562,Z 239.423078511,A -60.197,B -7.683,C 1.149,S 2,T 35,E1 -3800,E2 0,E3 0,E4 0,E5 0,E6 0}
DECL E6POS XD_s17r02o_20={X 975.494423911,Y 7528.129496562,Z 239.943078511,A -60.197,B -7.683,C 1.149,S 2,T 35,E1 -3800,E2 0,E3 0,E4 0,E5 0,E6 0}
DECL E6POS XD_s17r02o_25={X 963.064423911,Y 7518.599496562,Z 239.923078511,A -60.197,B -7.683,C 1.149,S 2,T 35,E1 -3800,E2 0,E3 0,E4 0,E5 0,E6 0}
DECL E6POS XD_s17r02o_30={X 885.904423911,Y 7473.939496562,Z 238.173078511,A -60.197,B -7.683,C 1.149,S 2,T 35,E1 -3800,E2 0,E3 0,E4 0,E5 0,E6 0}
DECL E6POS XD_s17r02o_35={X 871.454423911,Y 7467.919496562,Z 237.583078511,A -60.197,B -7.683,C 1.149,S 2,T 35,E1 -3800,E2 0,E3 0,E4 0,E5 0,E6 0}
DECL E6POS XD_s17r02o_40={X 855.974423911,Y 7465.819496562,Z 236.493078511,A -60.197,B -7.683,C 1.149,S 2,T 35,E1 -3800,E2 0,E3 0,E4 0,E5 0,E6 0}
DECL E6POS XD_s16r06u_5={X 4038.576263345,Y 9198.879685275,Z 313.362262128,A -60.114,B -6.187,C 0.824,S 2,T 35,E1 -6850,E2 0,E3 0,E4 0,E5 0,E6 0}
DECL E6POS XD_s16r06u_10={X 4022.396263345,Y 9195.979685275,Z 312.512262128,A -60.114,B -6.187,C 0.824,S 2,T 35,E1 -6850,E2 0,E3 0,E4 0,E5 0,E6 0}
DECL E6POS XD_s16r06u_15={X 4004.626263345,Y 9194.709685275,Z 311.412262128,A -60.114,B -6.187,C 0.824,S 2,T 35,E1 -6850,E2 0,E3 0,E4 0,E5 0,E6 0}
DECL E6POS XD_s16r06u_20={X 3989.236263345,Y 9192.599685275,Z 310.542262128,A -60.114,B -6.187,C 0.824,S 2,T 35,E1 -6850,E2 0,E3 0,E4 0,E5 0,E6 0}
DECL E6POS XD_s16r06u_25={X 3974.896263345,Y 9186.609685275,Z 310.082262128,A -60.114,B -6.187,C 0.824,S 2,T 35,E1 -6850,E2 0,E3 0,E4 0,E5 0,E6 0}
DECL E6POS XD_s16r06u_30={X 3922.876263345,Y 9156.519685275,Z 309.202262128,A -60.114,B -6.187,C 0.824,S 2,T 35,E1 -6850,E2 0,E3 0,E4 0,E5 0,E6 0}
DECL E6POS XD_s16r06u_35={X 3910.546263345,Y 9147.059685275,Z 309.202262128,A -60.114,B -6.187,C 0.824,S 2,T 35,E1 -6850,E2 0,E3 0,E4 0,E5 0,E6 0}
DECL E6POS XD_s16r06u_40={X 3901.016263345,Y 9134.779685275,Z 309.652262128,A -60.114,B -6.187,C 0.824,S 2,T 35,E1 -6850,E2 0,E3 0,E4 0,E5 0,E6 0}
DECL E6POS XD_s16r06o_5={X 4085.416263345,Y 9082.029685275,Z 326.762262128,A -60.114,B -6.187,C 0.824,S 2,T 35,E1 -6850,E2 0,E3 0,E4 0,E5 0,E6 0}
DECL E6POS XD_s16r06o_10={X 4072.646263345,Y 9068.589685275,Z 327.072262128,A -60.114,B -6.187,C 0.824,S 2,T 35,E1 -6850,E2 0,E3 0,E4 0,E5 0,E6 0}
DECL E6POS XD_s16r06o_15={X 4062.396263345,Y 9055.079685275,Z 327.562262128,A -60.114,B -6.187,C 0.824,S 2,T 35,E1 -6850,E2 0,E3 0,E4 0,E5 0,E6 0}
DECL E6POS XD_s16r06o_20={X 4053.486263345,Y 9044.569685275,Z 327.882262128,A -60.114,B -6.187,C 0.824,S 2,T 35,E1 -6850,E2 0,E3 0,E4 0,E5 0,E6 0}
DECL E6POS XD_s16r06o_25={X 4042.426263345,Y 9036.339685275,Z 327.852262128,A -60.114,B -6.187,C 0.824,S 2,T 35,E1 -6850,E2 0,E3 0,E4 0,E5 0,E6 0}
DECL E6POS XD_s16r06o_30={X 3993.406263345,Y 9007.989685275,Z 327.062262128,A -60.114,B -6.187,C 0.824,S 2,T 35,E1 -6850,E2 0,E3 0,E4 0,E5 0,E6 0}
DECL E6POS XD_s16r06o_35={X 3980.756263345,Y 9002.499685275,Z 326.692262128,A -60.114,B -6.187,C 0.824,S 2,T 35,E1 -6850,E2 0,E3 0,E4 0,E5 0,E6 0}
DECL E6POS XD_s16r06o_40={X 3967.216263345,Y 9000.019685275,Z 326.002262128,A -60.114,B -6.187,C 0.824,S 2,T 35,E1 -6850,E2 0,E3 0,E4 0,E5 0,E6 0}
DECL E6POS XD_s16r05u_5={X 3348.401050616,Y 8800.204835273,Z 302.62311249,A -60.124,B -6.528,C 0.854,S 2,T 35,E1 -6000,E2 0,E3 0,E4 0,E5 0,E6 0}
DECL E6POS XD_s16r05u_10={X 3330.031050616,Y 8797.184835273,Z 301.61311249,A -60.124,B -6.528,C 0.854,S 2,T 35,E1 -6000,E2 0,E3 0,E4 0,E5 0,E6 0}
DECL E6POS XD_s16r05u_15={X 3311.391050616,Y 8796.304835273,Z 300.39311249,A -60.124,B -6.528,C 0.854,S 2,T 35,E1 -6000,E2 0,E3 0,E4 0,E5 0,E6 0}
DECL E6POS XD_s16r05u_20={X 3295.901050616,Y 8794.214835273,Z 299.50311249,A -60.124,B -6.528,C 0.854,S 2,T 35,E1 -6000,E2 0,E3 0,E4 0,E5 0,E6 0}
DECL E6POS XD_s16r05u_25={X 3281.441050616,Y 8788.214835273,Z 299.04311249,A -60.124,B -6.528,C 0.854,S 2,T 35,E1 -6000,E2 0,E3 0,E4 0,E5 0,E6 0}
DECL E6POS XD_s16r05u_30={X 3234.841050616,Y 8761.234835273,Z 298.25311249,A -60.124,B -6.528,C 0.854,S 2,T 35,E1 -6000,E2 0,E3 0,E4 0,E5 0,E6 0}
DECL E6POS XD_s16r05u_35={X 3222.411050616,Y 8751.704835273,Z 298.25311249,A -60.124,B -6.528,C 0.854,S 2,T 35,E1 -6000,E2 0,E3 0,E4 0,E5 0,E6 0}
DECL E6POS XD_s16r05u_40={X 3212.861050616,Y 8739.294835273,Z 298.72311249,A -60.124,B -6.528,C 0.854,S 2,T 35,E1 -6000,E2 0,E3 0,E4 0,E5 0,E6 0}
DECL E6POS XD_s16r05o_5={X 3390.025906253,Y 8678.459610154,Z 316.503303232,A -60.112,B -6.181,C 0.812,S 2,T 35,E1 -6000,E2 0,E3 0,E4 0,E5 0,E6 0}
DECL E6POS XD_s16r05o_10={X 3377.555906253,Y 8664.409610154,Z 316.903303232,A -60.112,B -6.181,C 0.812,S 2,T 35,E1 -6000,E2 0,E3 0,E4 0,E5 0,E6 0}
DECL E6POS XD_s16r05o_15={X 3368.545906253,Y 8651.699610154,Z 317.423303232,A -60.112,B -6.181,C 0.812,S 2,T 35,E1 -6000,E2 0,E3 0,E4 0,E5 0,E6 0}
DECL E6POS XD_s16r05o_20={X 3359.345906253,Y 8640.399610154,Z 317.793303232,A -60.112,B -6.181,C 0.812,S 2,T 35,E1 -6000,E2 0,E3 0,E4 0,E5 0,E6 0}
DECL E6POS XD_s16r05o_25={X 3347.705906253,Y 8631.629610154,Z 317.793303232,A -60.112,B -6.181,C 0.812,S 2,T 35,E1 -6000,E2 0,E3 0,E4 0,E5 0,E6 0}
DECL E6POS XD_s16r05o_30={X 3297.605906253,Y 8602.649610154,Z 316.963303232,A -60.112,B -6.181,C 0.812,S 2,T 35,E1 -6000,E2 0,E3 0,E4 0,E5 0,E6 0}
DECL E6POS XD_s16r05o_35={X 3284.205906253,Y 8596.929610154,Z 316.573303232,A -60.112,B -6.181,C 0.812,S 2,T 35,E1 -6000,E2 0,E3 0,E4 0,E5 0,E6 0}
DECL E6POS XD_s16r05o_40={X 3269.835906253,Y 8594.599610154,Z 315.803303232,A -60.112,B -6.181,C 0.812,S 2,T 35,E1 -6000,E2 0,E3 0,E4 0,E5 0,E6 0}
DECL E6POS XD_s16r04u_5={X 2676.094614274,Y 8421.983503949,Z 289.957799614,A -60.138,B -6.674,C 0.92,S 2,T 35,E1 -5300,E2 0,E3 0,E4 0,E5 0,E6 0}
DECL E6POS XD_s16r04u_10={X 2645.034614274,Y 8421.573503949,Z 287.757799614,A -60.138,B -6.674,C 0.92,S 2,T 35,E1 -5300,E2 0,E3 0,E4 0,E5 0,E6 0}
DECL E6POS XD_s16r04u_15={X 2629.544614274,Y 8419.483503949,Z 286.827799614,A -60.138,B -6.674,C 0.92,S 2,T 35,E1 -5300,E2 0,E3 0,E4 0,E5 0,E6 0}
DECL E6POS XD_s16r04u_20={X 2615.094614274,Y 8413.473503949,Z 286.347799614,A -60.138,B -6.674,C 0.92,S 2,T 35,E1 -5300,E2 0,E3 0,E4 0,E5 0,E6 0}
DECL E6POS XD_s16r04u_25={X 2542.764614274,Y 8371.623503949,Z 285.027799614,A -60.138,B -6.674,C 0.92,S 2,T 35,E1 -5300,E2 0,E3 0,E4 0,E5 0,E6 0}
DECL E6POS XD_s16r04u_30={X 2529.144614274,Y 8360.813503949,Z 285.057799614,A -60.138,B -6.674,C 0.92,S 2,T 35,E1 -5300,E2 0,E3 0,E4 0,E5 0,E6 0}
DECL E6POS XD_s16r04u_35={X 2519.044614274,Y 8346.673503949,Z 285.657799614,A -60.138,B -6.674,C 0.92,S 2,T 35,E1 -5300,E2 0,E3 0,E4 0,E5 0,E6 0}
DECL E6POS XD_s16r04o_5={X 2718.2195007,Y 8279.258229751,Z 306.086064932,A -60.126,B -6.338,C 0.883,S 2,T 35,E1 -5300,E2 0,E3 0,E4 0,E5 0,E6 0}
DECL E6POS XD_s16r04o_10={X 2711.0095007,Y 8268.278229751,Z 306.566064932,A -60.126,B -6.338,C 0.883,S 2,T 35,E1 -5300,E2 0,E3 0,E4 0,E5 0,E6 0}
DECL E6POS XD_s16r04o_15={X 2704.9695007,Y 8257.888229751,Z 307.086064932,A -60.126,B -6.338,C 0.883,S 2,T 35,E1 -5300,E2 0,E3 0,E4 0,E5 0,E6 0}
DECL E6POS XD_s16r04o_20={X 2696.3995007,Y 8246.478229751,Z 307.516064932,A -60.126,B -6.338,C 0.883,S 2,T 35,E1 -5300,E2 0,E3 0,E4 0,E5 0,E6 0}
DECL E6POS XD_s16r04o_25={X 2682.9995007,Y 8235.948229751,Z 307.546064932,A -60.126,B -6.338,C 0.883,S 2,T 35,E1 -5300,E2 0,E3 0,E4 0,E5 0,E6 0}
DECL E6POS XD_s16r04o_30={X 2610.9195007,Y 8194.238229751,Z 306.266064932,A -60.126,B -6.338,C 0.883,S 2,T 35,E1 -5300,E2 0,E3 0,E4 0,E5 0,E6 0}
DECL E6POS XD_s16r04o_35={X 2596.4595007,Y 8188.228229751,Z 305.796064932,A -60.126,B -6.338,C 0.883,S 2,T 35,E1 -5300,E2 0,E3 0,E4 0,E5 0,E6 0}
DECL E6POS XD_s16r04o_40={X 2580.9695007,Y 8186.148229751,Z 304.896064932,A -60.126,B -6.338,C 0.883,S 2,T 35,E1 -5300,E2 0,E3 0,E4 0,E5 0,E6 0}
DECL E6POS XD_s16r03u_5={X 1938.359424107,Y 7987.133480202,Z 276.54734677,A -60.162,B -6.792,C 1.045,S 2,T 35,E1 -4350,E2 0,E3 0,E4 0,E5 0,E6 0}
DECL E6POS XD_s16r03u_10={X 1922.599424107,Y 7985.013480202,Z 275.56734677,A -60.162,B -6.792,C 1.045,S 2,T 35,E1 -4350,E2 0,E3 0,E4 0,E5 0,E6 0}
DECL E6POS XD_s16r03u_15={X 1903.359424107,Y 7984.573480202,Z 274.16734677,A -60.162,B -6.792,C 1.045,S 2,T 35,E1 -4350,E2 0,E3 0,E4 0,E5 0,E6 0}
DECL E6POS XD_s16r03u_20={X 1887.869424107,Y 7982.493480202,Z 273.19734677,A -60.162,B -6.792,C 1.045,S 2,T 35,E1 -4350,E2 0,E3 0,E4 0,E5 0,E6 0}
DECL E6POS XD_s16r03u_25={X 1873.419424107,Y 7976.473480202,Z 272.67734677,A -60.162,B -6.792,C 1.045,S 2,T 35,E1 -4350,E2 0,E3 0,E4 0,E5 0,E6 0}
DECL E6POS XD_s16r03u_30={X 1819.629424107,Y 7945.343480202,Z 271.56734677,A -60.162,B -6.792,C 1.045,S 2,T 35,E1 -4350,E2 0,E3 0,E4 0,E5 0,E6 0}
DECL E6POS XD_s16r03u_35={X 1807.199424107,Y 7935.803480202,Z 271.51734677,A -60.162,B -6.792,C 1.045,S 2,T 35,E1 -4350,E2 0,E3 0,E4 0,E5 0,E6 0}
DECL E6POS XD_s16r03u_40={X 1797.639424107,Y 7923.393480202,Z 271.96734677,A -60.162,B -6.792,C 1.045,S 2,T 35,E1 -4350,E2 0,E3 0,E4 0,E5 0,E6 0}
DECL E6POS XD_s16r03o_5={X 1961.764730123,Y 7852.058178286,Z 290.892476665,A -60.152,B -6.474,C 1.019,S 2,T 35,E1 -4350,E2 0,E3 0,E4 0,E5 0,E6 0}
DECL E6POS XD_s16r03o_10={X 1950.024730123,Y 7839.008178286,Z 291.232476665,A -60.152,B -6.474,C 1.019,S 2,T 35,E1 -4350,E2 0,E3 0,E4 0,E5 0,E6 0}
DECL E6POS XD_s16r03o_15={X 1940.174730123,Y 7825.168178286,Z 291.792476665,A -60.152,B -6.474,C 1.019,S 2,T 35,E1 -4350,E2 0,E3 0,E4 0,E5 0,E6 0}
DECL E6POS XD_s16r03o_20={X 1930.954730123,Y 7813.788178286,Z 292.152476665,A -60.152,B -6.474,C 1.019,S 2,T 35,E1 -4350,E2 0,E3 0,E4 0,E5 0,E6 0}
DECL E6POS XD_s16r03o_25={X 1919.254730123,Y 7804.978178286,Z 292.112476665,A -60.152,B -6.474,C 1.019,S 2,T 35,E1 -4350,E2 0,E3 0,E4 0,E5 0,E6 0}
DECL E6POS XD_s16r03o_30={X 1864.564730123,Y 7773.328178286,Z 290.992476665,A -60.152,B -6.474,C 1.019,S 2,T 35,E1 -4350,E2 0,E3 0,E4 0,E5 0,E6 0}
DECL E6POS XD_s16r03o_35={X 1851.104730123,Y 7767.578178286,Z 290.522476665,A -60.152,B -6.474,C 1.019,S 2,T 35,E1 -4350,E2 0,E3 0,E4 0,E5 0,E6 0}
DECL E6POS XD_s16r03o_40={X 1836.654730123,Y 7765.258178286,Z 289.672476665,A -60.152,B -6.474,C 1.019,S 2,T 35,E1 -4350,E2 0,E3 0,E4 0,E5 0,E6 0}
DECL E6POS XD_s16r02u_5={X 1000.994423911,Y 7444.669496562,Z 251.073078511,A -60.197,B -7.683,C 1.149,S 2,T 35,E1 -3350,E2 0,E3 0,E4 0,E5 0,E6 0}
DECL E6POS XD_s16r02u_10={X 975.684423911,Y 7442.269496562,Z 249.193078511,A -60.197,B -7.683,C 1.149,S 2,T 35,E1 -3350,E2 0,E3 0,E4 0,E5 0,E6 0}
DECL E6POS XD_s16r02u_15={X 952.194423911,Y 7442.179496562,Z 247.223078511,A -60.197,B -7.683,C 1.149,S 2,T 35,E1 -3350,E2 0,E3 0,E4 0,E5 0,E6 0}
DECL E6POS XD_s16r02u_20={X 936.714423911,Y 7440.069496562,Z 246.143078511,A -60.197,B -7.683,C 1.149,S 2,T 35,E1 -3350,E2 0,E3 0,E4 0,E5 0,E6 0}
DECL E6POS XD_s16r02u_25={X 922.274423911,Y 7434.059496562,Z 245.563078511,A -60.197,B -7.683,C 1.149,S 2,T 35,E1 -3350,E2 0,E3 0,E4 0,E5 0,E6 0}
DECL E6POS XD_s16r02u_30={X 858.174423911,Y 7396.949496562,Z 244.103078511,A -60.197,B -7.683,C 1.149,S 2,T 35,E1 -3350,E2 0,E3 0,E4 0,E5 0,E6 0}
DECL E6POS XD_s16r02u_35={X 845.754423911,Y 7387.419496562,Z 244.073078511,A -60.197,B -7.683,C 1.149,S 2,T 35,E1 -3350,E2 0,E3 0,E4 0,E5 0,E6 0}
DECL E6POS XD_s16r02u_40={X 836.194423911,Y 7375.019496562,Z 244.593078511,A -60.197,B -7.683,C 1.149,S 2,T 35,E1 -3350,E2 0,E3 0,E4 0,E5 0,E6 0}
DECL E6POS XD_s16r02o_5={X 1017.500284904,Y 7302.654285224,Z 267.489967111,A -60.19,B -7.412,C 1.14,S 2,T 35,E1 -3350,E2 0,E3 0,E4 0,E5 0,E6 0}
DECL E6POS XD_s16r02o_10={X 1006.550284904,Y 7289.114285224,Z 267.999967111,A -60.19,B -7.412,C 1.14,S 2,T 35,E1 -3350,E2 0,E3 0,E4 0,E5 0,E6 0}
DECL E6POS XD_s16r02o_15={X 996.980284904,Y 7273.934285224,Z 268.789967111,A -60.19,B -7.412,C 1.14,S 2,T 35,E1 -3350,E2 0,E3 0,E4 0,E5 0,E6 0}
DECL E6POS XD_s16r02o_20={X 987.420284904,Y 7261.524285224,Z 269.299967111,A -60.19,B -7.412,C 1.14,S 2,T 35,E1 -3350,E2 0,E3 0,E4 0,E5 0,E6 0}
DECL E6POS XD_s16r02o_25={X 974.990284904,Y 7251.994285224,Z 269.259967111,A -60.19,B -7.412,C 1.14,S 2,T 35,E1 -3350,E2 0,E3 0,E4 0,E5 0,E6 0}
DECL E6POS XD_s16r02o_30={X 905.210284904,Y 7211.614285224,Z 267.689967111,A -60.19,B -7.412,C 1.14,S 2,T 35,E1 -3350,E2 0,E3 0,E4 0,E5 0,E6 0}
DECL E6POS XD_s16r02o_35={X 890.770284904,Y 7205.594285224,Z 267.109967111,A -60.19,B -7.412,C 1.14,S 2,T 35,E1 -3350,E2 0,E3 0,E4 0,E5 0,E6 0}
DECL E6POS XD_s16r02o_40={X 875.280284904,Y 7203.504285224,Z 266.059967111,A -60.19,B -7.412,C 1.14,S 2,T 35,E1 -3350,E2 0,E3 0,E4 0,E5 0,E6 0}
DECL E6POS Xp10_s17r02u={X 993.330385791,Y 7701.31397461,Z 70.976803293,A -60.203,B -7.962,C 1.15,S 2,T 35,E1 -3800,E2 0,E3 0,E4 0,E5 0,E6 0}
DECL E6POS Xp10_s17r02o={X 1012.196152203,Y 7547.808489217,Z 89.521896298,A -60.197,B -7.683,C 1.149,S 2,T 35,E1 -3800,E2 0,E3 0,E4 0,E5 0,E6 0}
DECL E6POS Xp10_s16r06u={X 4048.694470151,Y 9185.706360634,Z 164.278630487,A -60.114,B -6.187,C 0.824,S 2,T 35,E1 -6850,E2 0,E3 0,E4 0,E5 0,E6 0}
DECL E6POS Xp10_s16r06o={X 4095.314470151,Y 9069.146360634,Z 177.648630487,A -60.114,B -6.187,C 0.824,S 2,T 35,E1 -6850,E2 0,E3 0,E4 0,E5 0,E6 0}
DECL E6POS Xp10_s16r05u={X 3358.818485386,Y 8786.577592213,Z 153.612809661,A -60.124,B -6.528,C 0.854,S 2,T 35,E1 -6000,E2 0,E3 0,E4 0,E5 0,E6 0}
DECL E6POS Xp10_s16r05o={X 3400.062599678,Y 8665.335682045,Z 167.408958988,A -60.112,B -6.181,C 0.812,S 2,T 35,E1 -6000,E2 0,E3 0,E4 0,E5 0,E6 0}
DECL E6POS Xp10_s16r04u={X 2686.813837519,Y 8408.204427593,Z 140.973026963,A -60.138,B -6.674,C 0.92,S 2,T 35,E1 -5300,E2 0,E3 0,E4 0,E5 0,E6 0}
DECL E6POS Xp10_s16r04o={X 2728.586639288,Y 8265.896359202,Z 157.04756828,A -60.126,B -6.338,C 0.883,S 2,T 35,E1 -5300,E2 0,E3 0,E4 0,E5 0,E6 0}
DECL E6POS Xp10_s16r03u={X 1949.562077325,Y 7973.118662716,Z 127.616502887,A -60.162,B -6.792,C 1.045,S 2,T 35,E1 -4350,E2 0,E3 0,E4 0,E5 0,E6 0}
DECL E6POS Xp10_s16r03o={X 1972.651377662,Y 7838.481726216,Z 141.909177435,A -60.152,B -6.474,C 1.019,S 2,T 35,E1 -4350,E2 0,E3 0,E4 0,E5 0,E6 0}
DECL E6POS Xp10_s16r02u={X 1013.546152203,Y 7428.788489217,Z 102.441896298,A -60.197,B -7.683,C 1.149,S 2,T 35,E1 -3350,E2 0,E3 0,E4 0,E5 0,E6 0}
DECL E6POS Xp10_s16r02o={X 1029.789333354,Y 7287.203249137,Z 118.797572822,A -60.19,B -7.412,C 1.14,S 2,T 35,E1 -3350,E2 0,E3 0,E4 0,E5 0,E6 0}
DECL E6POS Xp10_s18r05u={X 3216.419806103,Y 9256.310662212,Z 93.193877181,A 29.968,B -0.932,C -7.252,S 2,T 43,E1 -6000,E2 0,E3 0,E4 0,E5 0,E6 0}
DECL E6POS Xp10_s18r05o={X 3264.525935661,Y 9125.44040868,Z 109.982316014,A 29.971,B -0.892,C -7.962,S 2,T 43,E1 -6000,E2 0,E3 0,E4 0,E5 0,E6 0}
DECL E6POS Xp10_s18r04u={X 2575.127718874,Y 8885.384006276,Z 81.078976773,A 29.965,B -0.982,C -7.37,S 2,T 43,E1 -5300,E2 0,E3 0,E4 0,E5 0,E6 0}
DECL E6POS Xp10_s18r04o={X 2612.667404792,Y 8743.59381893,Z 98.419576785,A 29.968,B -0.95,C -8.098,S 2,T 43,E1 -5300,E2 0,E3 0,E4 0,E5 0,E6 0}
DECL E6POS Xp10_s18r03u={X 1902.30281427,Y 8492.893431253,Z 67.775344869,A 29.961,B -1.07,C -7.462,S 2,T 43,E1 -4500,E2 0,E3 0,E4 0,E5 0,E6 0}
DECL E6POS Xp10_s18r03o={X 1921.420352634,Y 8345.370106833,Z 84.457313553,A 29.961,B -1.059,C -8.22,S 2,T 43,E1 -4500,E2 0,E3 0,E4 0,E5 0,E6 0}
DECL E6POS Xp10_s18r02u={X 978.683811373,Y 7967.618789663,Z 40.606388045,A 29.957,B -1.126,C -7.461,S 2,T 43,E1 -3500,E2 0,E3 0,E4 0,E5 0,E6 0}
DECL E6POS Xp10_s18r02o={X 999.599785872,Y 7804.136977978,Z 59.993238232,A 29.957,B -1.139,C -7.964,S 2,T 43,E1 -3500,E2 0,E3 0,E4 0,E5 0,E6 0}
DECL E6POS Xp10_s17r06u={X 3966.972622301,Y 9411.114070363,Z 133.408609295,A -60.16,B -8.252,C 0.907,S 2,T 35,E1 -7350,E2 0,E3 0,E4 0,E5 0,E6 0}
DECL E6POS Xp10_s17r06o={X 4013.102622301,Y 9292.934070363,Z 150.978609295,A -60.16,B -8.252,C 0.907,S 2,T 35,E1 -7350,E2 0,E3 0,E4 0,E5 0,E6 0}
DECL E6POS Xp10_s17r05u={X 3292.469131873,Y 9021.585632241,Z 123.083003792,A -60.154,B -7.961,C 0.901,S 2,T 35,E1 -6550,E2 0,E3 0,E4 0,E5 0,E6 0}
DECL E6POS Xp10_s17r05o={X 3332.508485386,Y 8903.127592213,Z 139.852809661,A -60.124,B -6.528,C 0.854,S 2,T 35,E1 -6550,E2 0,E3 0,E4 0,E5 0,E6 0}
DECL E6POS Xp10_s17r04u={X 2627.204561883,Y 8646.956729662,Z 109.866902618,A -60.168,B -8.097,C 0.96,S 2,T 35,E1 -5650,E2 0,E3 0,E4 0,E5 0,E6 0}
DECL E6POS Xp10_s17r04o={X 2672.313837519,Y 8508.834427593,Z 129.553026963,A -60.138,B -6.674,C 0.92,S 2,T 35,E1 -5650,E2 0,E3 0,E4 0,E5 0,E6 0}
DECL E6POS Xp10_s17r03u={X 1926.622816596,Y 8240.120888415,Z 96.18261368,A -60.192,B -8.219,C 1.07,S 2,T 35,E1 -4850,E2 0,E3 0,E4 0,E5 0,E6 0}
DECL E6POS Xp10_s17r03o={X 1950.692077325,Y 8095.358662716,Z 115.096502887,A -60.162,B -6.792,C 1.045,S 2,T 35,E1 -4850,E2 0,E3 0,E4 0,E5 0,E6 0}
DECL E6POS XD_s18r05u_45={X 3058.829848121,Y 9193.419898375,Z 237.340437701,A 59.8341064,B -4.41363096,C -10.8039122,S 22,T 27,E1 -30200,E2 0,E3 0,E4 0,E5 0,E6 0}
DECL E6POS Xp20_s18r05u={X 3070.391553351,Y 9178.225062169,Z 88.566972395,A 59.8341064,B -4.41363096,C -10.8039122,S 22,T 27,E1 -30200,E2 0,E3 0,E4 0,E5 0,E6 0}
DECL E6POS XD_s18r05o_45={X 3110.942074413,Y 9054.628240883,Z 257.742295161,A 1.0998919,B 2.59234476,C -2.5732007,S 18,T 42,E1 -25000,E2 0,E3 0,E4 0,E5 0,E6 0}
DECL E6POS Xp20_s18r05o={X 3122.549743938,Y 9039.183660185,Z 109.000288255,A 1.0998919,B 2.59234476,C -2.5732007,S 18,T 42,E1 -25000,E2 0,E3 0,E4 0,E5 0,E6 0}
DECL E6POS XD_s18r04u_45={X 2397.169470813,Y 8812.501672913,Z 224.473211924,A 59.8271065,B -4.5126276,C -11.8289127,S 22,T 27,E1 -31000,E2 0,E3 0,E4 0,E5 0,E6 0}
DECL E6POS Xp20_s18r04u={X 2408.989224043,Y 8797.099654429,Z 75.733571639,A 59.8271065,B -4.5126276,C -11.8289127,S 22,T 27,E1 -31000,E2 0,E3 0,E4 0,E5 0,E6 0}
DECL E6POS XD_s18r04o_45={X 2443.891639198,Y 8667.322380918,Z 245.477573187,A 0.387874335,B 2.73733401,C -1.6662029,S 18,T 42,E1 -25500,E2 0,E3 0,E4 0,E5 0,E6 0}
DECL E6POS Xp20_s18r04o={X 2455.800898421,Y 8651.630675658,Z 96.782948654,A 0.387874335,B 2.73733401,C -1.6662029,S 18,T 42,E1 -25500,E2 0,E3 0,E4 0,E5 0,E6 0}
DECL E6POS XD_s18r03u_45={X 1725.419302156,Y 8423.283800326,Z 210.621290963,A 59.8201218,B -4.63862705,C -11.9309149,S 22,T 27,E1 -31900,E2 0,E3 0,E4 0,E5 0,E6 0}
DECL E6POS Xp20_s18r03u={X 1737.55426114,Y 8407.790464735,Z 61.913375207,A 59.8201218,B -4.63862705,C -11.9309149,S 22,T 27,E1 -31900,E2 0,E3 0,E4 0,E5 0,E6 0}
DECL E6POS XD_s18r03o_45={X 1764.111278353,Y 8272.357132775,Z 231.812866007,A 0.245886922,B 2.71033335,C -2.83019948,S 18,T 42,E1 -26500,E2 0,E3 0,E4 0,E5 0,E6 0}
DECL E6POS Xp20_s18r03o={X 1776.393806602,Y 8256.560490577,Z 83.154999404,A 0.245886922,B 2.71033335,C -2.83019948,S 18,T 42,E1 -26500,E2 0,E3 0,E4 0,E5 0,E6 0}
DECL E6POS XD_s18r02u_40={X 776.948930293,Y 7885.075234464,Z 182.528419108,A 59.8141289,B -4.7126236,C -10.946907,S 22,T 27,E1 -33000,E2 0,E3 0,E4 0,E5 0,E6 0}
DECL E6POS Xp20_s18r02u={X 789.205072683,Y 7869.656559015,Z 33.831318577,A 59.8141289,B -4.7126236,C -10.946907,S 22,T 27,E1 -33000,E2 0,E3 0,E4 0,E5 0,E6 0}
DECL E6POS XD_s18r02o_45={X 811.694228448,Y 7716.113846564,Z 206.351259226,A 0.264814615,B 3.0453248,C -3.54919076,S 18,T 42,E1 -27000,E2 0,E3 0,E4 0,E5 0,E6 0}
DECL E6POS Xp20_s18r02o={X 824.706306484,Y 7699.453337037,Z 57.843277367,A 0.264814615,B 3.0453248,C -3.54919076,S 18,T 42,E1 -27000,E2 0,E3 0,E4 0,E5 0,E6 0}
DECL E6POS XD_s17r06u_45={X 3810.96233169,Y 9337.237879175,Z 278.990774579,A 56.8060722,B -4.52663612,C -9.93991852,S 22,T 27,E1 -29400,E2 0,E3 0,E4 0,E5 0,E6 0}
DECL E6POS Xp20_s17r06u={X 3823.729233016,Y 9319.747575868,Z 130.564655547,A 56.8060722,B -4.52663612,C -9.93991852,S 22,T 27,E1 -29400,E2 0,E3 0,E4 0,E5 0,E6 0}
DECL E6POS XD_s17r06o_45={X 3863.081771841,Y 9217.443866347,Z 299.786198897,A 5.83791733,B 2.55738044,C -2.56813812,S 18,T 42,E1 -24000,E2 0,E3 0,E4 0,E5 0,E6 0}
DECL E6POS Xp20_s17r06o={X 3875.628673167,Y 9200.23356304,Z 151.310079865,A 5.83791733,B 2.55738044,C -2.56813812,S 18,T 42,E1 -24000,E2 0,E3 0,E4 0,E5 0,E6 0}
DECL E6POS XD_s17r05u_45={X 3134.468115157,Y 8946.507490475,Z 268.624693997,A 57.3290672,B -4.44663858,C -10.6379166,S 22,T 27,E1 -30200,E2 0,E3 0,E4 0,E5 0,E6 0}
DECL E6POS Xp20_s17r05u={X 3146.855989268,Y 8929.663052737,Z 120.092687936,A 57.3290672,B -4.44663858,C -10.6379166,S 22,T 27,E1 -30200,E2 0,E3 0,E4 0,E5 0,E6 0}
DECL E6POS XD_s17r05o_45={X 3177.58629528,Y 8823.604353099,Z 288.279115417,A 7.62393188,B 2.28737044,C -2.45111942,S 18,T 42,E1 -25000,E2 0,E3 0,E4 0,E5 0,E6 0}
DECL E6POS Xp20_s17r05o={X 3189.13373005,Y 8808.077110039,Z 139.548812588,A 7.62393188,B 2.28737044,C -2.45111942,S 18,T 42,E1 -25000,E2 0,E3 0,E4 0,E5 0,E6 0}
DECL E6POS XD_s17r04u_45={X 2458.695063812,Y 8565.279671876,Z 254.975805332,A 59.7820816,B -4.84264278,C -9.5358963,S 22,T 27,E1 -31000,E2 0,E3 0,E4 0,E5 0,E6 0}
DECL E6POS Xp20_s17r04u={X 2471.384619574,Y 8548.208003544,Z 106.491201892,A 59.7820816,B -4.84264278,C -9.5358963,S 22,T 27,E1 -31000,E2 0,E3 0,E4 0,E5 0,E6 0}
DECL E6POS XD_s17r04o_45={X 2502.11874042,Y 8422.524410936,Z 277.707242533,A 0.4338983,B 3.48138523,C -3.12619781,S 18,T 42,E1 -25500,E2 0,E3 0,E4 0,E5 0,E6 0}
DECL E6POS Xp20_s17r04o={X 2513.967963665,Y 8406.75533458,Z 129.012469882,A 0.4338983,B 3.48138523,C -3.12619781,S 18,T 42,E1 -25500,E2 0,E3 0,E4 0,E5 0,E6 0}
DECL E6POS XD_s17r03u_45={X 1755.174753604,Y 8164.062590694,Z 240.068329986,A 59.7720909,B -5.00064754,C -9.59989357,S 22,T 27,E1 -31900,E2 0,E3 0,E4 0,E5 0,E6 0}
DECL E6POS Xp20_s17r03u={X 1768.26746415,Y 8146.845640679,Z 91.630515147,A 59.7720909,B -5.00064754,C -9.59989357,S 22,T 27,E1 -31900,E2 0,E3 0,E4 0,E5 0,E6 0}
DECL E6POS XD_s17r03o_40={X 1792.074936964,Y 8010.72891028,Z 263.68172172,A 0.407916516,B 3.10535693,C -3.97017527,S 18,T 42,E1 -26500,E2 0,E3 0,E4 0,E5 0,E6 0}
DECL E6POS Xp20_s17r03o={X 1804.347590182,Y 7994.834092794,Z 115.040877837,A 0.407916516,B 3.10535693,C -3.97017527,S 18,T 42,E1 -26500,E2 0,E3 0,E4 0,E5 0,E6 0}
DECL E6POS XD_s17r02u_45={X 806.716618686,Y 7617.430611036,Z 214.187196736,A 59.7870903,B -4.94965267,C -9.34989166,S 22,T 27,E1 -33000,E2 0,E3 0,E4 0,E5 0,E6 0}
DECL E6POS Xp20_s17r02u={X 819.648386575,Y 7600.900324671,Z 65.659163026,A 59.7870903,B -4.94965267,C -9.34989166,S 22,T 27,E1 -33000,E2 0,E3 0,E4 0,E5 0,E6 0}
DECL E6POS XD_s17r02o_45={X 833.543193854,Y 7456.986525175,Z 236.866690188,A 0.47889623,B 2.90436459,C -4.3081851,S 18,T 42,E1 -27500,E2 0,E3 0,E4 0,E5 0,E6 0}
DECL E6POS Xp20_s17r02o={X 846.204922146,Y 7440.93551783,Z 88.275507975,A 0.47889623,B 2.90436459,C -4.3081851,S 18,T 42,E1 -27500,E2 0,E3 0,E4 0,E5 0,E6 0}
DECL E6POS XD_s16r06u_45={X 3894.726105377,Y 9108.448232097,Z 310.519970503,A 57.5550232,B -3.66960716,C -10.2698975,S 22,T 27,E1 -29400,E2 0,E3 0,E4 0,E5 0,E6 0}
DECL E6POS Xp20_s16r06u={X 3904.874312183,Y 9095.224907456,Z 161.446338862,A 57.5550232,B -3.66960716,C -10.2698975,S 22,T 27,E1 -29400,E2 0,E3 0,E4 0,E5 0,E6 0}
DECL E6POS XD_s16r06o_45={X 3944.124749795,Y 8987.825634789,Z 326.378653611,A 7.26697969,B 1.71141362,C -0.972108,S 18,T 42,E1 -24400,E2 0,E3 0,E4 0,E5 0,E6 0}
DECL E6POS Xp20_s16r06o={X 3954.042956601,Y 8974.882310148,Z 177.27502197,A 7.26697969,B 1.71141362,C -0.972108,S 18,T 42,E1 -24400,E2 0,E3 0,E4 0,E5 0,E6 0}
DECL E6POS XD_s16r05u_45={X 3203.598052674,Y 8707.970967509,Z 299.876627695,A 57.9700165,B -3.80363655,C -11.3479137,S 22,T 27,E1 -30200,E2 0,E3 0,E4 0,E5 0,E6 0}
DECL E6POS Xp20_s16r05u={X 3214.035487444,Y 8694.293724449,Z 150.866324866,A 57.9700165,B -3.80363655,C -11.3479137,S 22,T 27,E1 -30200,E2 0,E3 0,E4 0,E5 0,E6 0}
DECL E6POS XD_s16r05o_45={X 3247.423651941,Y 8583.29353021,Z 316.181565561,A 5.60697126,B 1.95740724,C -2.0601151,S 18,T 42,E1 -25200,E2 0,E3 0,E4 0,E5 0,E6 0}
DECL E6POS Xp20_s16r05o={X 3257.480345366,Y 8570.129602101,Z 167.097221317,A 5.60697126,B 1.95740724,C -2.0601151,S 18,T 42,E1 -25200,E2 0,E3 0,E4 0,E5 0,E6 0}
DECL E6POS XD_s16r04u_40={X 2519.385172178,Y 8329.211938532,Z 286.107701617,A 62.5060196,B -4.08462811,C -11.2528706,S 22,T 27,E1 -31000,E2 0,E3 0,E4 0,E5 0,E6 0}
DECL E6POS Xp20_s16r04u={X 2530.144395423,Y 8315.292862176,Z 137.142928966,A 62.5060196,B -4.08462811,C -11.2528706,S 22,T 27,E1 -31000,E2 0,E3 0,E4 0,E5 0,E6 0}
DECL E6POS XD_s16r04o_45={X 2559.751345195,Y 8177.353058536,Z 305.34148067,A 0.383976221,B 2.70238709,C -0.929158211,S 18,T 42,E1 -26000,E2 0,E3 0,E4 0,E5 0,E6 0}
DECL E6POS Xp20_s16r04o={X 2570.148483783,Y 8163.921187987,Z 156.302984018,A 0.383976221,B 2.70238709,C -0.929158211,S 18,T 42,E1 -26000,E2 0,E3 0,E4 0,E5 0,E6 0}
DECL E6POS XD_s16r03u_45={X 1789.012544848,Y 7892.024871444,Z 273.116713593,A 59.1920357,B -4.26264858,C -10.3979025,S 22,T 27,E1 -31900,E2 0,E3 0,E4 0,E5 0,E6 0}
DECL E6POS Xp20_s16r03u={X 1800.215198066,Y 7877.990053958,Z 124.18586971,A 59.1920357,B -4.26264858,C -10.3979025,S 22,T 27,E1 -31900,E2 0,E3 0,E4 0,E5 0,E6 0}
DECL E6POS XD_s16r03o_45={X 1816.255090604,Y 7754.383127896,Z 290.136506737,A 5.09097862,B 1.92840564,C -1.43712056,S 18,T 42,E1 -26900,E2 0,E3 0,E4 0,E5 0,E6 0}
DECL E6POS Xp20_s16r03o={X 1827.151738143,Y 7740.776675826,Z 141.153207507,A 5.09097862,B 1.92840564,C -1.43712056,S 18,T 42,E1 -26900,E2 0,E3 0,E4 0,E5 0,E6 0}
DECL E6POS XD_s16r02u_45={X 827.44763421,Y 7342.945806697,Z 245.970327546,A 59.8060341,B -4.70165205,C -10.1718931,S 22,T 27,E1 -33000,E2 0,E3 0,E4 0,E5 0,E6 0}
DECL E6POS Xp20_s16r02u={X 840.029362502,Y 7327.044799352,Z 97.339145333,A 59.8060341,B -4.70165205,C -10.1718931,S 22,T 27,E1 -33000,E2 0,E3 0,E4 0,E5 0,E6 0}
DECL E6POS XD_s16r02o_45={X 857.303290632,Y 7194.342390237,Z 266.757359367,A 1.36295831,B 2.62139058,C -4.13615131,S 18,T 42,E1 -28000,E2 0,E3 0,E4 0,E5 0,E6 0}
DECL E6POS Xp20_s16r02o={X 869.612339082,Y 7178.88135415,Z 118.064965078,A 1.36295831,B 2.62139058,C -4.13615131,S 18,T 42,E1 -28000,E2 0,E3 0,E4 0,E5 0,E6 0}
