DECL LOCAL CONST robtarget pSuchStart_413310BH1={X 936.472537604,Y 10964.952797176,Z -164.504789649,A -0.379968974,B -0.021520699,C 0.354969783,S -1,T 1,E1 -8500.01,E2 9000000000,E3 9000000000,E4 9000000000,E5 9000000000,E6 9000000000}
DECL LOCAL CONST robtarget pSuchPos_413310BH1={X 1072.752264033,Y 10995.72903397,Z 1051.355883791,A -0.394032705,B -0.119311165,C 0.263698931,S -1,T 1,E1 -8500.03,E2 9000000000,E3 9000000000,E4 9000000000,E5 9000000000,E6 9000000000}
DECL LOCAL CONST robtarget p10={X -12107.871362742,Y -5565.191517053,Z -2983.778928312,A -106.244954437,B -46.018348673,C -124.879503838,S 0,T -1,E1 -6000,E2 9,E3 9,E4 9,E5 9,E6 9}
DECL LOCAL CONST robtarget p20={X -4427.194021024,Y -820.18620535,Z -7528.711560717,A -97.270355638,B 1.875305469,C -79.167658799,S 0,T -1,E1 -8500,E2 9,E3 9,E4 9,E5 9,E6 9}
DECL LOCAL CONST robtarget p30={X -2663.720792412,Y 1674.566237803,Z 11400.160207098,A -15.353446385,B 28.299578886,C 60.280066429,S -1,T 1,E1 -8500,E2 9,E3 9,E4 9,E5 9,E6 9}
DECL LOCAL CONST robtarget p40={X -8562.558204914,Y -2775.671370273,Z 12064.773138067,A -6.114034503,B 2.574856351,C 90.588298415,S -1,T 1,E1 -8500.02,E2 9000000000,E3 9000000000,E4 9000000000,E5 9000000000,E6 9000000000}
DECL LOCAL CONST robtarget p50={X -8562.776465772,Y -2775.991536489,Z 12204.671018226,A -6.114381567,B 2.573952656,C 90.590135971,S -1,T 1,E1 -8500.02,E2 9000000000,E3 9000000000,E4 9000000000,E5 9000000000,E6 9000000000}
DECL LOCAL CONST robtarget p60={X -7307.657747017,Y -3056.771408874,Z 12405.738461996,A -3.650454745,B 8.758200528,C 91.5599066,S -1,T 0,E1 -8489.03,E2 9000000000,E3 9000000000,E4 9000000000,E5 9000000000,E6 9000000000}
DECL LOCAL CONST robtarget p70={X -5009.501887388,Y -2082.196236098,Z 12841.878131904,A -21.845587041,B 19.339279059,C 80.665310714,S -1,T 0,E1 -8467.29,E2 9000000000,E3 9000000000,E4 9000000000,E5 9000000000,E6 9000000000}
DECL LOCAL CONST robtarget p80={X -12107.981844611,Y -5565.049428878,Z -2983.822605069,A -106.243846216,B -46.017404252,C -124.881226485,S 0,T -1,E1 -6000.05,E2 9000000000,E3 9000000000,E4 9000000000,E5 9000000000,E6 9000000000}
