DECL E6POS XVorpos_12_VTC={X -2174.63,Y 7907.8,Z -2006.23,A -49.18,B 46.907,C -102.109,S 2,T 43,E1 -1500,E2 0,E3 0,E4 0,E5 0,E6 0}
DECL E6POS XP5={X 4755.94,Y 11902.59,Z -2100.81,A -49.18,B 46.907,C -102.109,S 2,T 43,E1 -9500,E2 0,E3 0,E4 0,E5 0,E6 0}
DECL E6POS XP10={X 8201.79,Y 9480.97,Z -900.8,A 148.853,B 24.105,C 29.907,S 6,T 27,E1 -9500,E2 0,E3 0,E4 0,E5 0,E6 0}
DECL E6POS XP15={X 7713.5,Y 8397.3,Z 348.44,A 120.125,B 26.392,C 0.03,S 6,T 27,E1 -9500,E2 0,E3 0,E4 0,E5 0,E6 0}
DECL E6POS XP20={X 7779.72,Y 8435.73,Z 455.12,A 121.071,B 26.37,C 2.16,S 6,T 27,E1 -9500,E2 0,E3 0,E4 0,E5 0,E6 0}
DECL E6POS XMP80610301={X 7817.53,Y 8457.54,Z 454.09,A 121.071,B 26.37,C 2.16,S 6,T 27,E1 -9500,E2 0,E3 0,E4 0,E5 0,E6 0}
DECL E6POS XP25={X 7855.34,Y 8479.33,Z 453.07,A 121.071,B 26.37,C 2.16,S 6,T 27,E1 -9500,E2 0,E3 0,E4 0,E5 0,E6 0}
DECL E6POS XP30={X 7930.41,Y 8505.03,Z 452.29,A 91.181,B 26.015,C 1.658,S 6,T 27,E1 -9500,E2 0,E3 0,E4 0,E5 0,E6 0}
DECL E6POS XMP80610302={X 7962.9,Y 8505.29,Z 451.44,A 91.181,B 26.015,C 1.658,S 6,T 27,E1 -9500,E2 0,E3 0,E4 0,E5 0,E6 0}
DECL E6POS XP35={X 7995.39,Y 8505.55,Z 450.59,A 91.181,B 26.015,C 1.658,S 6,T 27,E1 -9500,E2 0,E3 0,E4 0,E5 0,E6 0}
DECL E6POS XP40={X 8009.9,Y 8510.72,Z 450.45,A 120.959,B 26.373,C 1.51,S 6,T 27,E1 -9500,E2 0,E3 0,E4 0,E5 0,E6 0}
DECL E6POS XMP80610303={X 8037.08,Y 8526.47,Z 450.01,A 120.959,B 26.373,C 1.51,S 6,T 27,E1 -9500,E2 0,E3 0,E4 0,E5 0,E6 0}
DECL E6POS XP45={X 8064.26,Y 8542.2,Z 449.58,A 120.959,B 26.373,C 1.51,S 6,T 27,E1 -9500,E2 0,E3 0,E4 0,E5 0,E6 0}
DECL E6POS XP50={X 8079.66,Y 8503.94,Z 364.77,A 121.071,B 26.37,C 2.16,S 6,T 27,E1 -9500,E2 0,E3 0,E4 0,E5 0,E6 0}
DECL E6POS XP55={X 8077.79,Y 8554.29,Z 449.56,A 149.604,B 25.997,C -0.689,S 6,T 27,E1 -9500,E2 0,E3 0,E4 0,E5 0,E6 0}
DECL E6POS XMP80610304={X 8094.09,Y 8582.42,Z 449.91,A 149.604,B 25.997,C -0.689,S 6,T 27,E1 -9500,E2 0,E3 0,E4 0,E5 0,E6 0}
DECL E6POS XP60={X 8110.39,Y 8610.53,Z 450.25,A 149.604,B 25.997,C -0.689,S 6,T 27,E1 -9500,E2 0,E3 0,E4 0,E5 0,E6 0}
DECL E6POS XP65={X 8159.12,Y 8654.66,Z 450.07,A 121.071,B 26.37,C 2.16,S 6,T 25,E1 -9500,E2 0,E3 0,E4 0,E5 0,E6 0}
DECL E6POS XMP80610305={X 8191.72,Y 8673.47,Z 449.69,A 121.071,B 26.37,C 2.16,S 6,T 25,E1 -9500,E2 0,E3 0,E4 0,E5 0,E6 0}
DECL E6POS XP70={X 8228.36,Y 8694.61,Z 449.26,A 121.071,B 26.37,C 2.16,S 6,T 25,E1 -9500,E2 0,E3 0,E4 0,E5 0,E6 0}
DECL E6POS XP75={X 8177.37,Y 8664.96,Z 365.81,A 120.282,B 26.39,C 0.384,S 6,T 25,E1 -9500,E2 0,E3 0,E4 0,E5 0,E6 0}
DECL E6POS XP80={X 7603.53,Y 8612.18,Z 353.83,A 120.125,B 26.392,C 0.03,S 6,T 27,E1 -9500,E2 0,E3 0,E4 0,E5 0,E6 0}
DECL E6POS XP85={X 7669.72,Y 8650.59,Z 459.86,A 121.071,B 26.37,C 2.16,S 6,T 27,E1 -9500,E2 0,E3 0,E4 0,E5 0,E6 0}
DECL E6POS XMP80710301={X 7707.55,Y 8672.42,Z 459.48,A 121.071,B 26.37,C 2.16,S 6,T 27,E1 -9500,E2 0,E3 0,E4 0,E5 0,E6 0}
DECL E6POS XP90={X 7745.8,Y 8694.5,Z 459.1,A 121.071,B 26.37,C 2.16,S 6,T 27,E1 -9500,E2 0,E3 0,E4 0,E5 0,E6 0}
DECL E6POS XP95={X 7812.01,Y 8719.36,Z 458.25,A 90.237,B 27.15,C 0.685,S 6,T 27,E1 -9500,E2 0,E3 0,E4 0,E5 0,E6 0}
DECL E6POS XMP80710302={X 7844.52,Y 8719.32,Z 457.91,A 90.237,B 27.15,C 0.685,S 6,T 27,E1 -9500,E2 0,E3 0,E4 0,E5 0,E6 0}
DECL E6POS XP100={X 7877.02,Y 8719.26,Z 457.56,A 90.237,B 27.15,C 0.685,S 6,T 27,E1 -9500,E2 0,E3 0,E4 0,E5 0,E6 0}
DECL E6POS XP105={X 7889.32,Y 8722.98,Z 457.36,A 120.401,B 26.385,C 1.263,S 6,T 27,E1 -9500,E2 0,E3 0,E4 0,E5 0,E6 0}
DECL E6POS XMP80710303={X 7916.62,Y 8738.5,Z 457.04,A 120.401,B 26.385,C 1.263,S 6,T 27,E1 -9500,E2 0,E3 0,E4 0,E5 0,E6 0}
DECL E6POS XP110={X 7943.92,Y 8754.04,Z 456.74,A 120.401,B 26.385,C 1.263,S 6,T 27,E1 -9500,E2 0,E3 0,E4 0,E5 0,E6 0}
DECL E6POS XP115={X 7952.25,Y 8764.64,Z 456.82,A 147.724,B 27.61,C 0.41,S 6,T 27,E1 -9500,E2 0,E3 0,E4 0,E5 0,E6 0}
DECL E6POS XMP80710304={X 7969.7,Y 8792.07,Z 456.62,A 147.724,B 27.61,C 0.41,S 6,T 27,E1 -9500,E2 0,E3 0,E4 0,E5 0,E6 0}
DECL E6POS XP120={X 7987.14,Y 8819.49,Z 456.42,A 147.724,B 27.61,C 0.41,S 6,T 27,E1 -9500,E2 0,E3 0,E4 0,E5 0,E6 0}
DECL E6POS XP125={X 8039.27,Y 8863.87,Z 456.13,A 121.071,B 26.37,C 2.16,S 6,T 27,E1 -9500,E2 0,E3 0,E4 0,E5 0,E6 0}
DECL E6POS XMP80710305={X 8078.04,Y 8886.24,Z 455.72,A 121.071,B 26.37,C 2.16,S 6,T 27,E1 -9500,E2 0,E3 0,E4 0,E5 0,E6 0}
DECL E6POS XP130={X 8116.85,Y 8908.64,Z 455.32,A 121.071,B 26.37,C 2.16,S 6,T 27,E1 -9500,E2 0,E3 0,E4 0,E5 0,E6 0}
DECL E6POS XP135={X 8073.1,Y 8883.15,Z 371.76,A 120.282,B 26.39,C 0.384,S 6,T 27,E1 -9500,E2 0,E3 0,E4 0,E5 0,E6 0}
DECL E6POS XP140={X 7897.17,Y 9060.36,Z 363.01,A 120.125,B 26.392,C 0.029,S 6,T 27,E1 -9500,E2 0,E3 0,E4 0,E5 0,E6 0}
DECL E6POS XP145={X 7969.13,Y 9101.74,Z 456.97,A 121.071,B 26.37,C 2.16,S 6,T 27,E1 -9500,E2 0,E3 0,E4 0,E5 0,E6 0}
DECL E6POS XMP80810305={X 7925.74,Y 9076.7,Z 457.34,A 121.071,B 26.37,C 0.956,S 6,T 27,E1 -9500,E2 0,E3 0,E4 0,E5 0,E6 0}
DECL E6POS XP150={X 7896.56,Y 9059.86,Z 457.59,A 121.071,B 26.37,C 2.16,S 6,T 27,E1 -9500,E2 0,E3 0,E4 0,E5 0,E6 0}
DECL E6POS XP155={X 7916.24,Y 9019.89,Z 368.06,A 121.071,B 26.37,C 2.16,S 6,T 27,E1 -9500,E2 0,E3 0,E4 0,E5 0,E6 0}
DECL E6POS XP160={X 7854.85,Y 9028.83,Z 457.95,A 148.586,B 28.99,C 0.9,S 6,T 27,E1 -9500,E2 0,E3 0,E4 0,E5 0,E6 0}
DECL E6POS XMP80810304={X 7838.05,Y 9000.13,Z 458.11,A 148.586,B 28.99,C 0.9,S 6,T 27,E1 -9500,E2 0,E3 0,E4 0,E5 0,E6 0}
DECL E6POS XP165={X 7821.26,Y 8971.41,Z 458.25,A 148.586,B 28.99,C 0.9,S 6,T 27,E1 -9500,E2 0,E3 0,E4 0,E5 0,E6 0}
DECL E6POS XP170={X 7819.28,Y 8971.21,Z 457.84,A 121.071,B 26.37,C 2.16,S 6,T 27,E1 -9500,E2 0,E3 0,E4 0,E5 0,E6 0}
DECL E6POS XMP80810303={X 7793.46,Y 8956.3,Z 458.54,A 121.071,B 26.37,C 2.16,S 6,T 27,E1 -9500,E2 0,E3 0,E4 0,E5 0,E6 0}
DECL E6POS XP175={X 7767.65,Y 8941.39,Z 459.23,A 121.071,B 26.37,C 2.16,S 6,T 27,E1 -9500,E2 0,E3 0,E4 0,E5 0,E6 0}
DECL E6POS XP180={X 7769.65,Y 8938.57,Z 458.76,A 90.161,B 27.878,C 0.389,S 6,T 27,E1 -9500,E2 0,E3 0,E4 0,E5 0,E6 0}
DECL E6POS XMP80810302={X 7732.44,Y 8938.87,Z 458.97,A 90.161,B 27.878,C 0.389,S 6,T 27,E1 -9500,E2 0,E3 0,E4 0,E5 0,E6 0}
DECL E6POS XP185={X 7695.24,Y 8939.19,Z 459.19,A 90.161,B 27.878,C 0.389,S 6,T 27,E1 -9500,E2 0,E3 0,E4 0,E5 0,E6 0}
DECL E6POS XP190={X 7641.89,Y 8912.84,Z 459.61,A 121.071,B 26.37,C 2.16,S 6,T 27,E1 -9500,E2 0,E3 0,E4 0,E5 0,E6 0}
DECL E6POS XMP80810301={X 7601.34,Y 8889.44,Z 459.9,A 121.071,B 26.37,C 2.16,S 6,T 27,E1 -9500,E2 0,E3 0,E4 0,E5 0,E6 0}
DECL E6POS XP195={X 7560.88,Y 8866.08,Z 460.19,A 121.071,B 26.37,C 2.16,S 6,T 27,E1 -9500,E2 0,E3 0,E4 0,E5 0,E6 0}
DECL E6POS XP200={X 7475.55,Y 8802.71,Z 380.81,A 120.052,B 26.392,C -0.135,S 6,T 27,E1 -9500,E2 0,E3 0,E4 0,E5 0,E6 0}
DECL E6POS XP205={X 7394.86,Y 9048.61,Z 382.42,A 120.392,B 26.389,C 0.631,S 6,T 27,E1 -9500,E2 0,E3 0,E4 0,E5 0,E6 0}
DECL E6POS XP210={X 7450.26,Y 9080.62,Z 457.79,A 121.071,B 26.37,C 2.16,S 6,T 27,E1 -9500,E2 0,E3 0,E4 0,E5 0,E6 0}
DECL E6POS XMP80910301={X 7484.76,Y 9100.53,Z 457.65,A 121.071,B 26.37,C 2.16,S 6,T 27,E1 -9500,E2 0,E3 0,E4 0,E5 0,E6 0}
DECL E6POS XP215={X 7519.46,Y 9120.56,Z 457.5,A 121.071,B 26.37,C 2.16,S 6,T 27,E1 -9500,E2 0,E3 0,E4 0,E5 0,E6 0}
DECL E6POS XP220={X 7579.3,Y 9148.26,Z 457.32,A 90.04,B 27.47,C -0.571,S 6,T 27,E1 -9500,E2 0,E3 0,E4 0,E5 0,E6 0}
DECL E6POS XMP80910302={X 7614.59,Y 9148.29,Z 457.34,A 90.04,B 27.47,C -0.571,S 6,T 27,E1 -9500,E2 0,E3 0,E4 0,E5 0,E6 0}
DECL E6POS XP225={X 7649.88,Y 9148.34,Z 457.37,A 90.04,B 27.47,C -0.571,S 6,T 27,E1 -9500,E2 0,E3 0,E4 0,E5 0,E6 0}
DECL E6POS XP230={X 7647.18,Y 9150.5,Z 457.32,A 121.071,B 26.37,C 0.86,S 6,T 27,E1 -9500,E2 0,E3 0,E4 0,E5 0,E6 0}
DECL E6POS XMP80910303={X 7674.07,Y 9166,Z 457.22,A 121.071,B 26.37,C 0.86,S 6,T 27,E1 -9500,E2 0,E3 0,E4 0,E5 0,E6 0}
DECL E6POS XP235={X 7700.97,Y 9181.5,Z 457.12,A 121.071,B 26.37,C 0.86,S 6,T 27,E1 -9500,E2 0,E3 0,E4 0,E5 0,E6 0}
DECL E6POS XP240={X 7701.77,Y 9182.84,Z 457,A 147.929,B 28.366,C 0.921,S 6,T 27,E1 -9500,E2 0,E3 0,E4 0,E5 0,E6 0}
DECL E6POS XMP80910304={X 7718.71,Y 9210.23,Z 456.74,A 147.929,B 28.366,C 0.921,S 6,T 27,E1 -9500,E2 0,E3 0,E4 0,E5 0,E6 0}
DECL E6POS XP245={X 7735.64,Y 9237.6,Z 456.49,A 147.929,B 28.366,C 0.921,S 6,T 27,E1 -9500,E2 0,E3 0,E4 0,E5 0,E6 0}
DECL E6POS XP250={X 7778.91,Y 9270.37,Z 456.15,A 119.884,B 26.367,C -0.435,S 6,T 27,E1 -9500,E2 0,E3 0,E4 0,E5 0,E6 0}
DECL E6POS XMP80910305={X 7809.52,Y 9288.04,Z 455.96,A 119.884,B 26.367,C -0.435,S 6,T 27,E1 -9500,E2 0,E3 0,E4 0,E5 0,E6 0}
DECL E6POS XP255={X 7840.32,Y 9305.82,Z 455.76,A 119.884,B 26.367,C -0.435,S 6,T 27,E1 -9500,E2 0,E3 0,E4 0,E5 0,E6 0}
DECL E6POS XP260={X 7801.66,Y 9283.28,Z 362.04,A 118.863,B 26.346,C -2.734,S 6,T 27,E1 -9500,E2 0,E3 0,E4 0,E5 0,E6 0}
DECL E6POS XP265={X 7670.85,Y 9486.62,Z 357.55,A 120.125,B 26.392,C 0.029,S 6,T 27,E1 -9500,E2 0,E3 0,E4 0,E5 0,E6 0}
DECL E6POS XP270={X 7743.06,Y 9528.17,Z 451.71,A 121.071,B 26.37,C 2.16,S 6,T 27,E1 -9500,E2 0,E3 0,E4 0,E5 0,E6 0}
DECL E6POS XMP81010305={X 7699.42,Y 9502.97,Z 451.88,A 121.071,B 26.37,C 0.956,S 6,T 27,E1 -9500,E2 0,E3 0,E4 0,E5 0,E6 0}
DECL E6POS XP275={X 7669.91,Y 9485.92,Z 451.99,A 121.071,B 26.37,C 2.16,S 6,T 27,E1 -9500,E2 0,E3 0,E4 0,E5 0,E6 0}
DECL E6POS XP280={X 7614.88,Y 9444.6,Z 452.25,A 147.379,B 28.218,C 1.515,S 6,T 27,E1 -9500,E2 0,E3 0,E4 0,E5 0,E6 0}
DECL E6POS XMP81010304={X 7597.35,Y 9416.33,Z 452.71,A 147.379,B 28.218,C 1.515,S 6,T 27,E1 -9500,E2 0,E3 0,E4 0,E5 0,E6 0}
DECL E6POS XP285={X 7579.8,Y 9388.06,Z 453.17,A 147.379,B 28.218,C 1.515,S 6,T 27,E1 -9500,E2 0,E3 0,E4 0,E5 0,E6 0}
DECL E6POS XP290={X 7578.52,Y 9388.95,Z 452.49,A 121.071,B 26.37,C 2.16,S 6,T 27,E1 -9500,E2 0,E3 0,E4 0,E5 0,E6 0}
DECL E6POS XMP81010303={X 7552.71,Y 9374.04,Z 453.18,A 121.071,B 26.37,C 2.16,S 6,T 27,E1 -9500,E2 0,E3 0,E4 0,E5 0,E6 0}
DECL E6POS XP295={X 7526.89,Y 9359.14,Z 453.88,A 121.071,B 26.37,C 2.16,S 6,T 27,E1 -9500,E2 0,E3 0,E4 0,E5 0,E6 0}
DECL E6POS XP300={X 7526.85,Y 9357.02,Z 453.36,A 89.852,B 27.747,C -0.769,S 6,T 27,E1 -9500,E2 0,E3 0,E4 0,E5 0,E6 0}
DECL E6POS XMP81010302={X 7489.66,Y 9357.17,Z 452.92,A 89.852,B 27.747,C -0.769,S 6,T 27,E1 -9500,E2 0,E3 0,E4 0,E5 0,E6 0}
DECL E6POS XP305={X 7452.47,Y 9357.32,Z 452.47,A 89.852,B 27.747,C -0.769,S 6,T 27,E1 -9500,E2 0,E3 0,E4 0,E5 0,E6 0}
DECL E6POS XP310={X 7397.83,Y 9328.8,Z 452.58,A 121.071,B 26.37,C 2.16,S 6,T 27,E1 -9500,E2 0,E3 0,E4 0,E5 0,E6 0}
DECL E6POS XMP81010301={X 7357.26,Y 9305.36,Z 452.62,A 121.071,B 26.37,C 2.16,S 6,T 27,E1 -9500,E2 0,E3 0,E4 0,E5 0,E6 0}
DECL E6POS XP315={X 7316.58,Y 9281.86,Z 452.65,A 121.071,B 26.37,C 2.16,S 6,T 27,E1 -9500,E2 0,E3 0,E4 0,E5 0,E6 0}
DECL E6POS XP320={X 7159.01,Y 9176.9,Z 293.48,A 119.061,B 26.377,C -2.364,S 6,T 27,E1 -9500,E2 0,E3 0,E4 0,E5 0,E6 0}
DECL E6POS XP325={X 7055.82,Y 8017.74,Z 319.6,A 119.629,B 26.39,C -1.087,S 6,T 27,E1 -8800,E2 0,E3 0,E4 0,E5 0,E6 0}
DECL E6POS XP330={X 7154.68,Y 8075,Z 461.02,A 121.071,B 26.37,C 2.16,S 6,T 27,E1 -8800,E2 0,E3 0,E4 0,E5 0,E6 0}
DECL E6POS XMP80609301={X 7192.47,Y 8096.8,Z 460.59,A 121.071,B 26.37,C 2.16,S 6,T 27,E1 -8800,E2 0,E3 0,E4 0,E5 0,E6 0}
DECL E6POS XP335={X 7230.24,Y 8118.6,Z 460.15,A 121.071,B 26.37,C 2.16,S 6,T 27,E1 -8800,E2 0,E3 0,E4 0,E5 0,E6 0}
DECL E6POS XP340={X 7286.64,Y 8141.92,Z 459.38,A 90.49,B 27.333,C 1.179,S 6,T 27,E1 -8800,E2 0,E3 0,E4 0,E5 0,E6 0}
DECL E6POS XMP80609302={X 7319.14,Y 8141.89,Z 458.8,A 90.49,B 27.333,C 1.179,S 6,T 27,E1 -8800,E2 0,E3 0,E4 0,E5 0,E6 0}
DECL E6POS XP345={X 7351.64,Y 8141.85,Z 458.2,A 90.49,B 27.333,C 1.179,S 6,T 27,E1 -8800,E2 0,E3 0,E4 0,E5 0,E6 0}
DECL E6POS XP350={X 7377.65,Y 8147.77,Z 457.8,A 120.387,B 26.374,C 1.288,S 6,T 27,E1 -8800,E2 0,E3 0,E4 0,E5 0,E6 0}
DECL E6POS XMP80609303={X 7404.97,Y 8163.29,Z 457.48,A 120.387,B 26.374,C 1.288,S 6,T 27,E1 -8800,E2 0,E3 0,E4 0,E5 0,E6 0}
DECL E6POS XP355={X 7432.28,Y 8178.8,Z 457.14,A 120.387,B 26.374,C 1.288,S 6,T 27,E1 -8800,E2 0,E3 0,E4 0,E5 0,E6 0}
DECL E6POS XP360={X 7442.49,Y 8187.6,Z 457.06,A 148.6,B 27.575,C 0.06,S 6,T 27,E1 -8800,E2 0,E3 0,E4 0,E5 0,E6 0}
DECL E6POS XMP80609304={X 7459.44,Y 8215.33,Z 457.03,A 148.6,B 27.575,C 0.06,S 6,T 27,E1 -8800,E2 0,E3 0,E4 0,E5 0,E6 0}
DECL E6POS XP365={X 7476.38,Y 8243.06,Z 457,A 148.6,B 27.575,C 0.06,S 6,T 27,E1 -8800,E2 0,E3 0,E4 0,E5 0,E6 0}
DECL E6POS XP370={X 7598.81,Y 8331.56,Z 456.66,A 120.69,B 26.349,C 2.176,S 6,T 25,E1 -8800,E2 0,E3 0,E4 0,E5 0,E6 0}
DECL E6POS XMP80609305={X 7637.72,Y 8353.78,Z 456.22,A 120.69,B 26.349,C 2.176,S 6,T 25,E1 -8800,E2 0,E3 0,E4 0,E5 0,E6 0}
DECL E6POS XP375={X 7676.62,Y 8376.02,Z 455.76,A 120.69,B 26.349,C 2.176,S 6,T 25,E1 -8800,E2 0,E3 0,E4 0,E5 0,E6 0}
DECL E6POS XP380={X 7625.46,Y 8346.48,Z 372.33,A 120.282,B 26.39,C 0.384,S 6,T 25,E1 -8800,E2 0,E3 0,E4 0,E5 0,E6 0}
DECL E6POS XP385={X 7470.36,Y 8535.59,Z 365.45,A 120.125,B 26.392,C 0.029,S 6,T 27,E1 -8800,E2 0,E3 0,E4 0,E5 0,E6 0}
DECL E6POS XP390={X 7542.88,Y 8577.32,Z 459.87,A 121.071,B 26.37,C 2.16,S 6,T 27,E1 -8800,E2 0,E3 0,E4 0,E5 0,E6 0}
DECL E6POS XMP80709305={X 7498.93,Y 8551.92,Z 459.79,A 121.071,B 26.37,C 0.956,S 6,T 27,E1 -8800,E2 0,E3 0,E4 0,E5 0,E6 0}
DECL E6POS XP395={X 7468.25,Y 8534.2,Z 459.74,A 121.071,B 26.37,C 2.16,S 6,T 27,E1 -8800,E2 0,E3 0,E4 0,E5 0,E6 0}
DECL E6POS XP400={X 7358.91,Y 8456.72,Z 460.61,A 148.352,B 29.116,C 0.12,S 6,T 27,E1 -8800,E2 0,E3 0,E4 0,E5 0,E6 0}
DECL E6POS XMP80709304={X 7342.18,Y 8427.95,Z 460.36,A 148.352,B 29.116,C 0.12,S 6,T 27,E1 -8800,E2 0,E3 0,E4 0,E5 0,E6 0}
DECL E6POS XP405={X 7325.47,Y 8399.19,Z 460.11,A 148.352,B 29.116,C 0.12,S 6,T 27,E1 -8800,E2 0,E3 0,E4 0,E5 0,E6 0}
DECL E6POS XP410={X 7312.24,Y 8387.54,Z 460.68,A 119.88,B 26.361,C 0.672,S 6,T 27,E1 -8800,E2 0,E3 0,E4 0,E5 0,E6 0}
DECL E6POS XMP80709303={X 7286.29,Y 8372.88,Z 460.68,A 119.88,B 26.361,C 0.672,S 6,T 27,E1 -8800,E2 0,E3 0,E4 0,E5 0,E6 0}
DECL E6POS XP415={X 7260.33,Y 8358.2,Z 460.69,A 119.88,B 26.361,C 0.672,S 6,T 27,E1 -8800,E2 0,E3 0,E4 0,E5 0,E6 0}
DECL E6POS XP420={X 7245.75,Y 8350.68,Z 461.61,A 89.688,B 27.817,C 0.05,S 6,T 27,E1 -8800,E2 0,E3 0,E4 0,E5 0,E6 0}
DECL E6POS XMP80709302={X 7208.54,Y 8351.19,Z 461.64,A 89.688,B 27.817,C 0.05,S 6,T 27,E1 -8800,E2 0,E3 0,E4 0,E5 0,E6 0}
DECL E6POS XP425={X 7171.35,Y 8351.7,Z 461.67,A 89.688,B 27.817,C 0.05,S 6,T 27,E1 -8800,E2 0,E3 0,E4 0,E5 0,E6 0}
DECL E6POS XP430={X 7114.73,Y 8330.15,Z 462.82,A 119.907,B 26.383,C 0.404,S 6,T 27,E1 -8800,E2 0,E3 0,E4 0,E5 0,E6 0}
DECL E6POS XMP80709301={X 7074.46,Y 8306.9,Z 463.17,A 119.907,B 26.383,C 0.404,S 6,T 27,E1 -8800,E2 0,E3 0,E4 0,E5 0,E6 0}
DECL E6POS XP435={X 7034.03,Y 8283.57,Z 463.52,A 119.907,B 26.383,C 0.404,S 6,T 27,E1 -8800,E2 0,E3 0,E4 0,E5 0,E6 0}
DECL E6POS XP440={X 6961.28,Y 8227.47,Z 384.13,A 120.052,B 26.392,C -0.135,S 6,T 27,E1 -8800,E2 0,E3 0,E4 0,E5 0,E6 0}
DECL E6POS XP445={X 6817.45,Y 8436.87,Z 389.17,A 120.392,B 26.389,C 0.631,S 6,T 27,E1 -8800,E2 0,E3 0,E4 0,E5 0,E6 0}
DECL E6POS XP450={X 6872.74,Y 8468.81,Z 464.56,A 120.496,B 26.378,C 0.912,S 6,T 27,E1 -8800,E2 0,E3 0,E4 0,E5 0,E6 0}
DECL E6POS XMP80809301={X 6907.37,Y 8488.79,Z 464.41,A 120.496,B 26.378,C 0.912,S 6,T 27,E1 -8800,E2 0,E3 0,E4 0,E5 0,E6 0}
DECL E6POS XP455={X 6942,Y 8508.79,Z 464.26,A 120.496,B 26.378,C 0.912,S 6,T 27,E1 -8800,E2 0,E3 0,E4 0,E5 0,E6 0}
DECL E6POS XP460={X 7058.42,Y 8566.23,Z 463.03,A 89.864,B 27.458,C -0.722,S 6,T 27,E1 -8800,E2 0,E3 0,E4 0,E5 0,E6 0}
DECL E6POS XMP80809302={X 7093.7,Y 8566.2,Z 463.13,A 89.864,B 27.458,C -0.722,S 6,T 27,E1 -8800,E2 0,E3 0,E4 0,E5 0,E6 0}
DECL E6POS XP465={X 7128.99,Y 8566.17,Z 463.24,A 89.864,B 27.458,C -0.722,S 6,T 27,E1 -8800,E2 0,E3 0,E4 0,E5 0,E6 0}
DECL E6POS XP470={X 7135.16,Y 8568.72,Z 463.09,A 121.071,B 26.37,C 1.076,S 6,T 27,E1 -8800,E2 0,E3 0,E4 0,E5 0,E6 0}
DECL E6POS XMP80809303={X 7162.09,Y 8584.18,Z 462.89,A 121.071,B 26.37,C 1.076,S 6,T 27,E1 -8800,E2 0,E3 0,E4 0,E5 0,E6 0}
DECL E6POS XP475={X 7189.02,Y 8599.64,Z 462.67,A 121.071,B 26.37,C 1.076,S 6,T 27,E1 -8800,E2 0,E3 0,E4 0,E5 0,E6 0}
DECL E6POS XP480={X 7196.71,Y 8605.19,Z 462.56,A 147.948,B 28.364,C 0.799,S 6,T 27,E1 -8800,E2 0,E3 0,E4 0,E5 0,E6 0}
DECL E6POS XMP80809304={X 7213.59,Y 8632.59,Z 462.37,A 147.948,B 28.364,C 0.799,S 6,T 27,E1 -8800,E2 0,E3 0,E4 0,E5 0,E6 0}
DECL E6POS XP485={X 7230.5,Y 8659.99,Z 462.18,A 147.948,B 28.364,C 0.799,S 6,T 27,E1 -8800,E2 0,E3 0,E4 0,E5 0,E6 0}
DECL E6POS XP490={X 7278.37,Y 8702.99,Z 462.21,A 119.884,B 26.367,C 0.722,S 6,T 27,E1 -8800,E2 0,E3 0,E4 0,E5 0,E6 0}
DECL E6POS XMP80809305={X 7308.65,Y 8720.47,Z 462,A 119.884,B 26.367,C 0.722,S 6,T 27,E1 -8800,E2 0,E3 0,E4 0,E5 0,E6 0}
DECL E6POS XP495={X 7339.89,Y 8738.51,Z 461.77,A 119.884,B 26.367,C 0.722,S 6,T 27,E1 -8800,E2 0,E3 0,E4 0,E5 0,E6 0}
DECL E6POS XP500={X 7297.68,Y 8713.95,Z 367.71,A 118.863,B 26.346,C -2.734,S 6,T 27,E1 -8800,E2 0,E3 0,E4 0,E5 0,E6 0}
DECL E6POS XP505={X 7162.08,Y 8914.35,Z 364.51,A 120.125,B 26.392,C 0.029,S 6,T 27,E1 -8800,E2 0,E3 0,E4 0,E5 0,E6 0}
DECL E6POS XP510={X 7234.26,Y 8955.88,Z 458.68,A 121.071,B 26.37,C 2.16,S 6,T 27,E1 -8800,E2 0,E3 0,E4 0,E5 0,E6 0}
DECL E6POS XMP80909305={X 7190.64,Y 8930.69,Z 458.85,A 121.071,B 26.37,C 0.956,S 6,T 27,E1 -8800,E2 0,E3 0,E4 0,E5 0,E6 0}
DECL E6POS XP515={X 7161.32,Y 8913.76,Z 458.97,A 121.071,B 26.37,C 2.16,S 6,T 27,E1 -8800,E2 0,E3 0,E4 0,E5 0,E6 0}
DECL E6POS XP520={X 7181,Y 8873.8,Z 369.44,A 121.071,B 26.37,C 2.16,S 6,T 27,E1 -8800,E2 0,E3 0,E4 0,E5 0,E6 0}
DECL E6POS XP525={X 7100.87,Y 8870.34,Z 458.92,A 149.104,B 28.194,C 1.096,S 6,T 27,E1 -8800,E2 0,E3 0,E4 0,E5 0,E6 0}
DECL E6POS XMP80909304={X 7084.28,Y 8841.49,Z 459.17,A 149.104,B 28.194,C 1.096,S 6,T 27,E1 -8800,E2 0,E3 0,E4 0,E5 0,E6 0}
DECL E6POS XP530={X 7067.7,Y 8812.66,Z 459.41,A 149.104,B 28.194,C 1.096,S 6,T 27,E1 -8800,E2 0,E3 0,E4 0,E5 0,E6 0}
DECL E6POS XP535={X 7066.05,Y 8815.09,Z 460.35,A 119.673,B 26.359,C -0.899,S 6,T 27,E1 -8800,E2 0,E3 0,E4 0,E5 0,E6 0}
DECL E6POS XMP80909303={X 7040.23,Y 8800.2,Z 459.61,A 119.673,B 26.359,C -0.899,S 6,T 27,E1 -8800,E2 0,E3 0,E4 0,E5 0,E6 0}
DECL E6POS XP540={X 7014.4,Y 8785.31,Z 458.88,A 119.673,B 26.359,C -0.899,S 6,T 27,E1 -8800,E2 0,E3 0,E4 0,E5 0,E6 0}
DECL E6POS XP545={X 7015.3,Y 8781.57,Z 459.73,A 89.137,B 27.691,C -0.472,S 6,T 27,E1 -8800,E2 0,E3 0,E4 0,E5 0,E6 0}
DECL E6POS XMP80909302={X 6978.11,Y 8782.28,Z 459.46,A 89.137,B 27.691,C -0.472,S 6,T 27,E1 -8800,E2 0,E3 0,E4 0,E5 0,E6 0}
DECL E6POS XP550={X 6940.92,Y 8783,Z 459.18,A 89.137,B 27.691,C -0.472,S 6,T 27,E1 -8800,E2 0,E3 0,E4 0,E5 0,E6 0}
DECL E6POS XP555={X 6821.57,Y 8717.55,Z 459.87,A 119.93,B 26.374,C -0.092,S 6,T 27,E1 -8800,E2 0,E3 0,E4 0,E5 0,E6 0}
DECL E6POS XMP80909301={X 6780.99,Y 8694.11,Z 459.92,A 119.93,B 26.374,C -0.092,S 6,T 27,E1 -8800,E2 0,E3 0,E4 0,E5 0,E6 0}
DECL E6POS XP560={X 6740.36,Y 8670.64,Z 459.97,A 119.93,B 26.374,C -0.092,S 6,T 27,E1 -8800,E2 0,E3 0,E4 0,E5 0,E6 0}
DECL E6POS XP565={X 6654.2,Y 8606.91,Z 382.65,A 120.052,B 26.392,C -0.135,S 6,T 27,E1 -8800,E2 0,E3 0,E4 0,E5 0,E6 0}
DECL E6POS XP570={X 6582.79,Y 8857.99,Z 377.24,A 120.392,B 26.389,C 0.631,S 6,T 27,E1 -8800,E2 0,E3 0,E4 0,E5 0,E6 0}
DECL E6POS XP575={X 6638.12,Y 8889.93,Z 452.4,A 121.071,B 26.37,C 2.16,S 6,T 27,E1 -8800,E2 0,E3 0,E4 0,E5 0,E6 0}
DECL E6POS XMP81009301={X 6672.7,Y 8909.91,Z 452.48,A 121.071,B 26.37,C 2.16,S 6,T 27,E1 -8800,E2 0,E3 0,E4 0,E5 0,E6 0}
DECL E6POS XP580={X 6707.3,Y 8929.9,Z 452.57,A 121.071,B 26.37,C 2.16,S 6,T 27,E1 -8800,E2 0,E3 0,E4 0,E5 0,E6 0}
DECL E6POS XP585={X 6826.76,Y 8989.91,Z 452.49,A 89.151,B 27.405,C -1.549,S 6,T 27,E1 -8800,E2 0,E3 0,E4 0,E5 0,E6 0}
DECL E6POS XMP81009302={X 6862.04,Y 8989.67,Z 453.05,A 89.151,B 27.405,C -1.549,S 6,T 27,E1 -8800,E2 0,E3 0,E4 0,E5 0,E6 0}
DECL E6POS XP590={X 6897.32,Y 8989.44,Z 453.62,A 89.151,B 27.405,C -1.549,S 6,T 27,E1 -8800,E2 0,E3 0,E4 0,E5 0,E6 0}
DECL E6POS XP595={X 6893.35,Y 8991.6,Z 453.61,A 121.222,B 26.37,C 0.843,S 6,T 27,E1 -8800,E2 0,E3 0,E4 0,E5 0,E6 0}
DECL E6POS XMP81009303={X 6920.22,Y 9007.18,Z 453.52,A 121.222,B 26.37,C 0.843,S 6,T 27,E1 -8800,E2 0,E3 0,E4 0,E5 0,E6 0}
DECL E6POS XP600={X 6947.08,Y 9022.75,Z 453.44,A 121.222,B 26.37,C 0.843,S 6,T 27,E1 -8800,E2 0,E3 0,E4 0,E5 0,E6 0}
DECL E6POS XP605={X 6949.97,Y 9025.58,Z 453.56,A 147.26,B 28.461,C 1.452,S 6,T 27,E1 -8800,E2 0,E3 0,E4 0,E5 0,E6 0}
DECL E6POS XMP81009304={X 6967.34,Y 9052.68,Z 453.02,A 147.26,B 28.461,C 1.452,S 6,T 27,E1 -8800,E2 0,E3 0,E4 0,E5 0,E6 0}
DECL E6POS XP610={X 6984.71,Y 9079.78,Z 452.51,A 147.26,B 28.461,C 1.452,S 6,T 27,E1 -8800,E2 0,E3 0,E4 0,E5 0,E6 0}
DECL E6POS XP615={X 7041.27,Y 9122.72,Z 452.77,A 119.549,B 26.359,C -1.607,S 6,T 27,E1 -8800,E2 0,E3 0,E4 0,E5 0,E6 0}
DECL E6POS XMP81009305={X 7071.81,Y 9140.48,Z 452.84,A 119.549,B 26.359,C -1.607,S 6,T 27,E1 -8800,E2 0,E3 0,E4 0,E5 0,E6 0}
DECL E6POS XP620={X 7102.35,Y 9158.24,Z 452.91,A 119.549,B 26.359,C -1.607,S 6,T 27,E1 -8800,E2 0,E3 0,E4 0,E5 0,E6 0}
DECL E6POS XP625={X 7027.5,Y 9114.63,Z 328.63,A 118.367,B 26.322,C -3.853,S 6,T 27,E1 -8800,E2 0,E3 0,E4 0,E5 0,E6 0}
DECL E6POS XP630={X 6209.92,Y 7530.85,Z 314.27,A 119.628,B 26.39,C -1.089,S 6,T 27,E1 -7800,E2 0,E3 0,E4 0,E5 0,E6 0}
DECL E6POS XP635={X 6308.82,Y 7588.12,Z 472.53,A 121.071,B 26.37,C 2.16,S 6,T 27,E1 -7800,E2 0,E3 0,E4 0,E5 0,E6 0}
DECL E6POS XMP80608301={X 6346.67,Y 7609.97,Z 472.24,A 121.071,B 26.37,C 2.16,S 6,T 27,E1 -7800,E2 0,E3 0,E4 0,E5 0,E6 0}
DECL E6POS XP640={X 6384.49,Y 7631.8,Z 471.95,A 121.071,B 26.37,C 2.16,S 6,T 27,E1 -7800,E2 0,E3 0,E4 0,E5 0,E6 0}
DECL E6POS XP645={X 6440.9,Y 7655.97,Z 471.35,A 91.044,B 27.053,C 0.586,S 6,T 27,E1 -7800,E2 0,E3 0,E4 0,E5 0,E6 0}
DECL E6POS XMP80608302={X 6473.39,Y 7656.42,Z 471.06,A 91.044,B 27.053,C 0.586,S 6,T 27,E1 -7800,E2 0,E3 0,E4 0,E5 0,E6 0}
DECL E6POS XP650={X 6505.89,Y 7656.86,Z 470.77,A 91.044,B 27.053,C 0.586,S 6,T 27,E1 -7800,E2 0,E3 0,E4 0,E5 0,E6 0}
DECL E6POS XP655={X 6499.72,Y 7656.05,Z 471.13,A 120.61,B 26.366,C 1.887,S 6,T 27,E1 -7800,E2 0,E3 0,E4 0,E5 0,E6 0}
DECL E6POS XMP80608303={X 6527.04,Y 7671.53,Z 470.5,A 120.61,B 26.366,C 1.887,S 6,T 27,E1 -7800,E2 0,E3 0,E4 0,E5 0,E6 0}
DECL E6POS XP660={X 6554.37,Y 7687.04,Z 469.89,A 120.61,B 26.366,C 1.887,S 6,T 27,E1 -7800,E2 0,E3 0,E4 0,E5 0,E6 0}
DECL E6POS XP665={X 6549.42,Y 7683.13,Z 470.28,A 147.954,B 27.023,C 0.227,S 6,T 27,E1 -7800,E2 0,E3 0,E4 0,E5 0,E6 0}
DECL E6POS XMP80608304={X 6566.7,Y 7710.63,Z 470.17,A 147.954,B 27.023,C 0.227,S 6,T 27,E1 -7800,E2 0,E3 0,E4 0,E5 0,E6 0}
DECL E6POS XP670={X 6583.99,Y 7738.15,Z 470.06,A 147.954,B 27.023,C 0.227,S 6,T 27,E1 -7800,E2 0,E3 0,E4 0,E5 0,E6 0}
DECL E6POS XP675={X 6622.29,Y 7713.71,Z 380.98,A 147.954,B 27.023,C 0.227,S 6,T 27,E1 -7800,E2 0,E3 0,E4 0,E5 0,E6 0}
DECL E6POS XP680={X 6625.25,Y 7769.61,Z 469.73,A 119.91,B 26.383,C 0.429,S 6,T 25,E1 -7800,E2 0,E3 0,E4 0,E5 0,E6 0}
DECL E6POS XMP80608305={X 6662.03,Y 7790.84,Z 469.36,A 119.91,B 26.383,C 0.429,S 6,T 25,E1 -7800,E2 0,E3 0,E4 0,E5 0,E6 0}
DECL E6POS XP685={X 6701.88,Y 7813.84,Z 468.96,A 119.91,B 26.383,C 0.429,S 6,T 25,E1 -7800,E2 0,E3 0,E4 0,E5 0,E6 0}
DECL E6POS XP690={X 6703.49,Y 7814.51,Z 384.28,A 120.282,B 26.39,C 0.384,S 6,T 25,E1 -7800,E2 0,E3 0,E4 0,E5 0,E6 0}
DECL E6POS XP695={X 6518.77,Y 7986.4,Z 375.17,A 120.125,B 26.392,C 0.029,S 6,T 27,E1 -7800,E2 0,E3 0,E4 0,E5 0,E6 0}
DECL E6POS XP700={X 6590.66,Y 8027.74,Z 469.28,A 119.672,B 26.361,C -0.713,S 6,T 27,E1 -7800,E2 0,E3 0,E4 0,E5 0,E6 0}
DECL E6POS XMP80708305={X 6547.35,Y 8002.74,Z 469.58,A 119.672,B 26.361,C -0.713,S 6,T 27,E1 -7800,E2 0,E3 0,E4 0,E5 0,E6 0}
DECL E6POS XP705={X 6518.02,Y 7985.81,Z 469.78,A 119.672,B 26.361,C -0.713,S 6,T 27,E1 -7800,E2 0,E3 0,E4 0,E5 0,E6 0}
DECL E6POS XP710={X 6541.08,Y 7947.85,Z 380.19,A 119.672,B 26.361,C -0.713,S 6,T 27,E1 -7800,E2 0,E3 0,E4 0,E5 0,E6 0}
DECL E6POS XP715={X 6475.2,Y 7954.12,Z 470.07,A 148.602,B 26.65,C 1.153,S 6,T 27,E1 -7800,E2 0,E3 0,E4 0,E5 0,E6 0}
DECL E6POS XMP80708304={X 6458.35,Y 7925.43,Z 470.32,A 148.602,B 26.65,C 1.153,S 6,T 27,E1 -7800,E2 0,E3 0,E4 0,E5 0,E6 0}
DECL E6POS XP720={X 6441.5,Y 7896.75,Z 470.59,A 148.602,B 26.65,C 1.153,S 6,T 27,E1 -7800,E2 0,E3 0,E4 0,E5 0,E6 0}
DECL E6POS XP725={X 6444.95,Y 7901.48,Z 470.84,A 119.88,B 26.361,C 0.413,S 6,T 27,E1 -7800,E2 0,E3 0,E4 0,E5 0,E6 0}
DECL E6POS XMP80708303={X 6419.03,Y 7886.74,Z 470.72,A 119.88,B 26.361,C 0.413,S 6,T 27,E1 -7800,E2 0,E3 0,E4 0,E5 0,E6 0}
DECL E6POS XP730={X 6393.09,Y 7872.02,Z 470.59,A 119.88,B 26.361,C 0.413,S 6,T 27,E1 -7800,E2 0,E3 0,E4 0,E5 0,E6 0}
DECL E6POS XP735={X 6399.05,Y 7872.35,Z 470.95,A 91.704,B 27.733,C -0.003,S 6,T 27,E1 -7800,E2 0,E3 0,E4 0,E5 0,E6 0}
DECL E6POS XMP80708302={X 6361.85,Y 7871.54,Z 470.93,A 91.704,B 27.733,C -0.003,S 6,T 27,E1 -7800,E2 0,E3 0,E4 0,E5 0,E6 0}
DECL E6POS XP740={X 6324.67,Y 7870.72,Z 470.94,A 91.704,B 27.733,C -0.003,S 6,T 27,E1 -7800,E2 0,E3 0,E4 0,E5 0,E6 0}
DECL E6POS XP745={X 6282.72,Y 7851.11,Z 471.21,A 119.907,B 26.383,C 0.404,S 6,T 27,E1 -7800,E2 0,E3 0,E4 0,E5 0,E6 0}
DECL E6POS XMP80708301={X 6242.16,Y 7827.69,Z 471.4,A 119.907,B 26.383,C 0.404,S 6,T 27,E1 -7800,E2 0,E3 0,E4 0,E5 0,E6 0}
DECL E6POS XP750={X 6201.59,Y 7804.26,Z 471.59,A 119.907,B 26.383,C 0.404,S 6,T 27,E1 -7800,E2 0,E3 0,E4 0,E5 0,E6 0}
DECL E6POS XP755={X 6123.1,Y 7744.87,Z 392.71,A 120.052,B 26.392,C -0.135,S 6,T 27,E1 -7800,E2 0,E3 0,E4 0,E5 0,E6 0}
DECL E6POS XP760={X 6045.94,Y 7992.52,Z 392.07,A 120.392,B 26.389,C 0.631,S 6,T 27,E1 -7800,E2 0,E3 0,E4 0,E5 0,E6 0}
DECL E6POS XP765={X 6101.29,Y 8024.48,Z 467.34,A 121.071,B 26.37,C 2.16,S 6,T 27,E1 -7800,E2 0,E3 0,E4 0,E5 0,E6 0}
DECL E6POS XMP80808301={X 6135.85,Y 8044.43,Z 467.29,A 121.071,B 26.37,C 2.16,S 6,T 27,E1 -7800,E2 0,E3 0,E4 0,E5 0,E6 0}
DECL E6POS XP770={X 6170.49,Y 8064.44,Z 467.23,A 121.071,B 26.37,C 2.16,S 6,T 27,E1 -7800,E2 0,E3 0,E4 0,E5 0,E6 0}
DECL E6POS XP775={X 6220.78,Y 8088.09,Z 467.17,A 90.648,B 27.511,C -1.06,S 6,T 27,E1 -7800,E2 0,E3 0,E4 0,E5 0,E6 0}
DECL E6POS XMP80808302={X 6256.04,Y 8088.65,Z 467.46,A 90.648,B 27.511,C -1.06,S 6,T 27,E1 -7800,E2 0,E3 0,E4 0,E5 0,E6 0}
DECL E6POS XP780={X 6291.32,Y 8089.2,Z 467.73,A 90.648,B 27.511,C -1.06,S 6,T 27,E1 -7800,E2 0,E3 0,E4 0,E5 0,E6 0}
DECL E6POS XP785={X 6280.63,Y 8086.75,Z 467.26,A 121.071,B 26.37,C -0.024,S 6,T 27,E1 -7800,E2 0,E3 0,E4 0,E5 0,E6 0}
DECL E6POS XMP80808303={X 6307.42,Y 8102.45,Z 467.59,A 121.071,B 26.37,C -0.024,S 6,T 27,E1 -7800,E2 0,E3 0,E4 0,E5 0,E6 0}
DECL E6POS XP790={X 6334.21,Y 8118.14,Z 467.92,A 121.071,B 26.37,C -0.024,S 6,T 27,E1 -7800,E2 0,E3 0,E4 0,E5 0,E6 0}
DECL E6POS XP795={X 6330.18,Y 8110.42,Z 467.59,A 149.09,B 28.262,C 1.161,S 6,T 27,E1 -7800,E2 0,E3 0,E4 0,E5 0,E6 0}
DECL E6POS XMP80808304={X 6346.61,Y 8138.11,Z 467.22,A 149.09,B 28.262,C 1.161,S 6,T 27,E1 -7800,E2 0,E3 0,E4 0,E5 0,E6 0}
DECL E6POS XP800={X 6363.03,Y 8165.79,Z 466.85,A 149.09,B 28.262,C 1.161,S 6,T 27,E1 -7800,E2 0,E3 0,E4 0,E5 0,E6 0}
DECL E6POS XP805={X 6402.61,Y 8139.74,Z 378.79,A 149.09,B 28.262,C 1.161,S 6,T 27,E1 -7800,E2 0,E3 0,E4 0,E5 0,E6 0}
DECL E6POS XP810={X 6405.46,Y 8198.98,Z 466.6,A 119.884,B 26.367,C 0.722,S 6,T 27,E1 -7800,E2 0,E3 0,E4 0,E5 0,E6 0}
DECL E6POS XMP80808305={X 6435.34,Y 8216.23,Z 466.49,A 119.884,B 26.367,C 0.722,S 6,T 27,E1 -7800,E2 0,E3 0,E4 0,E5 0,E6 0}
DECL E6POS XP815={X 6465.91,Y 8233.88,Z 466.38,A 119.884,B 26.367,C 0.722,S 6,T 27,E1 -7800,E2 0,E3 0,E4 0,E5 0,E6 0}
DECL E6POS XP820={X 6428.68,Y 8212.16,Z 371.84,A 118.863,B 26.346,C -2.734,S 6,T 27,E1 -7800,E2 0,E3 0,E4 0,E5 0,E6 0}
DECL E6POS XP825={X 6298.37,Y 8415.51,Z 365.91,A 120.125,B 26.392,C 0.029,S 6,T 27,E1 -7800,E2 0,E3 0,E4 0,E5 0,E6 0}
DECL E6POS XP830={X 6370.38,Y 8456.94,Z 460.32,A 121.071,B 26.37,C -0.944,S 6,T 27,E1 -7800,E2 0,E3 0,E4 0,E5 0,E6 0}
DECL E6POS XMP80908305={X 6326.91,Y 8431.84,Z 460.33,A 121.071,B 26.37,C -0.944,S 6,T 27,E1 -7800,E2 0,E3 0,E4 0,E5 0,E6 0}
DECL E6POS XP835={X 6297.75,Y 8414.99,Z 460.33,A 121.071,B 26.37,C -0.944,S 6,T 27,E1 -7800,E2 0,E3 0,E4 0,E5 0,E6 0}
DECL E6POS XP840={X 6256.58,Y 8384.42,Z 460.48,A 147.927,B 28.06,C 1.588,S 6,T 27,E1 -7800,E2 0,E3 0,E4 0,E5 0,E6 0}
DECL E6POS XMP80908304={X 6239.29,Y 8355.99,Z 460.96,A 147.927,B 28.06,C 1.588,S 6,T 27,E1 -7800,E2 0,E3 0,E4 0,E5 0,E6 0}
DECL E6POS XP845={X 6222.01,Y 8327.56,Z 461.46,A 147.927,B 28.06,C 1.588,S 6,T 27,E1 -7800,E2 0,E3 0,E4 0,E5 0,E6 0}
DECL E6POS XP850={X 6227.64,Y 8334.55,Z 461.61,A 119.673,B 26.359,C 0.121,S 6,T 27,E1 -7800,E2 0,E3 0,E4 0,E5 0,E6 0}
DECL E6POS XMP80908303={X 6201.69,Y 8319.86,Z 461.36,A 119.673,B 26.359,C 0.121,S 6,T 27,E1 -7800,E2 0,E3 0,E4 0,E5 0,E6 0}
DECL E6POS XP855={X 6175.74,Y 8305.18,Z 461.1,A 119.673,B 26.359,C 0.121,S 6,T 27,E1 -7800,E2 0,E3 0,E4 0,E5 0,E6 0}
DECL E6POS XP860={X 6186.05,Y 8304.59,Z 461.53,A 90.158,B 27.6,C -1.059,S 6,T 27,E1 -7800,E2 0,E3 0,E4 0,E5 0,E6 0}
DECL E6POS XMP80908302={X 6148.86,Y 8304.45,Z 460.92,A 90.158,B 27.6,C -1.059,S 6,T 27,E1 -7800,E2 0,E3 0,E4 0,E5 0,E6 0}
DECL E6POS XP865={X 6111.67,Y 8304.34,Z 460.3,A 90.158,B 27.6,C -1.059,S 6,T 27,E1 -7800,E2 0,E3 0,E4 0,E5 0,E6 0}
DECL E6POS XP870={X 6067.99,Y 8283.42,Z 460.19,A 119.93,B 26.374,C 0.836,S 6,T 27,E1 -7800,E2 0,E3 0,E4 0,E5 0,E6 0}
DECL E6POS XMP80908301={X 6027.41,Y 8259.98,Z 460.13,A 119.93,B 26.374,C 0.836,S 6,T 27,E1 -7800,E2 0,E3 0,E4 0,E5 0,E6 0}
DECL E6POS XP875={X 5986.89,Y 8236.58,Z 460.07,A 119.93,B 26.374,C 0.836,S 6,T 27,E1 -7800,E2 0,E3 0,E4 0,E5 0,E6 0}
DECL E6POS XP880={X 5898.45,Y 8171.55,Z 383.31,A 120.052,B 26.392,C -0.135,S 6,T 27,E1 -7800,E2 0,E3 0,E4 0,E5 0,E6 0}
DECL E6POS XP885={X 5825.68,Y 8421.7,Z 374.93,A 120.392,B 26.389,C 0.631,S 6,T 27,E1 -7800,E2 0,E3 0,E4 0,E5 0,E6 0}
DECL E6POS XP890={X 5881,Y 8453.63,Z 450.02,A 121.071,B 26.37,C 2.16,S 6,T 27,E1 -7800,E2 0,E3 0,E4 0,E5 0,E6 0}
DECL E6POS XMP81008301={X 5915.6,Y 8473.62,Z 450.16,A 121.071,B 26.37,C 2.16,S 6,T 27,E1 -7800,E2 0,E3 0,E4 0,E5 0,E6 0}
DECL E6POS XP895={X 5950.49,Y 8493.78,Z 450.3,A 121.071,B 26.37,C 2.16,S 6,T 27,E1 -7800,E2 0,E3 0,E4 0,E5 0,E6 0}
DECL E6POS XP900={X 6004.01,Y 8520.33,Z 450.66,A 89.933,B 27.346,C -2.046,S 6,T 27,E1 -7800,E2 0,E3 0,E4 0,E5 0,E6 0}
DECL E6POS XMP81008302={X 6039.28,Y 8520.72,Z 451.5,A 89.933,B 27.346,C -2.046,S 6,T 27,E1 -7800,E2 0,E3 0,E4 0,E5 0,E6 0}
DECL E6POS XP905={X 6074.56,Y 8521.13,Z 452.31,A 89.933,B 27.346,C -2.046,S 6,T 27,E1 -7800,E2 0,E3 0,E4 0,E5 0,E6 0}
DECL E6POS XP910={X 6064.06,Y 8520.17,Z 451.51,A 119.213,B 26.357,C -0.849,S 6,T 27,E1 -7800,E2 0,E3 0,E4 0,E5 0,E6 0}
DECL E6POS XMP81008303={X 6091.24,Y 8535.16,Z 452.24,A 119.213,B 26.357,C -0.849,S 6,T 27,E1 -7800,E2 0,E3 0,E4 0,E5 0,E6 0}
DECL E6POS XP915={X 6118.43,Y 8550.14,Z 452.98,A 119.213,B 26.357,C -0.849,S 6,T 27,E1 -7800,E2 0,E3 0,E4 0,E5 0,E6 0}
DECL E6POS XP920={X 6113.08,Y 8546.97,Z 452.35,A 145.508,B 28.336,C 1.467,S 6,T 27,E1 -7800,E2 0,E3 0,E4 0,E5 0,E6 0}
DECL E6POS XMP81008304={X 6131.28,Y 8573.52,Z 451.82,A 145.508,B 28.336,C 1.467,S 6,T 27,E1 -7800,E2 0,E3 0,E4 0,E5 0,E6 0}
DECL E6POS XP925={X 6149.47,Y 8600.09,Z 451.3,A 145.508,B 28.336,C 1.467,S 6,T 27,E1 -7800,E2 0,E3 0,E4 0,E5 0,E6 0}
DECL E6POS XP930={X 6192.24,Y 8632.32,Z 451.23,A 119.884,B 26.367,C 0.042,S 6,T 27,E1 -7800,E2 0,E3 0,E4 0,E5 0,E6 0}
DECL E6POS XMP81008305={X 6222.28,Y 8649.67,Z 451.33,A 119.884,B 26.367,C 0.042,S 6,T 27,E1 -7800,E2 0,E3 0,E4 0,E5 0,E6 0}
DECL E6POS XP935={X 6252.82,Y 8667.32,Z 451.43,A 119.884,B 26.367,C 0.042,S 6,T 27,E1 -7800,E2 0,E3 0,E4 0,E5 0,E6 0}
DECL E6POS XP940={X 6181.64,Y 8625.92,Z 327.82,A 118.369,B 26.323,C -3.847,S 6,T 27,E1 -7800,E2 0,E3 0,E4 0,E5 0,E6 0}
DECL E6POS XP945={X 5380.48,Y 7052.04,Z 320.95,A 119.628,B 26.39,C -1.089,S 6,T 27,E1 -7000,E2 0,E3 0,E4 0,E5 0,E6 0}
DECL E6POS XP950={X 5479.24,Y 7109.24,Z 479.04,A 121.071,B 26.37,C 2.16,S 6,T 27,E1 -7000,E2 0,E3 0,E4 0,E5 0,E6 0}
DECL E6POS XMP80607301={X 5517.14,Y 7131.11,Z 478.42,A 121.071,B 26.37,C 2.16,S 6,T 27,E1 -7000,E2 0,E3 0,E4 0,E5 0,E6 0}
DECL E6POS XP955={X 5555.13,Y 7153.02,Z 477.79,A 121.071,B 26.37,C 2.16,S 6,T 27,E1 -7000,E2 0,E3 0,E4 0,E5 0,E6 0}
DECL E6POS XP960={X 5622.99,Y 7178.5,Z 477.46,A 89.371,B 27.074,C 0.376,S 6,T 27,E1 -7000,E2 0,E3 0,E4 0,E5 0,E6 0}
DECL E6POS XMP80607302={X 5655.48,Y 7178.03,Z 477.28,A 89.371,B 27.074,C 0.376,S 6,T 27,E1 -7000,E2 0,E3 0,E4 0,E5 0,E6 0}
DECL E6POS XP965={X 5687.98,Y 7177.59,Z 477.09,A 89.371,B 27.074,C 0.376,S 6,T 27,E1 -7000,E2 0,E3 0,E4 0,E5 0,E6 0}
DECL E6POS XP970={X 5711.45,Y 7183.76,Z 477.02,A 120.164,B 26.38,C 0.889,S 6,T 27,E1 -7000,E2 0,E3 0,E4 0,E5 0,E6 0}
DECL E6POS XMP80607303={X 5738.78,Y 7199.25,Z 476.88,A 120.164,B 26.38,C 0.889,S 6,T 27,E1 -7000,E2 0,E3 0,E4 0,E5 0,E6 0}
DECL E6POS XP975={X 5766.1,Y 7214.75,Z 476.76,A 120.164,B 26.38,C 0.889,S 6,T 27,E1 -7000,E2 0,E3 0,E4 0,E5 0,E6 0}
DECL E6POS XP980={X 5781.16,Y 7230.02,Z 476.44,A 149.79,B 27.013,C 0.034,S 6,T 27,E1 -7000,E2 0,E3 0,E4 0,E5 0,E6 0}
DECL E6POS XMP80607304={X 5797.53,Y 7258.1,Z 476.42,A 149.79,B 27.013,C 0.034,S 6,T 27,E1 -7000,E2 0,E3 0,E4 0,E5 0,E6 0}
DECL E6POS XP985={X 5813.89,Y 7286.17,Z 476.41,A 149.79,B 27.013,C 0.034,S 6,T 27,E1 -7000,E2 0,E3 0,E4 0,E5 0,E6 0}
DECL E6POS XP990={X 5881.45,Y 7341.42,Z 475.8,A 119.91,B 26.383,C 0.429,S 6,T 27,E1 -7000,E2 0,E3 0,E4 0,E5 0,E6 0}
DECL E6POS XMP80607305={X 5920.19,Y 7363.78,Z 475.51,A 119.91,B 26.383,C 0.429,S 6,T 25,E1 -7000,E2 0,E3 0,E4 0,E5 0,E6 0}
DECL E6POS XP995={X 5959.01,Y 7386.19,Z 475.21,A 119.91,B 26.383,C 0.429,S 6,T 25,E1 -7000,E2 0,E3 0,E4 0,E5 0,E6 0}
DECL E6POS XP1000={X 5890.6,Y 7346.38,Z 389.96,A 120.282,B 26.39,C 0.384,S 6,T 27,E1 -7000,E2 0,E3 0,E4 0,E5 0,E6 0}
DECL E6POS XP1005={X 5792.73,Y 7568.34,Z 379,A 120.125,B 26.392,C 0.029,S 6,T 27,E1 -7000,E2 0,E3 0,E4 0,E5 0,E6 0}
DECL E6POS XP1010={X 5864.66,Y 7609.72,Z 473.14,A 121.071,B 26.37,C 2.16,S 6,T 27,E1 -7000,E2 0,E3 0,E4 0,E5 0,E6 0}
DECL E6POS XMP80707305={X 5821.3,Y 7584.68,Z 473.34,A 121.071,B 26.37,C -0.444,S 6,T 27,E1 -7000,E2 0,E3 0,E4 0,E5 0,E6 0}
DECL E6POS XP1015={X 5792.11,Y 7567.83,Z 473.48,A 121.071,B 26.37,C 2.16,S 6,T 27,E1 -7000,E2 0,E3 0,E4 0,E5 0,E6 0}
DECL E6POS XP1020={X 5811.79,Y 7527.87,Z 383.95,A 121.071,B 26.37,C 2.16,S 6,T 27,E1 -7000,E2 0,E3 0,E4 0,E5 0,E6 0}
DECL E6POS XP1025={X 5717.1,Y 7511.94,Z 473.94,A 149.885,B 28.11,C 1.229,S 6,T 27,E1 -7000,E2 0,E3 0,E4 0,E5 0,E6 0}
DECL E6POS XMP80707304={X 5700.88,Y 7482.9,Z 474.25,A 149.885,B 28.11,C 1.229,S 6,T 27,E1 -7000,E2 0,E3 0,E4 0,E5 0,E6 0}
DECL E6POS XP1030={X 5684.67,Y 7453.86,Z 474.56,A 149.885,B 28.11,C 1.229,S 6,T 27,E1 -7000,E2 0,E3 0,E4 0,E5 0,E6 0}
DECL E6POS XP1035={X 5665.97,Y 7435.88,Z 474.77,A 120.996,B 26.349,C 0.908,S 6,T 27,E1 -7000,E2 0,E3 0,E4 0,E5 0,E6 0}
DECL E6POS XMP80707303={X 5640.28,Y 7420.76,Z 474.87,A 120.996,B 26.349,C 0.908,S 6,T 27,E1 -7000,E2 0,E3 0,E4 0,E5 0,E6 0}
DECL E6POS XP1040={X 5614.57,Y 7405.62,Z 474.99,A 120.996,B 26.349,C 0.908,S 6,T 27,E1 -7000,E2 0,E3 0,E4 0,E5 0,E6 0}
DECL E6POS XP1045={X 5590.07,Y 7398.13,Z 475.14,A 89.674,B 27.791,C -0.721,S 6,T 27,E1 -7000,E2 0,E3 0,E4 0,E5 0,E6 0}
DECL E6POS XMP80707302={X 5552.86,Y 7398.42,Z 474.72,A 89.674,B 27.791,C -0.721,S 6,T 27,E1 -7000,E2 0,E3 0,E4 0,E5 0,E6 0}
DECL E6POS XP1050={X 5515.67,Y 7398.71,Z 474.3,A 89.674,B 27.791,C -0.721,S 6,T 27,E1 -7000,E2 0,E3 0,E4 0,E5 0,E6 0}
DECL E6POS XP1055={X 5436.66,Y 7362.56,Z 474.61,A 119.907,B 26.383,C 0.404,S 6,T 27,E1 -7000,E2 0,E3 0,E4 0,E5 0,E6 0}
DECL E6POS XMP80707301={X 5395.87,Y 7339.03,Z 475.17,A 119.907,B 26.383,C 0.404,S 6,T 27,E1 -7000,E2 0,E3 0,E4 0,E5 0,E6 0}
DECL E6POS XP1060={X 5355.58,Y 7315.78,Z 475.72,A 119.907,B 26.383,C 0.404,S 6,T 27,E1 -7000,E2 0,E3 0,E4 0,E5 0,E6 0}
DECL E6POS XP1065={X 5306.36,Y 7273.34,Z 397.74,A 120.052,B 26.392,C -0.135,S 6,T 27,E1 -7000,E2 0,E3 0,E4 0,E5 0,E6 0}
DECL E6POS XP1070={X 5206.06,Y 7507.41,Z 393.08,A 120.392,B 26.389,C 0.631,S 6,T 27,E1 -7000,E2 0,E3 0,E4 0,E5 0,E6 0}
DECL E6POS XP1075={X 5261.36,Y 7539.35,Z 468.69,A 121.071,B 26.37,C 2.16,S 6,T 27,E1 -7000,E2 0,E3 0,E4 0,E5 0,E6 0}
DECL E6POS XMP80807301={X 5295.97,Y 7559.33,Z 468.31,A 121.071,B 26.37,C 2.16,S 6,T 27,E1 -7000,E2 0,E3 0,E4 0,E5 0,E6 0}
DECL E6POS XP1080={X 5330.66,Y 7579.34,Z 467.92,A 121.071,B 26.37,C 2.16,S 6,T 27,E1 -7000,E2 0,E3 0,E4 0,E5 0,E6 0}
DECL E6POS XP1085={X 5422.15,Y 7619.97,Z 467.6,A 88.908,B 27.464,C -1.926,S 6,T 27,E1 -7000,E2 0,E3 0,E4 0,E5 0,E6 0}
DECL E6POS XMP80807302={X 5457.42,Y 7619.71,Z 468.37,A 88.908,B 27.464,C -1.926,S 6,T 27,E1 -7000,E2 0,E3 0,E4 0,E5 0,E6 0}
DECL E6POS XP1090={X 5492.69,Y 7619.43,Z 469.13,A 88.908,B 27.464,C -1.926,S 6,T 27,E1 -7000,E2 0,E3 0,E4 0,E5 0,E6 0}
DECL E6POS XP1095={X 5512.91,Y 7625.95,Z 469.05,A 121.071,B 26.37,C 0.776,S 6,T 27,E1 -7000,E2 0,E3 0,E4 0,E5 0,E6 0}
DECL E6POS XMP80807303={X 5539.81,Y 7641.47,Z 469,A 121.071,B 26.37,C 0.776,S 6,T 27,E1 -7000,E2 0,E3 0,E4 0,E5 0,E6 0}
DECL E6POS XP1100={X 5566.68,Y 7656.99,Z 468.94,A 121.071,B 26.37,C 0.776,S 6,T 27,E1 -7000,E2 0,E3 0,E4 0,E5 0,E6 0}
DECL E6POS XP1105={X 5622.82,Y 7644.82,Z 384.1,A 145.895,B 28.318,C 0.463,S 6,T 27,E1 -7000,E2 0,E3 0,E4 0,E5 0,E6 0}
DECL E6POS XP1110={X 5582.72,Y 7670.94,Z 468.85,A 150.154,B 28.223,C 1.379,S 6,T 27,E1 -7000,E2 0,E3 0,E4 0,E5 0,E6 0}
DECL E6POS XMP80807304={X 5598.68,Y 7698.9,Z 468.37,A 150.154,B 28.223,C 1.379,S 6,T 27,E1 -7000,E2 0,E3 0,E4 0,E5 0,E6 0}
DECL E6POS XP1115={X 5614.64,Y 7726.85,Z 467.89,A 150.154,B 28.223,C 1.379,S 6,T 27,E1 -7000,E2 0,E3 0,E4 0,E5 0,E6 0}
DECL E6POS XP1120={X 5654.45,Y 7701.23,Z 379.81,A 150.154,B 28.223,C 1.379,S 6,T 27,E1 -7000,E2 0,E3 0,E4 0,E5 0,E6 0}
DECL E6POS XP1125={X 5700.71,Y 7793.08,Z 467.46,A 119.884,B 26.367,C -0.078,S 6,T 27,E1 -7000,E2 0,E3 0,E4 0,E5 0,E6 0}
DECL E6POS XMP80807305={X 5732.36,Y 7811.36,Z 467.43,A 119.884,B 26.367,C -0.078,S 6,T 27,E1 -7000,E2 0,E3 0,E4 0,E5 0,E6 0}
DECL E6POS XP1130={X 5763.01,Y 7829.06,Z 467.4,A 119.884,B 26.367,C -0.078,S 6,T 27,E1 -7000,E2 0,E3 0,E4 0,E5 0,E6 0}
DECL E6POS XP1135={X 5680.57,Y 7781.17,Z 371.57,A 118.863,B 26.346,C -2.734,S 6,T 27,E1 -7000,E2 0,E3 0,E4 0,E5 0,E6 0}
DECL E6POS XP1140={X 5587.41,Y 8005.92,Z 364.69,A 120.125,B 26.392,C 0.029,S 6,T 27,E1 -7000,E2 0,E3 0,E4 0,E5 0,E6 0}
DECL E6POS XP1145={X 5659.36,Y 8047.32,Z 459.12,A 119.955,B 26.382,C -0.24,S 6,T 27,E1 -7000,E2 0,E3 0,E4 0,E5 0,E6 0}
DECL E6POS XMP80907305={X 5615.98,Y 8022.26,Z 459.03,A 119.955,B 26.382,C -0.24,S 6,T 27,E1 -7000,E2 0,E3 0,E4 0,E5 0,E6 0}
DECL E6POS XP1150={X 5586.77,Y 8005.38,Z 458.97,A 119.955,B 26.382,C -0.24,S 6,T 27,E1 -7000,E2 0,E3 0,E4 0,E5 0,E6 0}
DECL E6POS XP1155={X 5609.32,Y 7967.09,Z 369.38,A 119.955,B 26.382,C -0.24,S 6,T 27,E1 -7000,E2 0,E3 0,E4 0,E5 0,E6 0}
DECL E6POS XP1160={X 5518.75,Y 7953.62,Z 459.3,A 150.207,B 28.219,C 1.699,S 6,T 27,E1 -7000,E2 0,E3 0,E4 0,E5 0,E6 0}
DECL E6POS XMP80907304={X 5502.57,Y 7924.56,Z 459.84,A 150.207,B 28.219,C 1.699,S 6,T 27,E1 -7000,E2 0,E3 0,E4 0,E5 0,E6 0}
DECL E6POS XP1165={X 5486.4,Y 7895.49,Z 460.4,A 150.207,B 28.219,C 1.699,S 6,T 27,E1 -7000,E2 0,E3 0,E4 0,E5 0,E6 0}
DECL E6POS XP1170={X 5466.02,Y 7876.55,Z 460.7,A 120.008,B 26.355,C 0.57,S 6,T 27,E1 -7000,E2 0,E3 0,E4 0,E5 0,E6 0}
DECL E6POS XMP80907303={X 5440.1,Y 7861.8,Z 460.63,A 120.008,B 26.355,C 0.57,S 6,T 27,E1 -7000,E2 0,E3 0,E4 0,E5 0,E6 0}
DECL E6POS XP1175={X 5414.19,Y 7847.05,Z 460.59,A 120.008,B 26.355,C 0.57,S 6,T 27,E1 -7000,E2 0,E3 0,E4 0,E5 0,E6 0}
DECL E6POS XP1180={X 5396.72,Y 7842.24,Z 460.39,A 90.851,B 27.66,C -1.489,S 6,T 27,E1 -7000,E2 0,E3 0,E4 0,E5 0,E6 0}
DECL E6POS XMP80907302={X 5359.53,Y 7841.55,Z 459.53,A 90.851,B 27.66,C -1.489,S 6,T 27,E1 -7000,E2 0,E3 0,E4 0,E5 0,E6 0}
DECL E6POS XP1185={X 5322.35,Y 7840.84,Z 458.67,A 90.851,B 27.66,C -1.489,S 6,T 27,E1 -7000,E2 0,E3 0,E4 0,E5 0,E6 0}
DECL E6POS XP1190={X 5225.51,Y 7796.67,Z 458.26,A 119.93,B 26.374,C -0.461,S 6,T 27,E1 -7000,E2 0,E3 0,E4 0,E5 0,E6 0}
DECL E6POS XMP80907301={X 5184.64,Y 7773.07,Z 458.6,A 119.93,B 26.374,C -0.461,S 6,T 27,E1 -7000,E2 0,E3 0,E4 0,E5 0,E6 0}
DECL E6POS XP1195={X 5143.85,Y 7749.53,Z 458.94,A 119.93,B 26.374,C -0.461,S 6,T 27,E1 -7000,E2 0,E3 0,E4 0,E5 0,E6 0}
DECL E6POS XP1200={X 5087.97,Y 7703.34,Z 382.81,A 120.052,B 26.392,C -0.135,S 6,T 27,E1 -7000,E2 0,E3 0,E4 0,E5 0,E6 0}
DECL E6POS XP1205={X 4972.37,Y 7928.57,Z 371.01,A 120.392,B 26.389,C 0.631,S 6,T 27,E1 -7000,E2 0,E3 0,E4 0,E5 0,E6 0}
DECL E6POS XP1210={X 5027.56,Y 7960.46,Z 446.45,A 120.457,B 26.366,C -0.549,S 6,T 27,E1 -7000,E2 0,E3 0,E4 0,E5 0,E6 0}
DECL E6POS XMP81007301={X 5062.28,Y 7980.5,Z 446.25,A 120.457,B 26.366,C -0.549,S 6,T 27,E1 -7000,E2 0,E3 0,E4 0,E5 0,E6 0}
DECL E6POS XP1215={X 5096.91,Y 8000.49,Z 446.05,A 120.457,B 26.366,C -0.549,S 6,T 27,E1 -7000,E2 0,E3 0,E4 0,E5 0,E6 0}
DECL E6POS XP1220={X 5223.94,Y 8061.23,Z 446.92,A 89.239,B 27.427,C -2.532,S 6,T 27,E1 -7000,E2 0,E3 0,E4 0,E5 0,E6 0}
DECL E6POS XMP81007302={X 5259.2,Y 8061.33,Z 448.02,A 89.239,B 27.427,C -2.532,S 6,T 27,E1 -7000,E2 0,E3 0,E4 0,E5 0,E6 0}
DECL E6POS XP1225={X 5294.48,Y 8061.43,Z 449.13,A 89.239,B 27.427,C -2.532,S 6,T 27,E1 -7000,E2 0,E3 0,E4 0,E5 0,E6 0}
DECL E6POS XP1230={X 5340.39,Y 8035.84,Z 363.05,A 119.213,B 26.357,C -0.849,S 6,T 27,E1 -7000,E2 0,E3 0,E4 0,E5 0,E6 0}
DECL E6POS XP1235={X 5316.1,Y 8067.18,Z 449.37,A 120.106,B 26.366,C -0.453,S 6,T 27,E1 -7000,E2 0,E3 0,E4 0,E5 0,E6 0}
DECL E6POS XMP81007303={X 5342,Y 8082.31,Z 449.58,A 120.106,B 26.366,C -0.453,S 6,T 27,E1 -7000,E2 0,E3 0,E4 0,E5 0,E6 0}
DECL E6POS XP1240={X 5367.9,Y 8097.45,Z 449.79,A 120.106,B 26.366,C -0.453,S 6,T 27,E1 -7000,E2 0,E3 0,E4 0,E5 0,E6 0}
DECL E6POS XP1245={X 5385.46,Y 8112.9,Z 449.62,A 149.985,B 28.086,C 1.967,S 6,T 27,E1 -7000,E2 0,E3 0,E4 0,E5 0,E6 0}
DECL E6POS XMP81007304={X 5401.64,Y 8140.73,Z 448.84,A 149.985,B 28.086,C 1.967,S 6,T 27,E1 -7000,E2 0,E3 0,E4 0,E5 0,E6 0}
DECL E6POS XP1250={X 5417.81,Y 8168.56,Z 448.08,A 149.985,B 28.086,C 1.967,S 6,T 27,E1 -7000,E2 0,E3 0,E4 0,E5 0,E6 0}
DECL E6POS XP1255={X 5564.72,Y 8270.88,Z 448.67,A 119.326,B 26.353,C -1.706,S 6,T 27,E1 -7000,E2 0,E3 0,E4 0,E5 0,E6 0}
DECL E6POS XMP81007305={X 5595.32,Y 8288.54,Z 448.79,A 119.326,B 26.353,C -1.706,S 6,T 27,E1 -7000,E2 0,E3 0,E4 0,E5 0,E6 0}
DECL E6POS XP1260={X 5625.93,Y 8306.19,Z 448.92,A 119.326,B 26.353,C -1.706,S 6,T 27,E1 -7000,E2 0,E3 0,E4 0,E5 0,E6 0}
DECL E6POS XP1265={X 5530.29,Y 8250.65,Z 324.55,A 118.367,B 26.322,C -3.853,S 6,T 27,E1 -7000,E2 0,E3 0,E4 0,E5 0,E6 0}
DECL E6POS XP1270={X 4489.21,Y 6537.4,Z 324.24,A 119.63,B 26.39,C -1.084,S 6,T 27,E1 -6200,E2 0,E3 0,E4 0,E5 0,E6 0}
DECL E6POS XP1275={X 4588.04,Y 6594.09,Z 482.23,A 121.071,B 26.37,C 0.69,S 6,T 27,E1 -6200,E2 0,E3 0,E4 0,E5 0,E6 0}
DECL E6POS XMP80606301={X 4625.62,Y 6616.31,Z 482.22,A 121.071,B 26.37,C 0.69,S 6,T 27,E1 -6200,E2 0,E3 0,E4 0,E5 0,E6 0}
DECL E6POS XP1280={X 4663.19,Y 6638.54,Z 482.19,A 121.071,B 26.37,C 0.69,S 6,T 27,E1 -6200,E2 0,E3 0,E4 0,E5 0,E6 0}
DECL E6POS XP1285={X 4775.87,Y 6693.07,Z 481.58,A 92.259,B 26.966,C -0.276,S 6,T 27,E1 -6200,E2 0,E3 0,E4 0,E5 0,E6 0}
DECL E6POS XMP80606302={X 4808.35,Y 6694.43,Z 481.71,A 92.259,B 26.966,C -0.276,S 6,T 27,E1 -6200,E2 0,E3 0,E4 0,E5 0,E6 0}
DECL E6POS XP1290={X 4840.82,Y 6695.78,Z 481.86,A 92.259,B 26.966,C -0.276,S 6,T 27,E1 -6200,E2 0,E3 0,E4 0,E5 0,E6 0}
DECL E6POS XP1295={X 4830.03,Y 6693.5,Z 481.68,A 119.941,B 26.384,C 0.49,S 6,T 27,E1 -6200,E2 0,E3 0,E4 0,E5 0,E6 0}
DECL E6POS XMP80606303={X 4857.37,Y 6708.97,Z 481.75,A 119.941,B 26.384,C 0.49,S 6,T 27,E1 -6200,E2 0,E3 0,E4 0,E5 0,E6 0}
DECL E6POS XP1300={X 4884.7,Y 6724.45,Z 481.81,A 119.941,B 26.384,C 0.49,S 6,T 27,E1 -6200,E2 0,E3 0,E4 0,E5 0,E6 0}
DECL E6POS XP1305={X 4883.11,Y 6723.92,Z 481.8,A 147.361,B 26.903,C 0.706,S 6,T 27,E1 -6200,E2 0,E3 0,E4 0,E5 0,E6 0}
DECL E6POS XMP80606304={X 4900.78,Y 6751.19,Z 481.45,A 147.361,B 26.903,C 0.706,S 6,T 27,E1 -6200,E2 0,E3 0,E4 0,E5 0,E6 0}
DECL E6POS XP1310={X 4918.47,Y 6778.45,Z 481.08,A 147.361,B 26.903,C 0.706,S 6,T 27,E1 -6200,E2 0,E3 0,E4 0,E5 0,E6 0}
DECL E6POS XP1315={X 4955.9,Y 6753.01,Z 391.91,A 147.361,B 26.903,C 0.706,S 6,T 27,E1 -6200,E2 0,E3 0,E4 0,E5 0,E6 0}
DECL E6POS XP1320={X 4970.31,Y 6815.36,Z 481.02,A 119.91,B 26.383,C 0.429,S 6,T 27,E1 -6200,E2 0,E3 0,E4 0,E5 0,E6 0}
DECL E6POS XMP80606305={X 5009.1,Y 6837.76,Z 480.87,A 119.91,B 26.383,C 0.429,S 6,T 27,E1 -6200,E2 0,E3 0,E4 0,E5 0,E6 0}
DECL E6POS XP1325={X 5047.87,Y 6860.15,Z 480.73,A 119.91,B 26.383,C 0.429,S 6,T 27,E1 -6200,E2 0,E3 0,E4 0,E5 0,E6 0}
DECL E6POS XP1330={X 5071.09,Y 6873.19,Z 393.99,A 120.282,B 26.39,C 0.384,S 6,T 27,E1 -6200,E2 0,E3 0,E4 0,E5 0,E6 0}
DECL E6POS XP1335={X 4877.83,Y 7040.01,Z 381.9,A 120.125,B 26.392,C 0.029,S 6,T 27,E1 -6200,E2 0,E3 0,E4 0,E5 0,E6 0}
DECL E6POS XP1340={X 4949.84,Y 7081.43,Z 476.19,A 121.071,B 26.37,C 2.16,S 6,T 27,E1 -6200,E2 0,E3 0,E4 0,E5 0,E6 0}
DECL E6POS XMP80706305={X 4906.4,Y 7056.34,Z 476.23,A 121.071,B 26.37,C 0.956,S 6,T 27,E1 -6200,E2 0,E3 0,E4 0,E5 0,E6 0}
DECL E6POS XP1345={X 4876.91,Y 7039.31,Z 476.27,A 121.071,B 26.37,C 2.16,S 6,T 27,E1 -6200,E2 0,E3 0,E4 0,E5 0,E6 0}
DECL E6POS XP1350={X 4834.72,Y 7007.05,Z 476.32,A 145.706,B 28.409,C 1.549,S 6,T 27,E1 -6200,E2 0,E3 0,E4 0,E5 0,E6 0}
DECL E6POS XMP80706304={X 4816.35,Y 6979.33,Z 476.79,A 145.706,B 28.409,C 1.549,S 6,T 27,E1 -6200,E2 0,E3 0,E4 0,E5 0,E6 0}
DECL E6POS XP1355={X 4797.99,Y 6951.59,Z 477.26,A 145.706,B 28.409,C 1.549,S 6,T 27,E1 -6200,E2 0,E3 0,E4 0,E5 0,E6 0}
DECL E6POS XP1360={X 4800.9,Y 6953.95,Z 477.29,A 119.88,B 26.361,C 0.413,S 6,T 27,E1 -6200,E2 0,E3 0,E4 0,E5 0,E6 0}
DECL E6POS XMP80706303={X 4774.98,Y 6939.22,Z 477.17,A 119.88,B 26.361,C 0.413,S 6,T 27,E1 -6200,E2 0,E3 0,E4 0,E5 0,E6 0}
DECL E6POS XP1365={X 4749.06,Y 6924.5,Z 477.04,A 119.88,B 26.361,C 0.413,S 6,T 27,E1 -6200,E2 0,E3 0,E4 0,E5 0,E6 0}
DECL E6POS XP1370={X 4755.7,Y 6923.6,Z 477.16,A 89.59,B 27.556,C -0.694,S 6,T 27,E1 -6200,E2 0,E3 0,E4 0,E5 0,E6 0}
DECL E6POS XMP80706302={X 4718.5,Y 6923.97,Z 476.76,A 89.59,B 27.556,C -0.694,S 6,T 27,E1 -6200,E2 0,E3 0,E4 0,E5 0,E6 0}
DECL E6POS XP1375={X 4681.31,Y 6924.32,Z 476.35,A 89.59,B 27.556,C -0.694,S 6,T 27,E1 -6200,E2 0,E3 0,E4 0,E5 0,E6 0}
DECL E6POS XP1380={X 4575.26,Y 6865.08,Z 476.64,A 119.907,B 26.383,C 0.404,S 6,T 27,E1 -6200,E2 0,E3 0,E4 0,E5 0,E6 0}
DECL E6POS XMP80706301={X 4534.49,Y 6841.53,Z 476.56,A 119.907,B 26.383,C 0.404,S 6,T 27,E1 -6200,E2 0,E3 0,E4 0,E5 0,E6 0}
DECL E6POS XP1385={X 4493.93,Y 6818.09,Z 476.47,A 119.907,B 26.383,C 0.404,S 6,T 27,E1 -6200,E2 0,E3 0,E4 0,E5 0,E6 0}
DECL E6POS XP1390={X 4407.74,Y 6754.4,Z 400.14,A 120.052,B 26.392,C -0.135,S 6,T 27,E1 -6200,E2 0,E3 0,E4 0,E5 0,E6 0}
DECL E6POS XP1395={X 4352.62,Y 7014.39,Z 392.53,A 120.392,B 26.389,C 0.631,S 6,T 27,E1 -6200,E2 0,E3 0,E4 0,E5 0,E6 0}
DECL E6POS XP1400={X 4407.95,Y 7046.33,Z 467.6,A 121.071,B 26.37,C 2.16,S 6,T 27,E1 -6200,E2 0,E3 0,E4 0,E5 0,E6 0}
DECL E6POS XMP80806301={X 4442.53,Y 7066.31,Z 467.76,A 121.071,B 26.37,C 2.16,S 6,T 27,E1 -6200,E2 0,E3 0,E4 0,E5 0,E6 0}
DECL E6POS XP1405={X 4477.78,Y 7086.68,Z 467.91,A 121.071,B 26.37,C 2.16,S 6,T 27,E1 -6200,E2 0,E3 0,E4 0,E5 0,E6 0}
DECL E6POS XP1410={X 4605.33,Y 7152.5,Z 468,A 92.271,B 27.425,C -1.951,S 6,T 27,E1 -6200,E2 0,E3 0,E4 0,E5 0,E6 0}
DECL E6POS XMP80806302={X 4640.57,Y 7154.29,Z 468.77,A 92.271,B 27.425,C -1.951,S 6,T 27,E1 -6200,E2 0,E3 0,E4 0,E5 0,E6 0}
DECL E6POS XP1415={X 4675.8,Y 7156.09,Z 469.56,A 92.271,B 27.425,C -1.951,S 6,T 27,E1 -6200,E2 0,E3 0,E4 0,E5 0,E6 0}
DECL E6POS XP1420={X 4665.2,Y 7154.39,Z 469.04,A 121.071,B 26.37,C -0.024,S 6,T 27,E1 -6200,E2 0,E3 0,E4 0,E5 0,E6 0}
DECL E6POS XMP80806303={X 4691.99,Y 7170.08,Z 469.37,A 121.071,B 26.37,C -0.024,S 6,T 27,E1 -6200,E2 0,E3 0,E4 0,E5 0,E6 0}
DECL E6POS XP1425={X 4718.78,Y 7185.78,Z 469.69,A 121.071,B 26.37,C -0.024,S 6,T 27,E1 -6200,E2 0,E3 0,E4 0,E5 0,E6 0}
DECL E6POS XP1430={X 4712.44,Y 7179.51,Z 469.58,A 145.957,B 28.52,C 1.571,S 6,T 27,E1 -6200,E2 0,E3 0,E4 0,E5 0,E6 0}
DECL E6POS XMP80806304={X 4730.45,Y 7206.2,Z 469,A 145.957,B 28.52,C 1.571,S 6,T 27,E1 -6200,E2 0,E3 0,E4 0,E5 0,E6 0}
DECL E6POS XP1435={X 4748.47,Y 7232.87,Z 468.43,A 145.957,B 28.52,C 1.571,S 6,T 27,E1 -6200,E2 0,E3 0,E4 0,E5 0,E6 0}
DECL E6POS XP1440={X 4786.48,Y 7203.88,Z 380.6,A 145.957,B 28.52,C 1.571,S 6,T 27,E1 -6200,E2 0,E3 0,E4 0,E5 0,E6 0}
DECL E6POS XP1445={X 4796.39,Y 7270.54,Z 468.54,A 119.884,B 26.367,C -1.178,S 6,T 27,E1 -6200,E2 0,E3 0,E4 0,E5 0,E6 0}
DECL E6POS XMP80806305={X 4826.88,Y 7288.36,Z 468.38,A 119.884,B 26.367,C -1.178,S 6,T 27,E1 -6200,E2 0,E3 0,E4 0,E5 0,E6 0}
DECL E6POS XP1450={X 4857.38,Y 7306.19,Z 468.21,A 119.884,B 26.367,C -1.178,S 6,T 27,E1 -6200,E2 0,E3 0,E4 0,E5 0,E6 0}
DECL E6POS XP1455={X 4837.04,Y 7293.91,Z 371.82,A 118.863,B 26.346,C -2.734,S 6,T 27,E1 -6200,E2 0,E3 0,E4 0,E5 0,E6 0}
DECL E6POS XP1460={X 4717.16,Y 7503.15,Z 363.38,A 120.125,B 26.392,C 0.029,S 6,T 27,E1 -6200,E2 0,E3 0,E4 0,E5 0,E6 0}
DECL E6POS XP1465={X 4771.66,Y 7534.58,Z 457.87,A 120.067,B 26.348,C -0.29,S 6,T 27,E1 -6200,E2 0,E3 0,E4 0,E5 0,E6 0}
DECL E6POS XMP80906305={X 4745.73,Y 7519.49,Z 457.73,A 120.067,B 26.348,C -0.29,S 6,T 27,E1 -6200,E2 0,E3 0,E4 0,E5 0,E6 0}
DECL E6POS XP1470={X 4719.8,Y 7504.4,Z 457.59,A 120.067,B 26.348,C -0.29,S 6,T 27,E1 -6200,E2 0,E3 0,E4 0,E5 0,E6 0}
DECL E6POS XP1475={X 4742.47,Y 7466.25,Z 367.98,A 120.067,B 26.348,C -0.29,S 6,T 27,E1 -6200,E2 0,E3 0,E4 0,E5 0,E6 0}
DECL E6POS XP1480={X 4665.88,Y 7468.39,Z 457.58,A 149.307,B 27.78,C 1.934,S 6,T 27,E1 -6200,E2 0,E3 0,E4 0,E5 0,E6 0}
DECL E6POS XMP80906304={X 4649.2,Y 7439.61,Z 458.25,A 149.307,B 27.78,C 1.934,S 6,T 27,E1 -6200,E2 0,E3 0,E4 0,E5 0,E6 0}
DECL E6POS XP1485={X 4632.53,Y 7410.83,Z 458.92,A 149.307,B 27.78,C 1.934,S 6,T 27,E1 -6200,E2 0,E3 0,E4 0,E5 0,E6 0}
DECL E6POS XP1490={X 4633.86,Y 7413.9,Z 459,A 119.673,B 26.359,C 0.121,S 6,T 27,E1 -6200,E2 0,E3 0,E4 0,E5 0,E6 0}
DECL E6POS XMP80906303={X 4607.91,Y 7399.21,Z 458.74,A 119.673,B 26.359,C 0.121,S 6,T 27,E1 -6200,E2 0,E3 0,E4 0,E5 0,E6 0}
DECL E6POS XP1495={X 4581.97,Y 7384.52,Z 458.49,A 119.673,B 26.359,C 0.121,S 6,T 27,E1 -6200,E2 0,E3 0,E4 0,E5 0,E6 0}
DECL E6POS XP1500={X 4590.68,Y 7384.16,Z 459.07,A 90.172,B 27.6,C -2.181,S 6,T 27,E1 -6200,E2 0,E3 0,E4 0,E5 0,E6 0}
DECL E6POS XMP80906302={X 4553.5,Y 7383.7,Z 457.82,A 90.172,B 27.6,C -2.181,S 6,T 27,E1 -6200,E2 0,E3 0,E4 0,E5 0,E6 0}
DECL E6POS XP1505={X 4516.33,Y 7383.23,Z 456.56,A 90.172,B 27.6,C -2.181,S 6,T 27,E1 -6200,E2 0,E3 0,E4 0,E5 0,E6 0}
DECL E6POS XP1510={X 4405.17,Y 7322.71,Z 456.52,A 119.93,B 26.374,C 0.836,S 6,T 27,E1 -6200,E2 0,E3 0,E4 0,E5 0,E6 0}
DECL E6POS XMP80906301={X 4364.48,Y 7299.19,Z 456.25,A 119.93,B 26.374,C 0.836,S 6,T 27,E1 -6200,E2 0,E3 0,E4 0,E5 0,E6 0}
DECL E6POS XP1515={X 4323.94,Y 7275.76,Z 455.98,A 119.93,B 26.374,C 0.836,S 6,T 27,E1 -6200,E2 0,E3 0,E4 0,E5 0,E6 0}
DECL E6POS XP1520={X 4431.81,Y 7285.86,Z 365.09,A 119.93,B 26.374,C 0.836,S 6,T 27,E1 -6200,E2 0,E3 0,E4 0,E5 0,E6 0}
DECL E6POS XP1525={X 4201.81,Y 7483.27,Z 367.15,A 120.392,B 26.389,C 0.631,S 6,T 27,E1 -6200,E2 0,E3 0,E4 0,E5 0,E6 0}
DECL E6POS XP1530={X 4257.12,Y 7515.19,Z 442.11,A 121.071,B 26.37,C 2.16,S 6,T 27,E1 -6200,E2 0,E3 0,E4 0,E5 0,E6 0}
DECL E6POS XMP81006301={X 4291.72,Y 7535.19,Z 442.38,A 121.071,B 26.37,C 2.16,S 6,T 27,E1 -6200,E2 0,E3 0,E4 0,E5 0,E6 0}
DECL E6POS XP1535={X 4326.57,Y 7555.34,Z 442.65,A 121.071,B 26.37,C 2.16,S 6,T 27,E1 -6200,E2 0,E3 0,E4 0,E5 0,E6 0}
DECL E6POS XP1540={X 4436.33,Y 7613.14,Z 443.21,A 90.486,B 27.175,C -2.784,S 6,T 27,E1 -6200,E2 0,E3 0,E4 0,E5 0,E6 0}
DECL E6POS XMP81006302={X 4471.59,Y 7614.07,Z 444.43,A 90.486,B 27.175,C -2.784,S 6,T 27,E1 -6200,E2 0,E3 0,E4 0,E5 0,E6 0}
DECL E6POS XP1545={X 4506.82,Y 7615,Z 445.67,A 90.486,B 27.175,C -2.784,S 6,T 27,E1 -6200,E2 0,E3 0,E4 0,E5 0,E6 0}
DECL E6POS XP1550={X 4494.96,Y 7613.53,Z 444.8,A 119.213,B 26.357,C -0.849,S 6,T 27,E1 -6200,E2 0,E3 0,E4 0,E5 0,E6 0}
DECL E6POS XMP81006303={X 4522.15,Y 7628.51,Z 445.53,A 118.88,B 26.353,C -0.998,S 6,T 27,E1 -6200,E2 0,E3 0,E4 0,E5 0,E6 0}
DECL E6POS XP1555={X 4549.33,Y 7643.49,Z 446.25,A 119.213,B 26.357,C -0.849,S 6,T 27,E1 -6200,E2 0,E3 0,E4 0,E5 0,E6 0}
DECL E6POS XP1560={X 4546.46,Y 7640.27,Z 445.77,A 147.479,B 28.152,C 1.81,S 6,T 27,E1 -6200,E2 0,E3 0,E4 0,E5 0,E6 0}
DECL E6POS XMP81006304={X 4563.8,Y 7667.39,Z 445.08,A 147.479,B 28.152,C 1.81,S 6,T 27,E1 -6200,E2 0,E3 0,E4 0,E5 0,E6 0}
DECL E6POS XP1565={X 4581.14,Y 7694.5,Z 444.38,A 147.479,B 28.152,C 1.81,S 6,T 27,E1 -6200,E2 0,E3 0,E4 0,E5 0,E6 0}
DECL E6POS XP1570={X 4625.86,Y 7728.29,Z 444.32,A 119.884,B 26.367,C -0.358,S 6,T 27,E1 -6200,E2 0,E3 0,E4 0,E5 0,E6 0}
DECL E6POS XMP81006305={X 4651.82,Y 7743.31,Z 444.49,A 119.884,B 26.367,C -0.358,S 6,T 27,E1 -6200,E2 0,E3 0,E4 0,E5 0,E6 0}
DECL E6POS XP1575={X 4677.79,Y 7758.33,Z 444.66,A 119.884,B 26.367,C -0.358,S 6,T 27,E1 -6200,E2 0,E3 0,E4 0,E5 0,E6 0}
DECL E6POS XP1580={X 4581.1,Y 7702.16,Z 286.38,A 117.872,B 26.29,C -4.968,S 6,T 27,E1 -6200,E2 0,E3 0,E4 0,E5 0,E6 0}
DECL E6POS XP1585={X 8099.58,Y 8700.43,Z -138.59,A 113.141,B -22.755,C 16.952,S 6,T 27,E1 -10200,E2 0,E3 0,E4 0,E5 0,E6 0}
DECL E6POS XP1590={X 7798.26,Y 8558.9,Z 348.5,A 117.984,B -23.53,C 6.125,S 6,T 27,E1 -10200,E2 0,E3 0,E4 0,E5 0,E6 0}
DECL E6POS XP1595={X 7748.86,Y 8530.16,Z 457.2,A 118.942,B -23.584,C 0.734,S 6,T 27,E1 -10200,E2 0,E3 0,E4 0,E5 0,E6 0}
DECL E6POS XMP80610401={X 7780.08,Y 8548.18,Z 456.86,A 118.942,B -23.584,C 0.734,S 6,T 27,E1 -10200,E2 0,E3 0,E4 0,E5 0,E6 0}
DECL E6POS XP1600={X 7810.19,Y 8565.55,Z 456.52,A 118.942,B -23.584,C 0.734,S 6,T 27,E1 -10200,E2 0,E3 0,E4 0,E5 0,E6 0}
DECL E6POS XP1605={X 7863.83,Y 8604.93,Z 456.22,A 150.905,B -24.593,C -0.046,S 6,T 27,E1 -10200,E2 0,E3 0,E4 0,E5 0,E6 0}
DECL E6POS XMP80610402={X 7880.85,Y 8635.52,Z 456.23,A 150.905,B -24.593,C -0.046,S 6,T 27,E1 -10200,E2 0,E3 0,E4 0,E5 0,E6 0}
DECL E6POS XP1610={X 7897.88,Y 8666.1,Z 456.27,A 150.905,B -24.593,C -0.046,S 6,T 27,E1 -10200,E2 0,E3 0,E4 0,E5 0,E6 0}
DECL E6POS XP1615={X 7913.27,Y 8680.46,Z 456.47,A 118.722,B -23.586,C 1.627,S 6,T 27,E1 -10200,E2 0,E3 0,E4 0,E5 0,E6 0}
DECL E6POS XMP80610403={X 7939.03,Y 8695.25,Z 456.08,A 118.722,B -23.586,C 1.627,S 6,T 27,E1 -10200,E2 0,E3 0,E4 0,E5 0,E6 0}
DECL E6POS XP1620={X 7964.77,Y 8710.04,Z 455.69,A 118.722,B -23.586,C 1.627,S 6,T 27,E1 -10200,E2 0,E3 0,E4 0,E5 0,E6 0}
DECL E6POS XP1625={X 7983.52,Y 8716.16,Z 455.59,A 89.585,B -21.221,C 2.1,S 6,T 27,E1 -10200,E2 0,E3 0,E4 0,E5 0,E6 0}
DECL E6POS XMP80610404={X 8018.5,Y 8717.3,Z 454.76,A 89.585,B -21.221,C 2.1,S 6,T 27,E1 -10200,E2 0,E3 0,E4 0,E5 0,E6 0}
DECL E6POS XP1630={X 8053.48,Y 8718.44,Z 453.93,A 89.585,B -21.221,C 2.1,S 6,T 27,E1 -10200,E2 0,E3 0,E4 0,E5 0,E6 0}
DECL E6POS XP1635={X 8110.53,Y 8738.87,Z 453.17,A 119.267,B -23.599,C 1.074,S 6,T 27,E1 -10200,E2 0,E3 0,E4 0,E5 0,E6 0}
DECL E6POS XMP80610405={X 8154.24,Y 8764.1,Z 452.68,A 119.267,B -23.599,C 1.074,S 6,T 27,E1 -10200,E2 0,E3 0,E4 0,E5 0,E6 0}
DECL E6POS XP1640={X 8197.73,Y 8789.2,Z 452.2,A 119.267,B -23.599,C 1.074,S 6,T 27,E1 -10200,E2 0,E3 0,E4 0,E5 0,E6 0}
DECL E6POS XP1645={X 8182.96,Y 8780.6,Z 382.33,A 118.795,B -23.581,C 3.29,S 6,T 27,E1 -10200,E2 0,E3 0,E4 0,E5 0,E6 0}
DECL E6POS XP1650={X 7756.83,Y 8812.79,Z 284.26,A 115.892,B -33.389,C 7.639,S 6,T 27,E1 -10200,E2 0,E3 0,E4 0,E5 0,E6 0}
DECL E6POS XP1655={X 7622.58,Y 8735.51,Z 460.37,A 118.827,B -33.592,C 2.321,S 6,T 27,E1 -10200,E2 0,E3 0,E4 0,E5 0,E6 0}
DECL E6POS XMP80710401={X 7662.68,Y 8758.65,Z 460,A 118.827,B -33.592,C 2.321,S 6,T 27,E1 -10200,E2 0,E3 0,E4 0,E5 0,E6 0}
DECL E6POS XP1660={X 7702.75,Y 8781.78,Z 459.64,A 118.827,B -33.592,C 2.321,S 6,T 27,E1 -10200,E2 0,E3 0,E4 0,E5 0,E6 0}
DECL E6POS XP1665={X 7749.39,Y 8816.22,Z 459.01,A 149.1,B -34.596,C 0.074,S 6,T 27,E1 -10200,E2 0,E3 0,E4 0,E5 0,E6 0}
DECL E6POS XMP80710402={X 7767.34,Y 8846.26,Z 458.97,A 149.1,B -34.596,C 0.074,S 6,T 27,E1 -10200,E2 0,E3 0,E4 0,E5 0,E6 0}
DECL E6POS XP1670={X 7785.29,Y 8876.31,Z 458.94,A 149.1,B -34.596,C 0.074,S 6,T 27,E1 -10200,E2 0,E3 0,E4 0,E5 0,E6 0}
DECL E6POS XP1675={X 7797.54,Y 8888.6,Z 458.81,A 119.343,B -33.608,C 2.035,S 6,T 27,E1 -10200,E2 0,E3 0,E4 0,E5 0,E6 0}
DECL E6POS XMP80710403={X 7821.26,Y 8902.52,Z 458.46,A 119.343,B -33.608,C 2.035,S 6,T 27,E1 -10200,E2 0,E3 0,E4 0,E5 0,E6 0}
DECL E6POS XP1680={X 7844.96,Y 8916.45,Z 458.11,A 119.343,B -33.608,C 2.035,S 6,T 27,E1 -10200,E2 0,E3 0,E4 0,E5 0,E6 0}
DECL E6POS XP1685={X 7856.82,Y 8920.31,Z 458.14,A 93.298,B -31.288,C 0.233,S 6,T 27,E1 -10200,E2 0,E3 0,E4 0,E5 0,E6 0}
DECL E6POS XMP80710404={X 7892.58,Y 8922.33,Z 457.83,A 88.077,B -31.164,C 0.818,S 6,T 27,E1 -10200,E2 0,E3 0,E4 0,E5 0,E6 0}
DECL E6POS XP1690={X 7928.36,Y 8924.36,Z 457.53,A 93.298,B -31.288,C 0.233,S 6,T 27,E1 -10200,E2 0,E3 0,E4 0,E5 0,E6 0}
DECL E6POS XP1695={X 7989.59,Y 8947.34,Z 456.97,A 118.827,B -33.592,C 2.321,S 6,T 27,E1 -10200,E2 0,E3 0,E4 0,E5 0,E6 0}
DECL E6POS XMP80710405={X 8029.77,Y 8970.53,Z 456.58,A 118.827,B -33.592,C 2.321,S 6,T 27,E1 -10200,E2 0,E3 0,E4 0,E5 0,E6 0}
DECL E6POS XP1700={X 8069.77,Y 8993.62,Z 456.19,A 118.827,B -33.592,C 2.321,S 6,T 27,E1 -10200,E2 0,E3 0,E4 0,E5 0,E6 0}
DECL E6POS XP1705={X 8126.62,Y 9026.09,Z 384.53,A 117.9,B -33.552,C 3.999,S 6,T 27,E1 -10200,E2 0,E3 0,E4 0,E5 0,E6 0}
DECL E6POS XP1710={X 7974.87,Y 9217.07,Z 385.75,A 118.795,B -23.581,C 3.29,S 6,T 27,E1 -10200,E2 0,E3 0,E4 0,E5 0,E6 0}
DECL E6POS XP1715={X 7941,Y 9197.44,Z 456.73,A 119.594,B -23.606,C 0.978,S 6,T 27,E1 -10200,E2 0,E3 0,E4 0,E5 0,E6 0}
DECL E6POS XMP80810405={X 7897.56,Y 9172.53,Z 456.96,A 119.594,B -23.606,C 0.978,S 6,T 27,E1 -10200,E2 0,E3 0,E4 0,E5 0,E6 0}
DECL E6POS XP1720={X 7854.21,Y 9147.53,Z 457.68,A 119.594,B -23.606,C 0.978,S 6,T 27,E1 -10200,E2 0,E3 0,E4 0,E5 0,E6 0}
DECL E6POS XP1725={X 7798.31,Y 9123.8,Z 457.46,A 90.779,B -21.21,C 0.987,S 6,T 27,E1 -10200,E2 0,E3 0,E4 0,E5 0,E6 0}
DECL E6POS XMP80810404={X 7763.34,Y 9122.18,Z 457.65,A 90.779,B -21.21,C 0.987,S 6,T 27,E1 -10200,E2 0,E3 0,E4 0,E5 0,E6 0}
DECL E6POS XP1730={X 7728.36,Y 9120.54,Z 457.85,A 90.779,B -21.21,C 0.987,S 6,T 27,E1 -10200,E2 0,E3 0,E4 0,E5 0,E6 0}
DECL E6POS XP1735={X 7730.41,Y 9118.82,Z 457.27,A 119.267,B -23.599,C 2.109,S 6,T 27,E1 -10200,E2 0,E3 0,E4 0,E5 0,E6 0}
DECL E6POS XMP80810403={X 7704.86,Y 9103.7,Z 457.9,A 119.267,B -23.599,C 2.109,S 6,T 27,E1 -10200,E2 0,E3 0,E4 0,E5 0,E6 0}
DECL E6POS XP1740={X 7679.3,Y 9088.59,Z 458.52,A 119.267,B -23.599,C 2.109,S 6,T 27,E1 -10200,E2 0,E3 0,E4 0,E5 0,E6 0}
DECL E6POS XP1745={X 7680.93,Y 9089.34,Z 458.05,A 146.231,B -24.979,C 0.565,S 6,T 27,E1 -10200,E2 0,E3 0,E4 0,E5 0,E6 0}
DECL E6POS XMP80810402={X 7661.6,Y 9060.18,Z 458.36,A 146.231,B -24.979,C 0.565,S 6,T 27,E1 -10200,E2 0,E3 0,E4 0,E5 0,E6 0}
DECL E6POS XP1750={X 7642.27,Y 9031,Z 458.68,A 146.231,B -24.979,C 0.565,S 6,T 27,E1 -10200,E2 0,E3 0,E4 0,E5 0,E6 0}
DECL E6POS XP1755={X 7597.2,Y 8999.13,Z 459.07,A 118.942,B -23.584,C -0.339,S 6,T 27,E1 -10200,E2 0,E3 0,E4 0,E5 0,E6 0}
DECL E6POS XMP80810401={X 7567.41,Y 8981.93,Z 459.25,A 118.942,B -23.584,C -0.339,S 6,T 27,E1 -10200,E2 0,E3 0,E4 0,E5 0,E6 0}
DECL E6POS XP1760={X 7537.24,Y 8964.51,Z 459.43,A 118.942,B -23.584,C -0.339,S 6,T 27,E1 -10200,E2 0,E3 0,E4 0,E5 0,E6 0}
DECL E6POS XP1765={X 7589.09,Y 8994.7,Z 351.09,A 117.984,B -23.53,C 6.125,S 6,T 27,E1 -10200,E2 0,E3 0,E4 0,E5 0,E6 0}
DECL E6POS XP1770={X 7501.75,Y 9238.5,Z 282.18,A 115.892,B -33.389,C 7.639,S 6,T 27,E1 -10200,E2 0,E3 0,E4 0,E5 0,E6 0}
DECL E6POS XP1775={X 7394.89,Y 9160.65,Z 456.06,A 118.827,B -33.592,C 2.321,S 6,T 27,E1 -10200,E2 0,E3 0,E4 0,E5 0,E6 0}
DECL E6POS XMP80910401={X 7439.83,Y 9186.61,Z 455.95,A 118.827,B -33.592,C 2.321,S 6,T 27,E1 -10200,E2 0,E3 0,E4 0,E5 0,E6 0}
DECL E6POS XP1780={X 7475.33,Y 9207.12,Z 455.85,A 118.827,B -33.592,C 2.321,S 6,T 27,E1 -10200,E2 0,E3 0,E4 0,E5 0,E6 0}
DECL E6POS XP1785={X 7527.3,Y 9246.21,Z 455.43,A 148.018,B -35.121,C 0.793,S 6,T 27,E1 -10200,E2 0,E3 0,E4 0,E5 0,E6 0}
DECL E6POS XMP80910402={X 7541.68,Y 9269.63,Z 455.12,A 148.018,B -35.121,C 0.793,S 6,T 27,E1 -10200,E2 0,E3 0,E4 0,E5 0,E6 0}
DECL E6POS XP1790={X 7556.07,Y 9293.09,Z 454.8,A 148.018,B -35.121,C 0.793,S 6,T 27,E1 -10200,E2 0,E3 0,E4 0,E5 0,E6 0}
DECL E6POS XP1795={X 7561.25,Y 9299.51,Z 455,A 119.377,B -33.599,C 0.874,S 6,T 27,E1 -10200,E2 0,E3 0,E4 0,E5 0,E6 0}
DECL E6POS XMP80910403={X 7587.27,Y 9314.44,Z 454.62,A 119.377,B -33.599,C 0.874,S 6,T 27,E1 -10200,E2 0,E3 0,E4 0,E5 0,E6 0}
DECL E6POS XP1800={X 7613.29,Y 9329.39,Z 454.24,A 119.377,B -33.599,C 0.874,S 6,T 27,E1 -10200,E2 0,E3 0,E4 0,E5 0,E6 0}
DECL E6POS XP1805={X 7616.12,Y 9333.24,Z 454.42,A 88.122,B -30.766,C -0.592,S 6,T 27,E1 -10200,E2 0,E3 0,E4 0,E5 0,E6 0}
DECL E6POS XMP80910404={X 7649.2,Y 9331.67,Z 454.71,A 88.122,B -30.766,C -0.592,S 6,T 27,E1 -10200,E2 0,E3 0,E4 0,E5 0,E6 0}
DECL E6POS XP1810={X 7682.27,Y 9330.08,Z 454.98,A 88.122,B -30.766,C -0.592,S 6,T 27,E1 -10200,E2 0,E3 0,E4 0,E5 0,E6 0}
DECL E6POS XP1815={X 7735.03,Y 9357.08,Z 454.79,A 118.827,B -33.592,C 2.321,S 6,T 27,E1 -10200,E2 0,E3 0,E4 0,E5 0,E6 0}
DECL E6POS XMP80910405={X 7774.94,Y 9380.13,Z 454.58,A 118.827,B -33.592,C 2.321,S 6,T 27,E1 -10200,E2 0,E3 0,E4 0,E5 0,E6 0}
DECL E6POS XP1820={X 7815.27,Y 9403.37,Z 454.1,A 118.827,B -33.592,C 2.321,S 6,T 27,E1 -10200,E2 0,E3 0,E4 0,E5 0,E6 0}
DECL E6POS XP1825={X 7918.91,Y 9462.96,Z 347.57,A 117.5,B -33.528,C 4.723,S 6,T 27,E1 -10200,E2 0,E3 0,E4 0,E5 0,E6 0}
DECL E6POS XP1830={X 7736.36,Y 9636.18,Z 378.34,A 118.795,B -23.581,C 3.29,S 6,T 27,E1 -10200,E2 0,E3 0,E4 0,E5 0,E6 0}
DECL E6POS XP1835={X 7707.41,Y 9619.58,Z 449.35,A 119.267,B -23.599,C 2.109,S 6,T 27,E1 -10200,E2 0,E3 0,E4 0,E5 0,E6 0}
DECL E6POS XMP81010405={X 7663.98,Y 9594.5,Z 449.46,A 119.267,B -23.599,C 2.109,S 6,T 27,E1 -10200,E2 0,E3 0,E4 0,E5 0,E6 0}
DECL E6POS XP1840={X 7620.88,Y 9569.61,Z 449.57,A 119.267,B -23.599,C 2.109,S 6,T 27,E1 -10200,E2 0,E3 0,E4 0,E5 0,E6 0}
DECL E6POS XP1845={X 7561.44,Y 9540.74,Z 449.46,A 87.453,B -21.631,C -0.213,S 6,T 27,E1 -10200,E2 0,E3 0,E4 0,E5 0,E6 0}
DECL E6POS XMP81010404={X 7526.43,Y 9541.42,Z 448.97,A 87.453,B -21.631,C -0.213,S 6,T 27,E1 -10200,E2 0,E3 0,E4 0,E5 0,E6 0}
DECL E6POS XP1850={X 7491.43,Y 9542.1,Z 448.49,A 87.453,B -21.631,C -0.213,S 6,T 27,E1 -10200,E2 0,E3 0,E4 0,E5 0,E6 0}
DECL E6POS XP1855={X 7492.97,Y 9539.23,Z 447.85,A 118.722,B -23.58,C 2.327,S 6,T 27,E1 -10200,E2 0,E3 0,E4 0,E5 0,E6 0}
DECL E6POS XMP81010403={X 7467.29,Y 9524.32,Z 448.56,A 118.722,B -23.58,C 2.327,S 6,T 27,E1 -10200,E2 0,E3 0,E4 0,E5 0,E6 0}
DECL E6POS XP1860={X 7441.62,Y 9509.41,Z 449.28,A 118.722,B -23.58,C 2.327,S 6,T 27,E1 -10200,E2 0,E3 0,E4 0,E5 0,E6 0}
DECL E6POS XP1865={X 7438.96,Y 9508.64,Z 448.72,A 148.631,B -24.468,C 0.663,S 6,T 27,E1 -10200,E2 0,E3 0,E4 0,E5 0,E6 0}
DECL E6POS XMP81010402={X 7422.17,Y 9480.81,Z 449.05,A 148.631,B -24.468,C 0.663,S 6,T 27,E1 -10200,E2 0,E3 0,E4 0,E5 0,E6 0}
DECL E6POS XP1870={X 7405.37,Y 9452.99,Z 449.39,A 148.631,B -24.468,C 0.663,S 6,T 27,E1 -10200,E2 0,E3 0,E4 0,E5 0,E6 0}
DECL E6POS XP1875={X 7357.22,Y 9417.32,Z 449.83,A 120.19,B -23.57,C 0.682,S 6,T 27,E1 -10200,E2 0,E3 0,E4 0,E5 0,E6 0}
DECL E6POS XMP81010401={X 7327.55,Y 9400.18,Z 449.81,A 120.19,B -23.57,C 0.682,S 6,T 27,E1 -10200,E2 0,E3 0,E4 0,E5 0,E6 0}
DECL E6POS XP1880={X 7297.32,Y 9382.72,Z 449.78,A 120.19,B -23.57,C 0.682,S 6,T 27,E1 -10200,E2 0,E3 0,E4 0,E5 0,E6 0}
DECL E6POS XP1885={X 7343.03,Y 9423.74,Z 328.56,A 117.651,B -23.497,C 6.278,S 6,T 27,E1 -10200,E2 0,E3 0,E4 0,E5 0,E6 0}
DECL E6POS XP1890={X 7235.85,Y 8233.81,Z 286.01,A 115.892,B -33.389,C 7.639,S 6,T 27,E1 -9700,E2 0,E3 0,E4 0,E5 0,E6 0}
DECL E6POS XP1895={X 7101.46,Y 8156.44,Z 462.17,A 118.827,B -33.592,C 2.321,S 6,T 27,E1 -9700,E2 0,E3 0,E4 0,E5 0,E6 0}
DECL E6POS XMP80609401={X 7141.69,Y 8179.66,Z 461.74,A 118.827,B -33.592,C 2.321,S 6,T 27,E1 -9700,E2 0,E3 0,E4 0,E5 0,E6 0}
DECL E6POS XP1900={X 7181.68,Y 8202.73,Z 461.33,A 118.827,B -33.592,C 2.321,S 6,T 27,E1 -9700,E2 0,E3 0,E4 0,E5 0,E6 0}
DECL E6POS XP1905={X 7230.78,Y 8238.44,Z 460.83,A 149.232,B -34.867,C 0.373,S 6,T 27,E1 -9700,E2 0,E3 0,E4 0,E5 0,E6 0}
DECL E6POS XMP80609402={X 7248.56,Y 8268.58,Z 460.65,A 149.232,B -34.867,C 0.373,S 6,T 27,E1 -9700,E2 0,E3 0,E4 0,E5 0,E6 0}
DECL E6POS XP1910={X 7266.36,Y 8298.72,Z 460.46,A 149.232,B -34.867,C 0.373,S 6,T 27,E1 -9700,E2 0,E3 0,E4 0,E5 0,E6 0}
DECL E6POS XP1915={X 7284.38,Y 8316.38,Z 460.37,A 119.06,B -33.596,C 1.801,S 6,T 27,E1 -9700,E2 0,E3 0,E4 0,E5 0,E6 0}
DECL E6POS XMP80609403={X 7308.18,Y 8330.14,Z 460.12,A 119.06,B -33.596,C 1.801,S 6,T 27,E1 -9700,E2 0,E3 0,E4 0,E5 0,E6 0}
DECL E6POS XP1920={X 7332,Y 8343.88,Z 459.86,A 119.06,B -33.596,C 1.801,S 6,T 27,E1 -9700,E2 0,E3 0,E4 0,E5 0,E6 0}
DECL E6POS XP1925={X 7350.56,Y 8352.98,Z 459.64,A 88.104,B -31.254,C 0.502,S 6,T 27,E1 -9700,E2 0,E3 0,E4 0,E5 0,E6 0}
DECL E6POS XMP80609404={X 7386.38,Y 8351.83,Z 459.2,A 88.104,B -31.254,C 0.502,S 6,T 27,E1 -9700,E2 0,E3 0,E4 0,E5 0,E6 0}
DECL E6POS XP1930={X 7422.18,Y 8350.7,Z 458.75,A 88.104,B -31.254,C 0.502,S 6,T 27,E1 -9700,E2 0,E3 0,E4 0,E5 0,E6 0}
DECL E6POS XP1935={X 7475.97,Y 8372.72,Z 458.26,A 119.907,B -33.606,C 0.418,S 6,T 27,E1 -9700,E2 0,E3 0,E4 0,E5 0,E6 0}
DECL E6POS XMP80609405={X 7516.12,Y 8395.77,Z 458.37,A 119.907,B -33.606,C 0.418,S 6,T 27,E1 -9700,E2 0,E3 0,E4 0,E5 0,E6 0}
DECL E6POS XP1940={X 7556.26,Y 8418.82,Z 458.51,A 119.907,B -33.606,C 0.418,S 6,T 27,E1 -9700,E2 0,E3 0,E4 0,E5 0,E6 0}
DECL E6POS XP1945={X 7609.87,Y 8449.53,Z 386.33,A 117.9,B -33.552,C 3.999,S 6,T 27,E1 -9700,E2 0,E3 0,E4 0,E5 0,E6 0}
DECL E6POS XP1950={X 7489.46,Y 8658.51,Z 389.71,A 118.795,B -23.581,C 3.29,S 6,T 27,E1 -9700,E2 0,E3 0,E4 0,E5 0,E6 0}
DECL E6POS XP1955={X 7455.52,Y 8639.02,Z 460.77,A 119.813,B -23.608,C 0.891,S 6,T 27,E1 -9700,E2 0,E3 0,E4 0,E5 0,E6 0}
DECL E6POS XMP80709405={X 7412.15,Y 8613.98,Z 460.92,A 119.813,B -23.608,C 0.891,S 6,T 27,E1 -9700,E2 0,E3 0,E4 0,E5 0,E6 0}
DECL E6POS XP1960={X 7368.88,Y 8588.84,Z 461.58,A 119.813,B -23.608,C 0.891,S 6,T 27,E1 -9700,E2 0,E3 0,E4 0,E5 0,E6 0}
DECL E6POS XP1965={X 7298.25,Y 8562.38,Z 462.25,A 90.012,B -21.414,C 0.624,S 6,T 27,E1 -9700,E2 0,E3 0,E4 0,E5 0,E6 0}
DECL E6POS XMP80709404={X 7263.26,Y 8561.3,Z 462.24,A 90.012,B -21.414,C 0.624,S 6,T 27,E1 -9700,E2 0,E3 0,E4 0,E5 0,E6 0}
DECL E6POS XP1970={X 7228.26,Y 8560.21,Z 462.23,A 90.012,B -21.414,C 0.624,S 6,T 27,E1 -9700,E2 0,E3 0,E4 0,E5 0,E6 0}
DECL E6POS XP1975={X 7215.95,Y 8555.34,Z 462.81,A 119.267,B -23.599,C 0.938,S 6,T 27,E1 -9700,E2 0,E3 0,E4 0,E5 0,E6 0}
DECL E6POS XMP80709403={X 7190.27,Y 8540.44,Z 462.87,A 119.267,B -23.599,C 0.938,S 6,T 27,E1 -9700,E2 0,E3 0,E4 0,E5 0,E6 0}
DECL E6POS XP1980={X 7164.58,Y 8525.52,Z 462.93,A 119.267,B -23.599,C 0.938,S 6,T 27,E1 -9700,E2 0,E3 0,E4 0,E5 0,E6 0}
DECL E6POS XP1985={X 7148.42,Y 8510.47,Z 463.24,A 149.245,B -24.556,C 0.051,S 6,T 27,E1 -9700,E2 0,E3 0,E4 0,E5 0,E6 0}
DECL E6POS XMP80709402={X 7130.54,Y 8480.39,Z 463.26,A 149.245,B -24.556,C 0.051,S 6,T 27,E1 -9700,E2 0,E3 0,E4 0,E5 0,E6 0}
DECL E6POS XP1990={X 7112.65,Y 8450.3,Z 463.29,A 149.245,B -24.556,C 0.051,S 6,T 27,E1 -9700,E2 0,E3 0,E4 0,E5 0,E6 0}
DECL E6POS XP1995={X 7060.87,Y 8411.21,Z 463.78,A 119.737,B -23.53,C 0.643,S 6,T 27,E1 -9700,E2 0,E3 0,E4 0,E5 0,E6 0}
DECL E6POS XMP80709401={X 7031.02,Y 8393.97,Z 463.99,A 119.737,B -23.53,C 0.643,S 6,T 27,E1 -9700,E2 0,E3 0,E4 0,E5 0,E6 0}
DECL E6POS XP2000={X 7001.21,Y 8376.77,Z 464.2,A 119.737,B -23.53,C 0.643,S 6,T 27,E1 -9700,E2 0,E3 0,E4 0,E5 0,E6 0}
DECL E6POS XP2005={X 7076.63,Y 8420.54,Z 355.86,A 117.984,B -23.53,C 6.125,S 6,T 27,E1 -9700,E2 0,E3 0,E4 0,E5 0,E6 0}
DECL E6POS XP2010={X 6953.96,Y 8627.51,Z 287.37,A 115.892,B -33.389,C 7.639,S 6,T 27,E1 -9700,E2 0,E3 0,E4 0,E5 0,E6 0}
DECL E6POS XP2015={X 6819.43,Y 8550.06,Z 463.09,A 120.027,B -33.585,C 0.059,S 6,T 27,E1 -9700,E2 0,E3 0,E4 0,E5 0,E6 0}
DECL E6POS XMP80809401={X 6860.2,Y 8573.6,Z 462.95,A 120.027,B -33.585,C 0.059,S 6,T 27,E1 -9700,E2 0,E3 0,E4 0,E5 0,E6 0}
DECL E6POS XP2020={X 6900.53,Y 8596.89,Z 462.82,A 120.027,B -33.585,C 0.059,S 6,T 27,E1 -9700,E2 0,E3 0,E4 0,E5 0,E6 0}
DECL E6POS XP2025={X 7004.99,Y 8669.74,Z 461.63,A 148.726,B -34.011,C 0.798,S 6,T 27,E1 -9700,E2 0,E3 0,E4 0,E5 0,E6 0}
DECL E6POS XMP80809402={X 7019.08,Y 8693.36,Z 461.3,A 148.726,B -34.011,C 0.798,S 6,T 27,E1 -9700,E2 0,E3 0,E4 0,E5 0,E6 0}
DECL E6POS XP2030={X 7033.17,Y 8716.97,Z 460.98,A 148.726,B -34.011,C 0.798,S 6,T 27,E1 -9700,E2 0,E3 0,E4 0,E5 0,E6 0}
DECL E6POS XP2035={X 7045.45,Y 8731.43,Z 460.85,A 119.279,B -33.599,C 0.329,S 6,T 27,E1 -9700,E2 0,E3 0,E4 0,E5 0,E6 0}
DECL E6POS XMP80809403={X 7071.57,Y 8746.18,Z 460.72,A 119.279,B -33.599,C 0.329,S 6,T 27,E1 -9700,E2 0,E3 0,E4 0,E5 0,E6 0}
DECL E6POS XP2040={X 7097.7,Y 8760.95,Z 460.58,A 119.279,B -33.599,C 0.329,S 6,T 27,E1 -9700,E2 0,E3 0,E4 0,E5 0,E6 0}
DECL E6POS XP2045={X 7105.23,Y 8764.87,Z 460.59,A 91.847,B -30.662,C -0.302,S 6,T 27,E1 -9700,E2 0,E3 0,E4 0,E5 0,E6 0}
DECL E6POS XMP80809404={X 7138.35,Y 8765.51,Z 460.72,A 91.847,B -30.662,C -0.302,S 6,T 27,E1 -9700,E2 0,E3 0,E4 0,E5 0,E6 0}
DECL E6POS XP2050={X 7171.47,Y 8766.19,Z 460.84,A 91.847,B -30.662,C -0.302,S 6,T 27,E1 -9700,E2 0,E3 0,E4 0,E5 0,E6 0}
DECL E6POS XP2055={X 7230.31,Y 8786.99,Z 461.09,A 119.667,B -33.607,C 1.555,S 6,T 27,E1 -9700,E2 0,E3 0,E4 0,E5 0,E6 0}
DECL E6POS XMP80809405={X 7270.31,Y 8810.4,Z 461.02,A 119.667,B -33.607,C 1.555,S 6,T 27,E1 -9700,E2 0,E3 0,E4 0,E5 0,E6 0}
DECL E6POS XP2060={X 7310.29,Y 8833.81,Z 460.94,A 119.667,B -33.607,C 1.555,S 6,T 27,E1 -9700,E2 0,E3 0,E4 0,E5 0,E6 0}
DECL E6POS XP2065={X 7416.39,Y 8894.37,Z 353.66,A 117.5,B -33.528,C 4.723,S 6,T 27,E1 -9700,E2 0,E3 0,E4 0,E5 0,E6 0}
DECL E6POS XP2070={X 7229.54,Y 9065.07,Z 385.62,A 118.795,B -23.581,C 3.29,S 6,T 27,E1 -9700,E2 0,E3 0,E4 0,E5 0,E6 0}
DECL E6POS XP2075={X 7200.49,Y 9048.4,Z 456.62,A 119.267,B -23.599,C 0.659,S 6,T 27,E1 -9700,E2 0,E3 0,E4 0,E5 0,E6 0}
DECL E6POS XMP80909405={X 7157.17,Y 9023.38,Z 456.74,A 119.267,B -23.599,C 0.659,S 6,T 27,E1 -9700,E2 0,E3 0,E4 0,E5 0,E6 0}
DECL E6POS XP2080={X 7113.11,Y 8997.94,Z 456.86,A 119.267,B -23.599,C 0.659,S 6,T 27,E1 -9700,E2 0,E3 0,E4 0,E5 0,E6 0}
DECL E6POS XP2085={X 7048.49,Y 8967.49,Z 456.26,A 89.77,B -21.548,C -0.081,S 6,T 27,E1 -9700,E2 0,E3 0,E4 0,E5 0,E6 0}
DECL E6POS XMP80909404={X 7013.49,Y 8966.72,Z 455.86,A 89.77,B -21.548,C -0.081,S 6,T 27,E1 -9700,E2 0,E3 0,E4 0,E5 0,E6 0}
DECL E6POS XP2090={X 6978.5,Y 8965.94,Z 455.44,A 89.77,B -21.548,C -0.081,S 6,T 27,E1 -9700,E2 0,E3 0,E4 0,E5 0,E6 0}
DECL E6POS XP2095={X 6981.06,Y 8964.26,Z 455.52,A 118.786,B -23.546,C 0.791,S 6,T 27,E1 -9700,E2 0,E3 0,E4 0,E5 0,E6 0}
DECL E6POS XMP80909403={X 6955.23,Y 8949.58,Z 455.52,A 118.786,B -23.546,C 0.791,S 6,T 27,E1 -9700,E2 0,E3 0,E4 0,E5 0,E6 0}
DECL E6POS XP2100={X 6929.41,Y 8934.92,Z 455.52,A 118.786,B -23.546,C 0.791,S 6,T 27,E1 -9700,E2 0,E3 0,E4 0,E5 0,E6 0}
DECL E6POS XP2105={X 6924.59,Y 8930.31,Z 455.75,A 147.244,B -24.61,C 0.523,S 6,T 27,E1 -9700,E2 0,E3 0,E4 0,E5 0,E6 0}
DECL E6POS XMP80909402={X 6907.11,Y 8902.91,Z 456.03,A 147.244,B -24.61,C 0.523,S 6,T 27,E1 -9700,E2 0,E3 0,E4 0,E5 0,E6 0}
DECL E6POS XP2110={X 6889.64,Y 8875.52,Z 456.3,A 147.244,B -24.61,C 0.523,S 6,T 27,E1 -9700,E2 0,E3 0,E4 0,E5 0,E6 0}
DECL E6POS XP2115={X 6764.44,Y 8796.54,Z 457.28,A 120.099,B -23.636,C 0.362,S 6,T 27,E1 -9700,E2 0,E3 0,E4 0,E5 0,E6 0}
DECL E6POS XMP80909401={X 6734.58,Y 8779.29,Z 457.27,A 120.099,B -23.636,C 0.362,S 6,T 27,E1 -9700,E2 0,E3 0,E4 0,E5 0,E6 0}
DECL E6POS XP2120={X 6704.63,Y 8762,Z 457.26,A 120.099,B -23.636,C 0.362,S 6,T 27,E1 -9700,E2 0,E3 0,E4 0,E5 0,E6 0}
DECL E6POS XP2125={X 6833.41,Y 8867.34,Z 379.58,A 118.085,B -23.534,C 5.189,S 6,T 27,E1 -9700,E2 0,E3 0,E4 0,E5 0,E6 0}
DECL E6POS XP2130={X 6689.61,Y 9031.37,Z 273,A 115.892,B -33.389,C 7.639,S 6,T 27,E1 -9700,E2 0,E3 0,E4 0,E5 0,E6 0}
DECL E6POS XP2135={X 6555.42,Y 8954.09,Z 448.43,A 120.312,B -33.582,C -0.877,S 6,T 27,E1 -9700,E2 0,E3 0,E4 0,E5 0,E6 0}
DECL E6POS XMP81009401={X 6595.84,Y 8977.45,Z 448.58,A 120.312,B -33.582,C -0.877,S 6,T 27,E1 -9700,E2 0,E3 0,E4 0,E5 0,E6 0}
DECL E6POS XP2140={X 6636.36,Y 9000.86,Z 448.73,A 120.312,B -33.582,C -0.877,S 6,T 27,E1 -9700,E2 0,E3 0,E4 0,E5 0,E6 0}
DECL E6POS XP2145={X 6771.01,Y 9087.84,Z 448.32,A 149.565,B -34.343,C 1.387,S 6,T 27,E1 -9700,E2 0,E3 0,E4 0,E5 0,E6 0}
DECL E6POS XMP81009402={X 6784.62,Y 9111.72,Z 447.77,A 149.565,B -34.343,C 1.387,S 6,T 27,E1 -9700,E2 0,E3 0,E4 0,E5 0,E6 0}
DECL E6POS XP2150={X 6798.23,Y 9135.62,Z 447.22,A 149.565,B -34.343,C 1.387,S 6,T 27,E1 -9700,E2 0,E3 0,E4 0,E5 0,E6 0}
DECL E6POS XP2155={X 6807.81,Y 9145.73,Z 446.61,A 120.12,B -33.607,C -1.436,S 6,T 27,E1 -9700,E2 0,E3 0,E4 0,E5 0,E6 0}
DECL E6POS XMP81009403={X 6833.96,Y 9160.41,Z 447.23,A 120.12,B -33.607,C -1.436,S 6,T 27,E1 -9700,E2 0,E3 0,E4 0,E5 0,E6 0}
DECL E6POS XP2160={X 6860.11,Y 9175.1,Z 447.86,A 120.12,B -33.607,C -1.436,S 6,T 27,E1 -9700,E2 0,E3 0,E4 0,E5 0,E6 0}
DECL E6POS XP2165={X 6860.77,Y 9177.73,Z 447.3,A 91.127,B -30.955,C -1.345,S 6,T 27,E1 -9700,E2 0,E3 0,E4 0,E5 0,E6 0}
DECL E6POS XMP81009404={X 6893.88,Y 9177.66,Z 447.96,A 91.127,B -30.955,C -1.345,S 6,T 27,E1 -9700,E2 0,E3 0,E4 0,E5 0,E6 0}
DECL E6POS XP2170={X 6927,Y 9177.59,Z 448.6,A 91.127,B -30.955,C -1.345,S 6,T 27,E1 -9700,E2 0,E3 0,E4 0,E5 0,E6 0}
DECL E6POS XP2175={X 6990.68,Y 9205.58,Z 449.6,A 120.07,B -33.587,C -0.565,S 6,T 27,E1 -9700,E2 0,E3 0,E4 0,E5 0,E6 0}
DECL E6POS XMP81009405={X 7030.66,Y 9228.67,Z 449.62,A 120.07,B -33.587,C -0.565,S 6,T 27,E1 -9700,E2 0,E3 0,E4 0,E5 0,E6 0}
DECL E6POS XP2180={X 7071.19,Y 9252.08,Z 449.65,A 120.07,B -33.587,C -0.565,S 6,T 27,E1 -9700,E2 0,E3 0,E4 0,E5 0,E6 0}
DECL E6POS XP2185={X 7207.9,Y 9330.51,Z 289.36,A 116.836,B -33.478,C 5.925,S 6,T 27,E1 -9700,E2 0,E3 0,E4 0,E5 0,E6 0}
DECL E6POS XP2190={X 6398.99,Y 7749.79,Z 296.58,A 115.892,B -33.389,C 7.639,S 6,T 27,E1 -8700,E2 0,E3 0,E4 0,E5 0,E6 0}
DECL E6POS XP2195={X 6264.49,Y 7672.33,Z 472.57,A 118.827,B -33.592,C 2.321,S 6,T 27,E1 -8700,E2 0,E3 0,E4 0,E5 0,E6 0}
DECL E6POS XMP80608401={X 6304.85,Y 7695.63,Z 472.31,A 118.827,B -33.592,C 2.321,S 6,T 27,E1 -8700,E2 0,E3 0,E4 0,E5 0,E6 0}
DECL E6POS XP2200={X 6345.1,Y 7718.87,Z 472.05,A 118.827,B -33.592,C 2.321,S 6,T 27,E1 -8700,E2 0,E3 0,E4 0,E5 0,E6 0}
DECL E6POS XP2205={X 6390.07,Y 7750.22,Z 471.66,A 146.901,B -33.279,C 0.491,S 6,T 27,E1 -8700,E2 0,E3 0,E4 0,E5 0,E6 0}
DECL E6POS XMP80608402={X 6409.04,Y 7779.63,Z 471.41,A 146.901,B -33.279,C 0.491,S 6,T 27,E1 -8700,E2 0,E3 0,E4 0,E5 0,E6 0}
DECL E6POS XP2210={X 6428.01,Y 7809.04,Z 471.16,A 146.901,B -33.279,C 0.491,S 6,T 27,E1 -8700,E2 0,E3 0,E4 0,E5 0,E6 0}
DECL E6POS XP2215={X 6424.63,Y 7804.54,Z 471.15,A 119.54,B -33.602,C 1.435,S 6,T 27,E1 -8700,E2 0,E3 0,E4 0,E5 0,E6 0}
DECL E6POS XMP80608403={X 6448.38,Y 7818.42,Z 471.04,A 119.54,B -33.602,C 1.435,S 6,T 27,E1 -8700,E2 0,E3 0,E4 0,E5 0,E6 0}
DECL E6POS XP2220={X 6472.12,Y 7832.29,Z 470.93,A 119.54,B -33.602,C 1.435,S 6,T 27,E1 -8700,E2 0,E3 0,E4 0,E5 0,E6 0}
DECL E6POS XP2225={X 6464.98,Y 7832.72,Z 471.16,A 91.408,B -30.247,C 0.523,S 6,T 27,E1 -8700,E2 0,E3 0,E4 0,E5 0,E6 0}
DECL E6POS XMP80608404={X 6500.79,Y 7833.65,Z 470.69,A 91.408,B -30.247,C 0.523,S 6,T 27,E1 -8700,E2 0,E3 0,E4 0,E5 0,E6 0}
DECL E6POS XP2230={X 6536.62,Y 7834.58,Z 470.24,A 91.408,B -30.247,C 0.523,S 6,T 27,E1 -8700,E2 0,E3 0,E4 0,E5 0,E6 0}
DECL E6POS XP2235={X 6578.12,Y 7854.54,Z 470.19,A 118.827,B -33.592,C 1.216,S 6,T 27,E1 -8700,E2 0,E3 0,E4 0,E5 0,E6 0}
DECL E6POS XMP80608405={X 6617.73,Y 7877.4,Z 469.83,A 118.827,B -33.592,C 1.216,S 6,T 27,E1 -8700,E2 0,E3 0,E4 0,E5 0,E6 0}
DECL E6POS XP2240={X 6658.01,Y 7900.65,Z 469.48,A 118.827,B -33.592,C 1.216,S 6,T 27,E1 -8700,E2 0,E3 0,E4 0,E5 0,E6 0}
DECL E6POS XP2245={X 6714.25,Y 7932.77,Z 347.29,A 117.9,B -33.552,C 3.999,S 6,T 27,E1 -8700,E2 0,E3 0,E4 0,E5 0,E6 0}
DECL E6POS XP2250={X 6533.07,Y 8106.5,Z 348.27,A 118.795,B -23.581,C 3.29,S 6,T 27,E1 -8700,E2 0,E3 0,E4 0,E5 0,E6 0}
DECL E6POS XP2255={X 6560.73,Y 8122.54,Z 468.39,A 120.249,B -23.587,C 0.624,S 6,T 27,E1 -8700,E2 0,E3 0,E4 0,E5 0,E6 0}
DECL E6POS XMP80708405={X 6516.91,Y 8097.23,Z 468.64,A 120.249,B -23.587,C 0.624,S 6,T 27,E1 -8700,E2 0,E3 0,E4 0,E5 0,E6 0}
DECL E6POS XP2260={X 6471.78,Y 8071.18,Z 468.89,A 120.249,B -23.587,C 0.624,S 6,T 27,E1 -8700,E2 0,E3 0,E4 0,E5 0,E6 0}
DECL E6POS XP2265={X 6428.71,Y 8052.21,Z 468.97,A 92.198,B -20.901,C 0.507,S 6,T 27,E1 -8700,E2 0,E3 0,E4 0,E5 0,E6 0}
DECL E6POS XMP80708404={X 6393.77,Y 8049.83,Z 468.9,A 92.198,B -20.901,C 0.507,S 6,T 27,E1 -8700,E2 0,E3 0,E4 0,E5 0,E6 0}
DECL E6POS XP2270={X 6358.83,Y 8047.44,Z 468.84,A 92.198,B -20.901,C 0.507,S 6,T 27,E1 -8700,E2 0,E3 0,E4 0,E5 0,E6 0}
DECL E6POS XP2275={X 6365.77,Y 8049.43,Z 469.45,A 119.267,B -23.599,C -0.331,S 6,T 27,E1 -8700,E2 0,E3 0,E4 0,E5 0,E6 0}
DECL E6POS XMP80708403={X 6339.96,Y 8034.75,Z 468.91,A 119.267,B -23.599,C -0.331,S 6,T 27,E1 -8700,E2 0,E3 0,E4 0,E5 0,E6 0}
DECL E6POS XP2280={X 6314.13,Y 8020.09,Z 468.38,A 119.267,B -23.599,C -0.331,S 6,T 27,E1 -8700,E2 0,E3 0,E4 0,E5 0,E6 0}
DECL E6POS XP2285={X 6317.38,Y 8024.83,Z 468.94,A 149.319,B -24.184,C 0.713,S 6,T 27,E1 -8700,E2 0,E3 0,E4 0,E5 0,E6 0}
DECL E6POS XMP80708402={X 6299.68,Y 7994.63,Z 469.34,A 149.319,B -24.184,C 0.713,S 6,T 27,E1 -8700,E2 0,E3 0,E4 0,E5 0,E6 0}
DECL E6POS XP2290={X 6281.98,Y 7964.45,Z 469.74,A 149.319,B -24.184,C 0.713,S 6,T 27,E1 -8700,E2 0,E3 0,E4 0,E5 0,E6 0}
DECL E6POS XP2295={X 6230.84,Y 7930.9,Z 470.05,A 118.942,B -23.584,C 1.858,S 6,T 27,E1 -8700,E2 0,E3 0,E4 0,E5 0,E6 0}
DECL E6POS XMP80708401={X 6201.06,Y 7913.71,Z 470.15,A 118.942,B -23.584,C 1.858,S 6,T 27,E1 -8700,E2 0,E3 0,E4 0,E5 0,E6 0}
DECL E6POS XP2300={X 6171.31,Y 7896.53,Z 470.24,A 118.942,B -23.584,C 1.858,S 6,T 27,E1 -8700,E2 0,E3 0,E4 0,E5 0,E6 0}
DECL E6POS XP2305={X 6207.18,Y 7917.52,Z 363.06,A 117.984,B -23.53,C 6.125,S 6,T 27,E1 -8700,E2 0,E3 0,E4 0,E5 0,E6 0}
DECL E6POS XP2310={X 6181.72,Y 8180.36,Z 289.24,A 115.892,B -33.389,C 7.639,S 6,T 27,E1 -8700,E2 0,E3 0,E4 0,E5 0,E6 0}
DECL E6POS XP2315={X 6047.1,Y 8102.85,Z 464.84,A 118.827,B -33.592,C -0.077,S 6,T 27,E1 -8700,E2 0,E3 0,E4 0,E5 0,E6 0}
DECL E6POS XMP80808401={X 6087.95,Y 8126.45,Z 464.82,A 118.827,B -33.592,C -0.077,S 6,T 27,E1 -8700,E2 0,E3 0,E4 0,E5 0,E6 0}
DECL E6POS XP2320={X 6128.2,Y 8149.7,Z 464.81,A 118.827,B -33.592,C -0.077,S 6,T 27,E1 -8700,E2 0,E3 0,E4 0,E5 0,E6 0}
DECL E6POS XP2325={X 6176.73,Y 8187.05,Z 464.46,A 147.608,B -31.601,C 0.958,S 6,T 27,E1 -8700,E2 0,E3 0,E4 0,E5 0,E6 0}
DECL E6POS XMP80808402={X 6191.26,Y 8210.4,Z 464.07,A 147.608,B -31.601,C 0.958,S 6,T 27,E1 -8700,E2 0,E3 0,E4 0,E5 0,E6 0}
DECL E6POS XP2330={X 6205.79,Y 8233.74,Z 463.68,A 147.608,B -31.601,C 0.958,S 6,T 27,E1 -8700,E2 0,E3 0,E4 0,E5 0,E6 0}
DECL E6POS XP2335={X 6205.9,Y 8235.29,Z 463.73,A 120.48,B -33.609,C 0.265,S 6,T 27,E1 -8700,E2 0,E3 0,E4 0,E5 0,E6 0}
DECL E6POS XMP80808403={X 6231.71,Y 8250.57,Z 463.61,A 120.48,B -33.609,C 0.265,S 6,T 27,E1 -8700,E2 0,E3 0,E4 0,E5 0,E6 0}
DECL E6POS XP2340={X 6257.52,Y 8265.86,Z 463.5,A 120.48,B -33.609,C 0.265,S 6,T 27,E1 -8700,E2 0,E3 0,E4 0,E5 0,E6 0}
DECL E6POS XP2345={X 6252.48,Y 8266.05,Z 463.45,A 90.194,B -30.553,C -1.009,S 6,T 27,E1 -8700,E2 0,E3 0,E4 0,E5 0,E6 0}
DECL E6POS XMP80808404={X 6285.58,Y 8265.54,Z 463.94,A 90.194,B -30.553,C -1.009,S 6,T 27,E1 -8700,E2 0,E3 0,E4 0,E5 0,E6 0}
DECL E6POS XP2350={X 6318.7,Y 8265.03,Z 464.42,A 90.194,B -30.553,C -1.009,S 6,T 27,E1 -8700,E2 0,E3 0,E4 0,E5 0,E6 0}
DECL E6POS XP2355={X 6366.23,Y 8288.33,Z 464.42,A 120.141,B -33.582,C 0.415,S 6,T 27,E1 -8700,E2 0,E3 0,E4 0,E5 0,E6 0}
DECL E6POS XMP80808405={X 6406.27,Y 8311.46,Z 464.33,A 120.141,B -33.582,C 0.415,S 6,T 27,E1 -8700,E2 0,E3 0,E4 0,E5 0,E6 0}
DECL E6POS XP2360={X 6446.28,Y 8334.57,Z 464.24,A 120.141,B -33.582,C 0.415,S 6,T 27,E1 -8700,E2 0,E3 0,E4 0,E5 0,E6 0}
DECL E6POS XP2365={X 6493.56,Y 8361.49,Z 307.34,A 117.5,B -33.528,C 4.723,S 6,T 27,E1 -8700,E2 0,E3 0,E4 0,E5 0,E6 0}
DECL E6POS XP2370={X 6311.25,Y 8534.68,Z 336.79,A 118.795,B -23.581,C 3.29,S 6,T 27,E1 -8700,E2 0,E3 0,E4 0,E5 0,E6 0}
DECL E6POS XP2375={X 6343.78,Y 8553.54,Z 457.11,A 120.14,B -23.592,C 0.1,S 6,T 27,E1 -8700,E2 0,E3 0,E4 0,E5 0,E6 0}
DECL E6POS XMP80908405={X 6300.02,Y 8528.26,Z 457.06,A 120.14,B -23.592,C 0.1,S 6,T 27,E1 -8700,E2 0,E3 0,E4 0,E5 0,E6 0}
DECL E6POS XP2380={X 6256.66,Y 8503.21,Z 457,A 120.14,B -23.592,C 0.1,S 6,T 27,E1 -8700,E2 0,E3 0,E4 0,E5 0,E6 0}
DECL E6POS XP2385={X 6208.42,Y 8483.04,Z 456.66,A 91.597,B -21.911,C -0.594,S 6,T 27,E1 -8700,E2 0,E3 0,E4 0,E5 0,E6 0}
DECL E6POS XMP80908404={X 6173.45,Y 8481.29,Z 455.96,A 91.597,B -21.911,C -0.594,S 6,T 27,E1 -8700,E2 0,E3 0,E4 0,E5 0,E6 0}
DECL E6POS XP2390={X 6138.5,Y 8479.52,Z 455.25,A 91.597,B -21.911,C -0.594,S 6,T 27,E1 -8700,E2 0,E3 0,E4 0,E5 0,E6 0}
DECL E6POS XP2395={X 6148.51,Y 8480.91,Z 455.55,A 119.341,B -23.578,C 0.469,S 6,T 27,E1 -8700,E2 0,E3 0,E4 0,E5 0,E6 0}
DECL E6POS XMP80908403={X 6122.78,Y 8466.05,Z 455.39,A 119.341,B -23.578,C 0.469,S 6,T 27,E1 -8700,E2 0,E3 0,E4 0,E5 0,E6 0}
DECL E6POS XP2400={X 6097.08,Y 8451.19,Z 455.22,A 119.341,B -23.578,C 0.469,S 6,T 27,E1 -8700,E2 0,E3 0,E4 0,E5 0,E6 0}
DECL E6POS XP2405={X 6099.76,Y 8452.97,Z 455.37,A 147.318,B -24.875,C 1.007,S 6,T 27,E1 -8700,E2 0,E3 0,E4 0,E5 0,E6 0}
DECL E6POS XMP80908402={X 6082.41,Y 8425.49,Z 455.88,A 147.318,B -24.875,C 1.007,S 6,T 27,E1 -8700,E2 0,E3 0,E4 0,E5 0,E6 0}
DECL E6POS XP2410={X 6065.07,Y 8398.01,Z 456.39,A 147.318,B -24.875,C 1.007,S 6,T 27,E1 -8700,E2 0,E3 0,E4 0,E5 0,E6 0}
DECL E6POS XP2415={X 6021.2,Y 8366.03,Z 456.64,A 120.099,B -23.636,C 1.581,S 6,T 27,E1 -8700,E2 0,E3 0,E4 0,E5 0,E6 0}
DECL E6POS XMP80908401={X 5991.68,Y 8348.97,Z 456.56,A 120.099,B -23.636,C 1.581,S 6,T 27,E1 -8700,E2 0,E3 0,E4 0,E5 0,E6 0}
DECL E6POS XP2420={X 5962.07,Y 8331.87,Z 456.49,A 120.099,B -23.636,C 1.581,S 6,T 27,E1 -8700,E2 0,E3 0,E4 0,E5 0,E6 0}
DECL E6POS XP2425={X 5976.01,Y 8354.62,Z 377.82,A 118.085,B -23.534,C 5.189,S 6,T 27,E1 -8700,E2 0,E3 0,E4 0,E5 0,E6 0}
DECL E6POS XP2430={X 5966.48,Y 8612.34,Z 269.91,A 115.892,B -33.389,C 7.639,S 6,T 27,E1 -8700,E2 0,E3 0,E4 0,E5 0,E6 0}
DECL E6POS XP2435={X 5832.37,Y 8535.11,Z 445.28,A 120.312,B -33.582,C 1.897,S 6,T 27,E1 -8700,E2 0,E3 0,E4 0,E5 0,E6 0}
DECL E6POS XMP81008401={X 5872.73,Y 8558.43,Z 445.49,A 120.312,B -33.582,C 1.897,S 6,T 27,E1 -8700,E2 0,E3 0,E4 0,E5 0,E6 0}
DECL E6POS XP2440={X 5911.81,Y 8581.01,Z 445.71,A 120.312,B -33.582,C 1.897,S 6,T 27,E1 -8700,E2 0,E3 0,E4 0,E5 0,E6 0}
DECL E6POS XP2445={X 5960.25,Y 8619.69,Z 444.75,A 147.131,B -34.942,C -0.417,S 6,T 27,E1 -8700,E2 0,E3 0,E4 0,E5 0,E6 0}
DECL E6POS XMP81008402={X 5975.28,Y 8642.72,Z 444.92,A 147.131,B -34.942,C -0.417,S 6,T 27,E1 -8700,E2 0,E3 0,E4 0,E5 0,E6 0}
DECL E6POS XP2450={X 5990.29,Y 8665.75,Z 445.08,A 147.131,B -34.942,C -0.417,S 6,T 27,E1 -8700,E2 0,E3 0,E4 0,E5 0,E6 0}
DECL E6POS XP2455={X 5990.03,Y 8666.83,Z 444.58,A 120.48,B -33.609,C 0.265,S 6,T 27,E1 -8700,E2 0,E3 0,E4 0,E5 0,E6 0}
DECL E6POS XMP81008403={X 6015.86,Y 8682.11,Z 444.46,A 120.48,B -33.609,C 0.265,S 6,T 27,E1 -8700,E2 0,E3 0,E4 0,E5 0,E6 0}
DECL E6POS XP2460={X 6041.68,Y 8697.4,Z 444.35,A 120.48,B -33.609,C 0.265,S 6,T 27,E1 -8700,E2 0,E3 0,E4 0,E5 0,E6 0}
DECL E6POS XP2465={X 6033.15,Y 8696.16,Z 444.27,A 92.455,B -31.016,C -2.198,S 6,T 27,E1 -8700,E2 0,E3 0,E4 0,E5 0,E6 0}
DECL E6POS XMP81008404={X 6066.26,Y 8696.59,Z 445.33,A 92.455,B -31.016,C -2.198,S 6,T 27,E1 -8700,E2 0,E3 0,E4 0,E5 0,E6 0}
DECL E6POS XP2470={X 6099.36,Y 8697.03,Z 446.39,A 92.455,B -31.016,C -2.198,S 6,T 27,E1 -8700,E2 0,E3 0,E4 0,E5 0,E6 0}
DECL E6POS XP2475={X 6157.97,Y 8724.42,Z 446.85,A 120.07,B -33.587,C -0.565,S 6,T 27,E1 -8700,E2 0,E3 0,E4 0,E5 0,E6 0}
DECL E6POS XMP81008405={X 6198.17,Y 8747.66,Z 447.03,A 120.07,B -33.587,C -0.565,S 6,T 27,E1 -8700,E2 0,E3 0,E4 0,E5 0,E6 0}
DECL E6POS XP2480={X 6238.31,Y 8770.85,Z 447.21,A 120.07,B -33.587,C -0.565,S 6,T 27,E1 -8700,E2 0,E3 0,E4 0,E5 0,E6 0}
DECL E6POS XP2485={X 6286.58,Y 8798.25,Z 288.16,A 117.5,B -33.528,C 4.723,S 6,T 27,E1 -8700,E2 0,E3 0,E4 0,E5 0,E6 0}
DECL E6POS XP2490={X 5564.76,Y 7268.15,Z 301.81,A 115.892,B -33.389,C 7.639,S 6,T 27,E1 -8000,E2 0,E3 0,E4 0,E5 0,E6 0}
DECL E6POS XP2495={X 5429.59,Y 7190.34,Z 478.17,A 119.787,B -33.572,C 1.884,S 6,T 27,E1 -8000,E2 0,E3 0,E4 0,E5 0,E6 0}
DECL E6POS XMP80607401={X 5470.61,Y 7214,Z 477.54,A 119.787,B -33.572,C 1.884,S 6,T 27,E1 -8000,E2 0,E3 0,E4 0,E5 0,E6 0}
DECL E6POS XP2500={X 5510.99,Y 7237.29,Z 476.92,A 119.787,B -33.572,C 1.884,S 6,T 27,E1 -8000,E2 0,E3 0,E4 0,E5 0,E6 0}
DECL E6POS XP2505={X 5568.29,Y 7277.28,Z 476.52,A 149.764,B -34.941,C 0.652,S 6,T 27,E1 -8000,E2 0,E3 0,E4 0,E5 0,E6 0}
DECL E6POS XMP80607402={X 5585.72,Y 7307.62,Z 476.18,A 149.764,B -34.941,C 0.652,S 6,T 27,E1 -8000,E2 0,E3 0,E4 0,E5 0,E6 0}
DECL E6POS XP2510={X 5603.13,Y 7337.98,Z 475.86,A 149.764,B -34.941,C 0.652,S 6,T 27,E1 -8000,E2 0,E3 0,E4 0,E5 0,E6 0}
DECL E6POS XP2515={X 5625.84,Y 7363.05,Z 475.59,A 119.413,B -33.598,C 1.363,S 6,T 27,E1 -8000,E2 0,E3 0,E4 0,E5 0,E6 0}
DECL E6POS XMP80607403={X 5649.62,Y 7376.87,Z 475.52,A 119.413,B -33.598,C 1.363,S 6,T 27,E1 -8000,E2 0,E3 0,E4 0,E5 0,E6 0}
DECL E6POS XP2520={X 5673.41,Y 7390.67,Z 475.43,A 119.413,B -33.598,C 1.363,S 6,T 27,E1 -8000,E2 0,E3 0,E4 0,E5 0,E6 0}
DECL E6POS XP2525={X 5695.6,Y 7398.7,Z 475.35,A 90.677,B -31.328,C -0.535,S 6,T 27,E1 -8000,E2 0,E3 0,E4 0,E5 0,E6 0}
DECL E6POS XMP80607404={X 5731.43,Y 7398.83,Z 475.46,A 90.677,B -31.328,C -0.535,S 6,T 27,E1 -8000,E2 0,E3 0,E4 0,E5 0,E6 0}
DECL E6POS XP2530={X 5767.26,Y 7398.97,Z 475.57,A 90.677,B -31.328,C -0.535,S 6,T 27,E1 -8000,E2 0,E3 0,E4 0,E5 0,E6 0}
DECL E6POS XP2535={X 5837.4,Y 7425.76,Z 475.34,A 119.787,B -33.605,C 0.685,S 6,T 27,E1 -8000,E2 0,E3 0,E4 0,E5 0,E6 0}
DECL E6POS XMP80607405={X 5878.38,Y 7449.42,Z 475.07,A 119.787,B -33.605,C 0.685,S 6,T 27,E1 -8000,E2 0,E3 0,E4 0,E5 0,E6 0}
DECL E6POS XP2540={X 5918.86,Y 7472.79,Z 474.81,A 119.787,B -33.605,C 0.685,S 6,T 27,E1 -8000,E2 0,E3 0,E4 0,E5 0,E6 0}
DECL E6POS XP2545={X 5971.93,Y 7502.98,Z 401.16,A 117.9,B -33.552,C 3.999,S 6,T 27,E1 -8000,E2 0,E3 0,E4 0,E5 0,E6 0}
DECL E6POS XP2550={X 5860.2,Y 7716.76,Z 400.37,A 118.795,B -23.581,C 3.29,S 6,T 27,E1 -8000,E2 0,E3 0,E4 0,E5 0,E6 0}
DECL E6POS XP2555={X 5826.55,Y 7697.43,Z 471.42,A 120.14,B -23.594,C 0.344,S 6,T 27,E1 -8000,E2 0,E3 0,E4 0,E5 0,E6 0}
DECL E6POS XMP80707405={X 5782.9,Y 7672.23,Z 471.57,A 120.14,B -23.594,C 0.344,S 6,T 27,E1 -8000,E2 0,E3 0,E4 0,E5 0,E6 0}
DECL E6POS XP2560={X 5739.54,Y 7647.19,Z 471.71,A 120.14,B -23.594,C 0.344,S 6,T 27,E1 -8000,E2 0,E3 0,E4 0,E5 0,E6 0}
DECL E6POS XP2565={X 5663.75,Y 7620.34,Z 471.43,A 89.171,B -21.494,C 0.078,S 6,T 27,E1 -8000,E2 0,E3 0,E4 0,E5 0,E6 0}
DECL E6POS XMP80707404={X 5628.75,Y 7619.9,Z 471.11,A 89.171,B -21.494,C 0.078,S 6,T 27,E1 -8000,E2 0,E3 0,E4 0,E5 0,E6 0}
DECL E6POS XP2570={X 5593.73,Y 7619.45,Z 470.79,A 89.171,B -21.494,C 0.078,S 6,T 27,E1 -8000,E2 0,E3 0,E4 0,E5 0,E6 0}
DECL E6POS XP2575={X 5576.98,Y 7612.94,Z 470.72,A 119.267,B -23.599,C 0.796,S 6,T 27,E1 -8000,E2 0,E3 0,E4 0,E5 0,E6 0}
DECL E6POS XMP80707403={X 5551.28,Y 7598.07,Z 470.71,A 119.267,B -23.599,C 0.796,S 6,T 27,E1 -8000,E2 0,E3 0,E4 0,E5 0,E6 0}
DECL E6POS XP2580={X 5525.58,Y 7583.18,Z 470.71,A 119.267,B -23.599,C 0.796,S 6,T 27,E1 -8000,E2 0,E3 0,E4 0,E5 0,E6 0}
DECL E6POS XP2585={X 5503.46,Y 7558.93,Z 471.03,A 149.221,B -25.296,C 0.893,S 6,T 27,E1 -8000,E2 0,E3 0,E4 0,E5 0,E6 0}
DECL E6POS XMP80707402={X 5485.75,Y 7528.73,Z 471.53,A 149.221,B -25.296,C 0.893,S 6,T 27,E1 -8000,E2 0,E3 0,E4 0,E5 0,E6 0}
DECL E6POS XP2590={X 5468.05,Y 7498.56,Z 472,A 149.221,B -25.296,C 0.893,S 6,T 27,E1 -8000,E2 0,E3 0,E4 0,E5 0,E6 0}
DECL E6POS XP2595={X 5379.33,Y 7439.16,Z 472.54,A 120.108,B -23.573,C 0.921,S 6,T 27,E1 -8000,E2 0,E3 0,E4 0,E5 0,E6 0}
DECL E6POS XMP80707401={X 5348.67,Y 7421.46,Z 472.93,A 120.108,B -23.573,C 0.921,S 6,T 27,E1 -8000,E2 0,E3 0,E4 0,E5 0,E6 0}
DECL E6POS XP2600={X 5317.11,Y 7403.25,Z 473.33,A 120.108,B -23.573,C 0.921,S 6,T 27,E1 -8000,E2 0,E3 0,E4 0,E5 0,E6 0}
DECL E6POS XP2605={X 5404.68,Y 7454.13,Z 366.5,A 117.984,B -23.53,C 6.125,S 6,T 27,E1 -8000,E2 0,E3 0,E4 0,E5 0,E6 0}
DECL E6POS XP2610={X 5341.99,Y 7695.3,Z 289.28,A 115.892,B -33.389,C 7.639,S 6,T 27,E1 -8000,E2 0,E3 0,E4 0,E5 0,E6 0}
DECL E6POS XP2615={X 5207.18,Y 7617.7,Z 465.27,A 118.827,B -33.592,C -0.077,S 6,T 27,E1 -8000,E2 0,E3 0,E4 0,E5 0,E6 0}
DECL E6POS XMP80807401={X 5248.21,Y 7641.38,Z 464.86,A 119.787,B -33.587,C 0.892,S 6,T 27,E1 -8000,E2 0,E3 0,E4 0,E5 0,E6 0}
DECL E6POS XP2620={X 5288.74,Y 7664.77,Z 464.46,A 118.827,B -33.592,C -0.077,S 6,T 27,E1 -8000,E2 0,E3 0,E4 0,E5 0,E6 0}
DECL E6POS XP2625={X 5377.31,Y 7732.44,Z 463.58,A 149.579,B -35.149,C 1.12,S 6,T 27,E1 -8000,E2 0,E3 0,E4 0,E5 0,E6 0}
DECL E6POS XMP80807402={X 5390.97,Y 7756.3,Z 463.14,A 149.579,B -35.149,C 1.12,S 6,T 27,E1 -8000,E2 0,E3 0,E4 0,E5 0,E6 0}
DECL E6POS XP2630={X 5404.62,Y 7780.16,Z 462.7,A 149.579,B -35.149,C 1.12,S 6,T 27,E1 -8000,E2 0,E3 0,E4 0,E5 0,E6 0}
DECL E6POS XP2635={X 5424.47,Y 7802.67,Z 462.25,A 120.24,B -33.61,C -0.202,S 6,T 27,E1 -8000,E2 0,E3 0,E4 0,E5 0,E6 0}
DECL E6POS XMP80807403={X 5450.43,Y 7817.73,Z 462.35,A 120.24,B -33.61,C -0.202,S 6,T 27,E1 -8000,E2 0,E3 0,E4 0,E5 0,E6 0}
DECL E6POS XP2640={X 5476.38,Y 7832.78,Z 462.43,A 120.24,B -33.61,C -0.202,S 6,T 27,E1 -8000,E2 0,E3 0,E4 0,E5 0,E6 0}
DECL E6POS XP2645={X 5497.04,Y 7840.64,Z 462.58,A 91.397,B -30.766,C -1.257,S 6,T 27,E1 -8000,E2 0,E3 0,E4 0,E5 0,E6 0}
DECL E6POS XMP80807404={X 5530.15,Y 7840.77,Z 463.18,A 91.397,B -30.766,C -1.257,S 6,T 27,E1 -8000,E2 0,E3 0,E4 0,E5 0,E6 0}
DECL E6POS XP2650={X 5563.27,Y 7840.89,Z 463.78,A 91.397,B -30.766,C -1.257,S 6,T 27,E1 -8000,E2 0,E3 0,E4 0,E5 0,E6 0}
DECL E6POS XP2655={X 5635.8,Y 7865.25,Z 464.45,A 119.135,B -33.588,C -0.037,S 6,T 27,E1 -8000,E2 0,E3 0,E4 0,E5 0,E6 0}
DECL E6POS XMP80807405={X 5675.98,Y 7888.46,Z 464.46,A 119.135,B -33.588,C -0.037,S 6,T 27,E1 -8000,E2 0,E3 0,E4 0,E5 0,E6 0}
DECL E6POS XP2660={X 5716.76,Y 7912.01,Z 464.48,A 119.135,B -33.588,C -0.037,S 6,T 27,E1 -8000,E2 0,E3 0,E4 0,E5 0,E6 0}
DECL E6POS XP2665={X 5791.35,Y 7954.61,Z 355.6,A 117.5,B -33.528,C 4.723,S 6,T 27,E1 -8000,E2 0,E3 0,E4 0,E5 0,E6 0}
DECL E6POS XP2670={X 5746.77,Y 8207.35,Z 384.64,A 118.795,B -23.581,C 3.29,S 6,T 27,E1 -8000,E2 0,E3 0,E4 0,E5 0,E6 0}
DECL E6POS XP2675={X 5612.28,Y 8129.74,Z 455.06,A 120.685,B -23.583,C 0.599,S 6,T 27,E1 -8000,E2 0,E3 0,E4 0,E5 0,E6 0}
DECL E6POS XMP80907405={X 5575.23,Y 8108.33,Z 454.95,A 120.685,B -23.583,C 0.599,S 6,T 27,E1 -8000,E2 0,E3 0,E4 0,E5 0,E6 0}
DECL E6POS XP2680={X 5535.23,Y 8085.21,Z 454.83,A 120.685,B -23.583,C 0.599,S 6,T 27,E1 -8000,E2 0,E3 0,E4 0,E5 0,E6 0}
DECL E6POS XP2685={X 5467.78,Y 8062.66,Z 453.61,A 90.001,B -21.836,C -0.439,S 6,T 27,E1 -8000,E2 0,E3 0,E4 0,E5 0,E6 0}
DECL E6POS XMP80907404={X 5432.78,Y 8061.84,Z 452.99,A 90.001,B -21.836,C -0.439,S 6,T 27,E1 -8000,E2 0,E3 0,E4 0,E5 0,E6 0}
DECL E6POS XP2690={X 5397.77,Y 8061,Z 452.37,A 90.001,B -21.836,C -0.439,S 6,T 27,E1 -8000,E2 0,E3 0,E4 0,E5 0,E6 0}
DECL E6POS XP2695={X 5378.95,Y 8055,Z 451.83,A 119.677,B -23.58,C 0.535,S 6,T 27,E1 -8000,E2 0,E3 0,E4 0,E5 0,E6 0}
DECL E6POS XMP80907403={X 5353.33,Y 8040,Z 451.7,A 119.677,B -23.58,C 0.535,S 6,T 27,E1 -8000,E2 0,E3 0,E4 0,E5 0,E6 0}
DECL E6POS XP2700={X 5327.7,Y 8024.98,Z 451.57,A 119.677,B -23.58,C 0.535,S 6,T 27,E1 -8000,E2 0,E3 0,E4 0,E5 0,E6 0}
DECL E6POS XP2705={X 5306.58,Y 8000.56,Z 452.03,A 148.61,B -24.989,C 1.313,S 6,T 27,E1 -8000,E2 0,E3 0,E4 0,E5 0,E6 0}
DECL E6POS XMP80907402={X 5289.94,Y 7972.65,Z 452.71,A 148.61,B -24.989,C 1.313,S 6,T 27,E1 -8000,E2 0,E3 0,E4 0,E5 0,E6 0}
DECL E6POS XP2710={X 5273.27,Y 7944.77,Z 453.38,A 148.61,B -24.989,C 1.313,S 6,T 27,E1 -8000,E2 0,E3 0,E4 0,E5 0,E6 0}
DECL E6POS XP2715={X 5186.01,Y 7883.43,Z 453.69,A 120.099,B -23.636,C 0.362,S 6,T 27,E1 -8000,E2 0,E3 0,E4 0,E5 0,E6 0}
DECL E6POS XMP80907401={X 5138.07,Y 7855.76,Z 454.04,A 120.099,B -23.636,C 0.362,S 6,T 27,E1 -8000,E2 0,E3 0,E4 0,E5 0,E6 0}
DECL E6POS XP2720={X 5097.88,Y 7832.55,Z 454.34,A 120.099,B -23.636,C 0.362,S 6,T 27,E1 -8000,E2 0,E3 0,E4 0,E5 0,E6 0}
DECL E6POS XP2725={X 5202.93,Y 7907.94,Z 326.32,A 117.652,B -23.497,C 6.276,S 6,T 27,E1 -8000,E2 0,E3 0,E4 0,E5 0,E6 0}
DECL E6POS XP2730={X 5106.33,Y 8115.23,Z 265.12,A 115.892,B -33.389,C 7.639,S 6,T 27,E1 -8000,E2 0,E3 0,E4 0,E5 0,E6 0}
DECL E6POS XP2735={X 4965.45,Y 8034.11,Z 440.92,A 120.312,B -33.582,C -0.877,S 6,T 27,E1 -8000,E2 0,E3 0,E4 0,E5 0,E6 0}
DECL E6POS XMP81007401={X 5012.57,Y 8061.32,Z 440.69,A 119.352,B -33.591,C -0.346,S 6,T 27,E1 -8000,E2 0,E3 0,E4 0,E5 0,E6 0}
DECL E6POS XP2740={X 5062.9,Y 8090.38,Z 440.44,A 120.312,B -33.582,C -0.877,S 6,T 27,E1 -8000,E2 0,E3 0,E4 0,E5 0,E6 0}
DECL E6POS XP2745={X 5163.88,Y 8150.99,Z 440.82,A 148.411,B -35.365,C 1.828,S 6,T 27,E1 -8000,E2 0,E3 0,E4 0,E5 0,E6 0}
DECL E6POS XMP81007402={X 5184.19,Y 8185.43,Z 439.78,A 148.411,B -35.365,C 1.828,S 6,T 27,E1 -8000,E2 0,E3 0,E4 0,E5 0,E6 0}
DECL E6POS XP2750={X 5204.51,Y 8219.87,Z 438.74,A 148.411,B -35.365,C 1.828,S 6,T 27,E1 -8000,E2 0,E3 0,E4 0,E5 0,E6 0}
DECL E6POS XP2755={X 5225.35,Y 8245.74,Z 438.31,A 120.48,B -33.609,C -0.235,S 6,T 27,E1 -8000,E2 0,E3 0,E4 0,E5 0,E6 0}
DECL E6POS XMP81007403={X 5251.24,Y 8260.9,Z 438.42,A 120.48,B -33.609,C -0.235,S 6,T 27,E1 -8000,E2 0,E3 0,E4 0,E5 0,E6 0}
DECL E6POS XP2760={X 5277.13,Y 8276.05,Z 438.52,A 120.48,B -33.609,C -0.235,S 6,T 27,E1 -8000,E2 0,E3 0,E4 0,E5 0,E6 0}
DECL E6POS XP2765={X 5300.79,Y 8283.94,Z 439.14,A 91.855,B -30.823,C -2.103,S 6,T 27,E1 -8000,E2 0,E3 0,E4 0,E5 0,E6 0}
DECL E6POS XMP81007404={X 5333.91,Y 8284.07,Z 440.15,A 91.855,B -30.823,C -2.103,S 6,T 27,E1 -8000,E2 0,E3 0,E4 0,E5 0,E6 0}
DECL E6POS XP2770={X 5367.01,Y 8284.19,Z 441.17,A 91.855,B -30.823,C -2.103,S 6,T 27,E1 -8000,E2 0,E3 0,E4 0,E5 0,E6 0}
DECL E6POS XP2775={X 5525.36,Y 8357.68,Z 443.61,A 120.07,B -33.587,C -0.565,S 6,T 27,E1 -8000,E2 0,E3 0,E4 0,E5 0,E6 0}
DECL E6POS XMP81007405={X 5565.6,Y 8380.93,Z 443.83,A 120.07,B -33.587,C -0.565,S 6,T 27,E1 -8000,E2 0,E3 0,E4 0,E5 0,E6 0}
DECL E6POS XP2780={X 5605.31,Y 8403.88,Z 444.05,A 120.07,B -33.587,C -0.565,S 6,T 27,E1 -8000,E2 0,E3 0,E4 0,E5 0,E6 0}
DECL E6POS XP2785={X 5748.85,Y 8476.29,Z 168.93,A 115.628,B -33.354,C 7.064,S 6,T 27,E1 -8000,E2 0,E3 0,E4 0,E5 0,E6 0}
DECL E6POS XP2790={X 4866.34,Y 6855.56,Z 165.8,A 111.665,B -32.739,C 14.747,S 6,T 27,E1 -7200,E2 0,E3 0,E4 0,E5 0,E6 0}
DECL E6POS XP2795={X 4543.65,Y 6678.68,Z 480.36,A 119.668,B -33.519,C 0.007,S 6,T 27,E1 -7200,E2 0,E3 0,E4 0,E5 0,E6 0}
DECL E6POS XMP80606401={X 4586.6,Y 6703.5,Z 480.38,A 119.668,B -33.519,C 0.007,S 6,T 27,E1 -7200,E2 0,E3 0,E4 0,E5 0,E6 0}
DECL E6POS XP2800={X 4626.85,Y 6726.75,Z 480.4,A 119.668,B -33.519,C 0.007,S 6,T 27,E1 -7200,E2 0,E3 0,E4 0,E5 0,E6 0}
DECL E6POS XP2805={X 4729.55,Y 6791.38,Z 479.61,A 147.094,B -34.182,C 0.595,S 6,T 27,E1 -7200,E2 0,E3 0,E4 0,E5 0,E6 0}
DECL E6POS XMP80606402={X 4748.4,Y 6820.88,Z 479.3,A 147.094,B -34.182,C 0.595,S 6,T 27,E1 -7200,E2 0,E3 0,E4 0,E5 0,E6 0}
DECL E6POS XP2810={X 4767.25,Y 6850.38,Z 479.01,A 147.094,B -34.182,C 0.595,S 6,T 27,E1 -7200,E2 0,E3 0,E4 0,E5 0,E6 0}
DECL E6POS XP2815={X 4766.78,Y 6851.17,Z 478.92,A 119.18,B -33.597,C 1.202,S 6,T 27,E1 -7200,E2 0,E3 0,E4 0,E5 0,E6 0}
DECL E6POS XMP80606403={X 4790.64,Y 6864.85,Z 478.9,A 119.18,B -33.597,C 1.202,S 6,T 27,E1 -7200,E2 0,E3 0,E4 0,E5 0,E6 0}
DECL E6POS XP2820={X 4814.49,Y 6878.52,Z 478.88,A 119.18,B -33.597,C 1.202,S 6,T 27,E1 -7200,E2 0,E3 0,E4 0,E5 0,E6 0}
DECL E6POS XP2825={X 4809.05,Y 6882.51,Z 478.7,A 88.803,B -30.44,C -1.131,S 6,T 27,E1 -7200,E2 0,E3 0,E4 0,E5 0,E6 0}
DECL E6POS XMP80606404={X 4844.87,Y 6881.29,Z 479.12,A 88.803,B -30.44,C -1.131,S 6,T 27,E1 -7200,E2 0,E3 0,E4 0,E5 0,E6 0}
DECL E6POS XP2830={X 4880.67,Y 6880.07,Z 479.56,A 88.803,B -30.44,C -1.131,S 6,T 27,E1 -7200,E2 0,E3 0,E4 0,E5 0,E6 0}
DECL E6POS XP2835={X 4944.48,Y 6910.18,Z 479.52,A 120.181,B -33.588,C 0.117,S 6,T 27,E1 -7200,E2 0,E3 0,E4 0,E5 0,E6 0}
DECL E6POS XMP80606405={X 4985.24,Y 6933.72,Z 479.41,A 120.181,B -33.588,C 0.117,S 6,T 27,E1 -7200,E2 0,E3 0,E4 0,E5 0,E6 0}
DECL E6POS XP2840={X 5025.91,Y 6957.21,Z 479.3,A 120.181,B -33.588,C 0.117,S 6,T 27,E1 -7200,E2 0,E3 0,E4 0,E5 0,E6 0}
DECL E6POS XP2845={X 5141.13,Y 7023.24,Z 404.45,A 117.9,B -33.552,C 3.999,S 6,T 27,E1 -7200,E2 0,E3 0,E4 0,E5 0,E6 0}
DECL E6POS XP2850={X 4984.93,Y 7211.26,Z 402.3,A 118.795,B -23.581,C 3.29,S 6,T 27,E1 -7200,E2 0,E3 0,E4 0,E5 0,E6 0}
DECL E6POS XP2855={X 4950.93,Y 7191.74,Z 473.49,A 119.485,B -23.602,C 0.03,S 6,T 27,E1 -7200,E2 0,E3 0,E4 0,E5 0,E6 0}
DECL E6POS XMP80706405={X 4907.61,Y 7166.72,Z 473.49,A 119.485,B -23.602,C 0.03,S 6,T 27,E1 -7200,E2 0,E3 0,E4 0,E5 0,E6 0}
DECL E6POS XP2860={X 4863.94,Y 7141.49,Z 473.5,A 119.485,B -23.602,C 0.03,S 6,T 27,E1 -7200,E2 0,E3 0,E4 0,E5 0,E6 0}
DECL E6POS XP2865={X 4795.39,Y 7112.49,Z 473.08,A 90.535,B -21.118,C -0.379,S 6,T 27,E1 -7200,E2 0,E3 0,E4 0,E5 0,E6 0}
DECL E6POS XMP80706404={X 4760.4,Y 7111.32,Z 472.51,A 90.535,B -21.118,C -0.379,S 6,T 27,E1 -7200,E2 0,E3 0,E4 0,E5 0,E6 0}
DECL E6POS XP2870={X 4725.41,Y 7110.14,Z 471.93,A 90.535,B -21.118,C -0.379,S 6,T 27,E1 -7200,E2 0,E3 0,E4 0,E5 0,E6 0}
DECL E6POS XP2875={X 4732.35,Y 7109.62,Z 472.07,A 119.267,B -23.599,C 0.669,S 6,T 27,E1 -7200,E2 0,E3 0,E4 0,E5 0,E6 0}
DECL E6POS XMP80706403={X 4706.64,Y 7094.76,Z 472,A 119.267,B -23.599,C 0.669,S 6,T 27,E1 -7200,E2 0,E3 0,E4 0,E5 0,E6 0}
DECL E6POS XP2880={X 4680.94,Y 7079.9,Z 471.94,A 119.267,B -23.599,C 0.669,S 6,T 27,E1 -7200,E2 0,E3 0,E4 0,E5 0,E6 0}
DECL E6POS XP2885={X 4682.49,Y 7080.88,Z 472.03,A 148.808,B -24.237,C 0.873,S 6,T 27,E1 -7200,E2 0,E3 0,E4 0,E5 0,E6 0}
DECL E6POS XMP80706402={X 4664.55,Y 7050.84,Z 472.52,A 148.808,B -24.237,C 0.873,S 6,T 27,E1 -7200,E2 0,E3 0,E4 0,E5 0,E6 0}
DECL E6POS XP2890={X 4646.61,Y 7020.78,Z 473,A 148.808,B -24.237,C 0.873,S 6,T 27,E1 -7200,E2 0,E3 0,E4 0,E5 0,E6 0}
DECL E6POS XP2895={X 4540.35,Y 6954.61,Z 473.45,A 120.293,B -23.571,C -0.051,S 6,T 27,E1 -7200,E2 0,E3 0,E4 0,E5 0,E6 0}
DECL E6POS XMP80706401={X 4510.55,Y 6937.36,Z 473.48,A 120.293,B -23.571,C -0.051,S 6,T 27,E1 -7200,E2 0,E3 0,E4 0,E5 0,E6 0}
DECL E6POS XP2900={X 4479.88,Y 6919.64,Z 473.39,A 120.293,B -23.571,C -0.051,S 6,T 27,E1 -7200,E2 0,E3 0,E4 0,E5 0,E6 0}
DECL E6POS XP2905={X 4517.42,Y 6941.69,Z 367.9,A 117.984,B -23.53,C 6.125,S 6,T 27,E1 -7200,E2 0,E3 0,E4 0,E5 0,E6 0}
DECL E6POS XP2910={X 4508.4,Y 7213.71,Z 287.96,A 115.892,B -33.389,C 7.639,S 6,T 27,E1 -7200,E2 0,E3 0,E4 0,E5 0,E6 0}
DECL E6POS XP2915={X 4374.6,Y 7136.55,Z 463.01,A 120.388,B -33.606,C -0.141,S 6,T 27,E1 -7200,E2 0,E3 0,E4 0,E5 0,E6 0}
DECL E6POS XMP80806401={X 4414.62,Y 7159.8,Z 463.54,A 120.388,B -33.606,C -0.141,S 6,T 27,E1 -7200,E2 0,E3 0,E4 0,E5 0,E6 0}
DECL E6POS XP2920={X 4455.32,Y 7183.31,Z 463.76,A 120.388,B -33.606,C -0.141,S 6,T 27,E1 -7200,E2 0,E3 0,E4 0,E5 0,E6 0}
DECL E6POS XP2925={X 4567.02,Y 7255.67,Z 463.23,A 149.634,B -34.5,C 1.064,S 6,T 27,E1 -7200,E2 0,E3 0,E4 0,E5 0,E6 0}
DECL E6POS XMP80806402={X 4580.68,Y 7279.54,Z 462.8,A 149.634,B -34.5,C 1.064,S 6,T 27,E1 -7200,E2 0,E3 0,E4 0,E5 0,E6 0}
DECL E6POS XP2930={X 4594.33,Y 7303.4,Z 462.39,A 149.634,B -34.5,C 1.064,S 6,T 27,E1 -7200,E2 0,E3 0,E4 0,E5 0,E6 0}
DECL E6POS XP2935={X 4598.27,Y 7309.58,Z 462,A 120.48,B -33.609,C -0.435,S 6,T 27,E1 -7200,E2 0,E3 0,E4 0,E5 0,E6 0}
DECL E6POS XMP80806403={X 4624.18,Y 7324.68,Z 462.2,A 120.48,B -33.609,C -0.435,S 6,T 27,E1 -7200,E2 0,E3 0,E4 0,E5 0,E6 0}
DECL E6POS XP2940={X 4650.09,Y 7339.79,Z 462.38,A 120.48,B -33.609,C -0.435,S 6,T 27,E1 -7200,E2 0,E3 0,E4 0,E5 0,E6 0}
DECL E6POS XP2945={X 4648.69,Y 7340.77,Z 462.28,A 91.17,B -30.636,C -1.676,S 6,T 27,E1 -7200,E2 0,E3 0,E4 0,E5 0,E6 0}
DECL E6POS XMP80806404={X 4681.81,Y 7340.64,Z 463.09,A 91.17,B -30.636,C -1.676,S 6,T 27,E1 -7200,E2 0,E3 0,E4 0,E5 0,E6 0}
DECL E6POS XP2950={X 4714.92,Y 7340.5,Z 463.89,A 91.17,B -30.636,C -1.676,S 6,T 27,E1 -7200,E2 0,E3 0,E4 0,E5 0,E6 0}
DECL E6POS XP2955={X 4767.48,Y 7363.66,Z 464.44,A 120.141,B -33.582,C 0.204,S 6,T 27,E1 -7200,E2 0,E3 0,E4 0,E5 0,E6 0}
DECL E6POS XMP80806405={X 4807.57,Y 7386.82,Z 464.54,A 120.141,B -33.582,C 0.204,S 6,T 27,E1 -7200,E2 0,E3 0,E4 0,E5 0,E6 0}
DECL E6POS XP2960={X 4847.61,Y 7409.96,Z 464.64,A 120.141,B -33.582,C 0.204,S 6,T 27,E1 -7200,E2 0,E3 0,E4 0,E5 0,E6 0}
