DECL E6POS XP5={X 185.44,Y 1100.2,Z 5886,A 90.498,B 14.789,C -61.571,S 2,T 43,E1 300,E2 0,E3 0,E4 0,E5 0,E6 0}
DECL E6POS XP10={X 185.44,Y 1100.2,Z 5886,A 90.498,B 14.789,C -61.571,S 2,T 43,E1 300,E2 0,E3 0,E4 0,E5 0,E6 0}
DECL E6POS XVorpos1_BRM_LH10={X 795.08,Y 7821.59,Z 3225.16,A -33.839,B 1.618,C -175.452,S 2,T 35,E1 -4200,E2 0,E3 0,E4 0,E5 0,E6 0}
DECL E6POS XVorpos2_BRM_LH10={X 779.69,Y 5096.31,Z 2703.99,A -34.235,B 0.487,C 179.366,S 2,T 35,E1 -1600,E2 0,E3 0,E4 0,E5 0,E6 0}
DECL E6POS XVorpos3_BRM_LH10={X 1162.4,Y 3757.43,Z 532.56,A -40.235,B 0.487,C 179.365,S 2,T 35,E1 -300,E2 0,E3 0,E4 0,E5 0,E6 0}
DECL E6POS XP10_BRM={X 1555.9,Y 4309.42,Z 196.43,A -47.083,B 5.886,C 173.841,S 2,T 35,E1 -900,E2 0,E3 0,E4 0,E5 0,E6 0}
DECL E6POS XVorpos1_BRB_LH10={X 1091.62,Y 8509.02,Z 3219.99,A -37.883,B 2.368,C -177.021,S 2,T 35,E1 -5000,E2 0,E3 0,E4 0,E5 0,E6 0}
DECL E6POS XP10_BRB={X 806.83,Y 9148.54,Z 2017.52,A -30.839,B 1.391,C -175.628,S 2,T 35,E1 -5750,E2 0,E3 0,E4 0,E5 0,E6 0}
DECL E6POS XVorpos2_BRB_LH10={X 1097.73,Y 10176.31,Z 1979.23,A -38.235,B 0.487,C 179.366,S 2,T 35,E1 -6450,E2 0,E3 0,E4 0,E5 0,E6 0}
DECL E6POS XP15_BRB={X 1022.67,Y 10042.21,Z 1015.83,A -37.224,B 0.256,C 179.197,S 2,T 35,E1 -6330,E2 0,E3 0,E4 0,E5 0,E6 0}
DECL E6POS XVorpos3_BRB_LH10={X 1000.49,Y 9030.01,Z 1014.75,A -37.235,B 0.487,C 179.366,S 2,T 35,E1 -5250,E2 0,E3 0,E4 0,E5 0,E6 0}
DECL E6POS XP20_BRB={X 1724.48,Y 8695.63,Z 62.1,A -47.436,B 9.162,C -177.043,S 2,T 35,E1 -5100,E2 0,E3 0,E4 0,E5 0,E6 0}
DECL E6POS XP5_s17r0607u={X 3971.2,Y 9283.61,Z 98.58,A -150.631,B -36.442,C 90.994,S 2,T 35,E1 -5700,E2 0,E3 0,E4 0,E5 0,E6 0}
DECL E6POS XC_s17r0607u_5={X 3994.55,Y 9357.1,Z 243.26,A -150.631,B -36.442,C 90.994,S 2,T 35,E1 -5800,E2 0,E3 0,E4 0,E5 0,E6 0}
DECL E6POS XC_s17r0607u_10={X 4513.49,Y 9656.91,Z 245.19,A -150.631,B -36.442,C 90.994,S 2,T 35,E1 -6300,E2 0,E3 0,E4 0,E5 0,E6 0}
DECL E6POS XP10_s17r0607u={X 4547.47,Y 9628.68,Z 85.87,A -150.631,B -36.442,C 90.994,S 2,T 35,E1 -6350,E2 0,E3 0,E4 0,E5 0,E6 0}
DECL E6POS XP5_s17r0506u={X 3294.39,Y 8892.11,Z 87.85,A -150.631,B -36.442,C 90.994,S 2,T 35,E1 -5000,E2 0,E3 0,E4 0,E5 0,E6 0}
DECL E6POS XC_s17r0506u_5={X 3317.74,Y 8965.6,Z 232.53,A -150.631,B -36.442,C 90.994,S 2,T 35,E1 -5100,E2 0,E3 0,E4 0,E5 0,E6 0}
DECL E6POS XC_s17r0506u_10={X 3823.68,Y 9257.99,Z 236.19,A -150.631,B -36.442,C 90.994,S 2,T 35,E1 -5500,E2 0,E3 0,E4 0,E5 0,E6 0}
DECL E6POS XP10_s17r0506u={X 3971.19,Y 9283.6,Z 98.59,A -150.631,B -36.442,C 90.994,S 2,T 35,E1 -5700,E2 0,E3 0,E4 0,E5 0,E6 0}
DECL E6POS XP5_s17r0405u={X 2606.8,Y 8499.23,Z 62.95,A -151.55,B -36.419,C 93.113,S 2,T 35,E1 -4200,E2 0,E3 0,E4 0,E5 0,E6 0}
DECL E6POS XC_s17r0405u_5={X 2680.66,Y 8595.86,Z 216.32,A -151.55,B -36.419,C 93.113,S 2,T 35,E1 -4400,E2 0,E3 0,E4 0,E5 0,E6 0}
DECL E6POS XC_s17r0405u_10={X 3145.98,Y 8865.92,Z 222.26,A -151.833,B -36.407,C 93.108,S 2,T 35,E1 -4800,E2 0,E3 0,E4 0,E5 0,E6 0}
DECL E6POS XP10_s17r0405u={X 3294.39,Y 8892.11,Z 87.85,A -150.631,B -36.442,C 90.994,S 2,T 35,E1 -4900,E2 0,E3 0,E4 0,E5 0,E6 0}
DECL E6POS XP5_s16r0405u={X 2667.52,Y 8256.48,Z 92.44,A -151.55,B -36.419,C 93.113,S 2,T 35,E1 -4400,E2 0,E3 0,E4 0,E5 0,E6 0}
DECL E6POS XC_s16r0405u_5={X 2732.7,Y 8348.1,Z 242.93,A -151.55,B -36.419,C 93.113,S 2,T 35,E1 -4400,E2 0,E3 0,E4 0,E5 0,E6 0}
DECL E6POS XC_s16r0405u_10={X 2879.97,Y 8433.01,Z 240.92,A -151.55,B -36.419,C 93.113,S 2,T 35,E1 -4400,E2 0,E3 0,E4 0,E5 0,E6 0}
DECL E6POS XP10_s16r0405u={X 2950.54,Y 8422.06,Z 89.4,A -151.55,B -36.419,C 93.113,S 2,T 35,E1 -4400,E2 0,E3 0,E4 0,E5 0,E6 0}
DECL E6POS XP5_s16r0405o={X 2893.62,Y 8497,Z 83.25,A -152.116,B -36.395,C -86.899,S 2,T 35,E1 -4400,E2 0,E3 0,E4 0,E5 0,E6 0}
DECL E6POS XC_s16r0405o_5={X 2873.68,Y 8443.9,Z 240.37,A -152.116,B -36.395,C -86.899,S 2,T 35,E1 -4400,E2 0,E3 0,E4 0,E5 0,E6 0}
DECL E6POS XC_s16r0405o_10={X 2726.41,Y 8358.99,Z 242.38,A -152.116,B -36.395,C -86.899,S 2,T 35,E1 -4400,E2 0,E3 0,E4 0,E5 0,E6 0}
DECL E6POS XP10_s16r0405o={X 2624.85,Y 8340.15,Z 94.97,A -152.116,B -36.395,C -86.899,S 2,T 35,E1 -4400,E2 0,E3 0,E4 0,E5 0,E6 0}
DECL E6POS XP5_s15r0910u={X 6241.33,Y 10033.66,Z -39.25,A -151.946,B -40.748,C 93.288,S 2,T 35,E1 -8050,E2 0,E3 0,E4 0,E5 0,E6 0}
DECL E6POS XP10_s15r0910u={X 6294,Y 10064.06,Z 188.87,A -151.833,B -36.407,C 93.107,S 2,T 35,E1 -8150,E2 0,E3 0,E4 0,E5 0,E6 0}
DECL E6POS XC_s15r0910u_5={X 6358.46,Y 10166.27,Z 331.34,A -151.833,B -36.407,C 93.107,S 2,T 35,E1 -8250,E2 0,E3 0,E4 0,E5 0,E6 0}
DECL E6POS XC_s15r0910u_10={X 6638.04,Y 10327.72,Z 331.44,A -151.833,B -36.407,C 93.106,S 2,T 35,E1 -8450,E2 0,E3 0,E4 0,E5 0,E6 0}
DECL E6POS XP15_s15r0910u={X 6708.57,Y 10316.43,Z 179.93,A -151.833,B -36.407,C 93.106,S 2,T 35,E1 -8500,E2 0,E3 0,E4 0,E5 0,E6 0}
DECL E6POS XP20_s15r0910u={X 6255.42,Y 10055.09,Z -23.78,A -151.934,B -40.352,C 93.269,S 2,T 35,E1 -8050,E2 0,E3 0,E4 0,E5 0,E6 0}
DECL E6POS XP5_s15r0809u={X 5583.28,Y 9657.88,Z 173.93,A -150.631,B -36.442,C 90.994,S 2,T 35,E1 -7350,E2 0,E3 0,E4 0,E5 0,E6 0}
DECL E6POS XC_s15r0809u_5={X 5606.63,Y 9731.38,Z 318.61,A -150.631,B -36.442,C 90.994,S 2,T 35,E1 -7450,E2 0,E3 0,E4 0,E5 0,E6 0}
DECL E6POS XC_s15r0809u_10={X 6188.42,Y 10067.66,Z 323.91,A -150.631,B -36.442,C 90.994,S 2,T 35,E1 -7950,E2 0,E3 0,E4 0,E5 0,E6 0}
DECL E6POS XP10_s15r0809u={X 6247.23,Y 10037.07,Z 189.52,A -151.833,B -36.407,C 93.107,S 2,T 35,E1 -8050,E2 0,E3 0,E4 0,E5 0,E6 0}
DECL E6POS XP5_s15r0708u={X 4760.38,Y 9189.56,Z 151.8,A -151.833,B -36.407,C 93.106,S 2,T 35,E1 -6350,E2 0,E3 0,E4 0,E5 0,E6 0}
DECL E6POS XC_s15r0708u_5={X 4834.73,Y 9285.81,Z 307.2,A -151.833,B -36.407,C 93.106,S 2,T 35,E1 -6450,E2 0,E3 0,E4 0,E5 0,E6 0}
DECL E6POS XC_s15r0708u_10={X 5436.32,Y 9633.23,Z 312.59,A -152.115,B -36.395,C 93.101,S 2,T 35,E1 -7150,E2 0,E3 0,E4 0,E5 0,E6 0}
DECL E6POS XP10_s15r0708u={X 5583.27,Y 9657.88,Z 173.94,A -150.631,B -36.442,C 90.994,S 2,T 35,E1 -7350,E2 0,E3 0,E4 0,E5 0,E6 0}
DECL E6POS XP5_s15r0506u={X 3340.53,Y 8368.33,Z 130.67,A -151.833,B -36.407,C 93.106,S 2,T 35,E1 -4850,E2 0,E3 0,E4 0,E5 0,E6 0}
DECL E6POS XC_s15r0506u_5={X 3414.83,Y 8464.54,Z 281.07,A -151.833,B -36.407,C 93.106,S 2,T 35,E1 -4950,E2 0,E3 0,E4 0,E5 0,E6 0}
DECL E6POS XC_s15r0506u_10={X 3605.37,Y 8574.5,Z 280,A -151.833,B -36.407,C 93.106,S 2,T 35,E1 -5050,E2 0,E3 0,E4 0,E5 0,E6 0}
DECL E6POS XP10_s15r0506u={X 3675.9,Y 8563.21,Z 128.49,A -151.833,B -36.407,C 93.106,S 2,T 35,E1 -5100,E2 0,E3 0,E4 0,E5 0,E6 0}
DECL E6POS XP5_s15r0506o={X 3618.93,Y 8638.22,Z 122.33,A -151.833,B -36.407,C -86.893,S 2,T 35,E1 -5100,E2 0,E3 0,E4 0,E5 0,E6 0}
DECL E6POS XC_s15r0506o_5={X 3599.28,Y 8585.05,Z 279.46,A -151.833,B -36.407,C -86.893,S 2,T 35,E1 -5050,E2 0,E3 0,E4 0,E5 0,E6 0}
DECL E6POS XC_s15r0506o_10={X 3408.73,Y 8475.09,Z 280.54,A -151.833,B -36.407,C -86.893,S 2,T 35,E1 -4950,E2 0,E3 0,E4 0,E5 0,E6 0}
DECL E6POS XP10_s15r0506o={X 3298.61,Y 8450.68,Z 133.27,A -151.833,B -36.407,C -86.893,S 2,T 35,E1 -4850,E2 0,E3 0,E4 0,E5 0,E6 0}
DECL E6POS XP5_s15r0405u={X 2608.7,Y 7944.16,Z 115.68,A -151.833,B -36.407,C 93.107,S 2,T 35,E1 -4000,E2 0,E3 0,E4 0,E5 0,E6 0}
DECL E6POS XC_s15r0405u_5={X 2674.38,Y 8035.41,Z 271.2,A -151.833,B -36.407,C 93.107,S 2,T 35,E1 -4100,E2 0,E3 0,E4 0,E5 0,E6 0}
DECL E6POS XC_s15r0405u_10={X 3116.58,Y 8292.5,Z 274.07,A -151.833,B -36.407,C 93.107,S 2,T 35,E1 -4500,E2 0,E3 0,E4 0,E5 0,E6 0}
DECL E6POS XP10_s15r0405u={X 3187.06,Y 8281.18,Z 117.56,A -151.833,B -36.407,C 93.107,S 2,T 35,E1 -4550,E2 0,E3 0,E4 0,E5 0,E6 0}
DECL E6POS XP5_s15r0405o={X 3014.27,Y 8288.21,Z 110.58,A -152.115,B -36.395,C -86.899,S 2,T 35,E1 -4400,E2 0,E3 0,E4 0,E5 0,E6 0}
DECL E6POS XC_s15r0405o_5={X 3003.01,Y 8240.11,Z 267.58,A -152.115,B -36.395,C -86.899,S 2,T 35,E1 -4400,E2 0,E3 0,E4 0,E5 0,E6 0}
DECL E6POS XC_s15r0405o_10={X 2672.61,Y 8049.83,Z 266.52,A -151.833,B -36.407,C -86.894,S 2,T 35,E1 -4100,E2 0,E3 0,E4 0,E5 0,E6 0}
DECL E6POS XP10_s15r0405o={X 2562.49,Y 8025.42,Z 119.25,A -151.833,B -36.407,C -86.894,S 2,T 35,E1 -4000,E2 0,E3 0,E4 0,E5 0,E6 0}
DECL E6POS XP5_s14r0910u={X 6438.89,Y 9592.96,Z -131.57,A -154.715,B -42.413,C 91.466,S 2,T 35,E1 -8050,E2 0,E3 0,E4 0,E5 0,E6 0}
DECL E6POS XP10_s14r0910u={X 6684.84,Y 10022.83,Z 198.61,A -151.833,B -36.407,C 93.106,S 2,T 35,E1 -8450,E2 0,E3 0,E4 0,E5 0,E6 0}
DECL E6POS XC_s14r0910u_5={X 6750.47,Y 10114.05,Z 349.13,A -151.833,B -36.407,C 93.106,S 2,T 35,E1 -8450,E2 0,E3 0,E4 0,E5 0,E6 0}
DECL E6POS XC_s14r0910u_10={X 6941.89,Y 10224.49,Z 347.66,A -151.833,B -36.407,C 93.106,S 2,T 35,E1 -8550,E2 0,E3 0,E4 0,E5 0,E6 0}
DECL E6POS XP15_s14r0910u={X 7012.42,Y 10213.2,Z 196.15,A -151.833,B -36.407,C 93.106,S 2,T 35,E1 -8550,E2 0,E3 0,E4 0,E5 0,E6 0}
DECL E6POS XP20_s14r0910u={X 6438.89,Y 9592.96,Z -131.57,A -154.715,B -42.413,C 91.466,S 2,T 35,E1 -8050,E2 0,E3 0,E4 0,E5 0,E6 0}
DECL E6POS XP5_s14r0809u={X 6073.52,Y 9669.58,Z 190.24,A -151.833,B -36.407,C 93.106,S 2,T 35,E1 -7800,E2 0,E3 0,E4 0,E5 0,E6 0}
DECL E6POS XC_s14r0809u_5={X 6139.15,Y 9760.8,Z 340.76,A -151.833,B -36.407,C 93.106,S 2,T 35,E1 -7900,E2 0,E3 0,E4 0,E5 0,E6 0}
DECL E6POS XC_s14r0809u_10={X 6338.36,Y 9875.75,Z 339.48,A -151.834,B -36.407,C 93.107,S 2,T 35,E1 -8000,E2 0,E3 0,E4 0,E5 0,E6 0}
DECL E6POS XP10_s14r0809u={X 6408.89,Y 9864.46,Z 187.97,A -151.834,B -36.407,C 93.107,S 2,T 35,E1 -8050,E2 0,E3 0,E4 0,E5 0,E6 0}
DECL E6POS XP5_s14r0809o={X 6351.15,Y 9940.79,Z 181.75,A -151.834,B -36.407,C -86.893,S 2,T 35,E1 -8050,E2 0,E3 0,E4 0,E5 0,E6 0}
DECL E6POS XC_s14r0809o_5={X 6331.51,Y 9887.61,Z 338.88,A -151.834,B -36.407,C -86.893,S 2,T 35,E1 -8000,E2 0,E3 0,E4 0,E5 0,E6 0}
DECL E6POS XC_s14r0809o_10={X 6140.96,Y 9777.66,Z 340.04,A -151.833,B -36.407,C -86.893,S 2,T 35,E1 -7900,E2 0,E3 0,E4 0,E5 0,E6 0}
DECL E6POS XP10_s14r0809o={X 6030.84,Y 9753.25,Z 192.76,A -151.833,B -36.407,C -86.893,S 2,T 35,E1 -7800,E2 0,E3 0,E4 0,E5 0,E6 0}
DECL E6POS XP5_s14r0506u={X 3439.24,Y 8147.02,Z 155.09,A -151.833,B -36.407,C 93.106,S 2,T 35,E1 -5100,E2 0,E3 0,E4 0,E5 0,E6 0}
DECL E6POS XC_s14r0506u_5={X 3504.87,Y 8238.24,Z 305.61,A -151.833,B -36.407,C 93.106,S 2,T 35,E1 -5200,E2 0,E3 0,E4 0,E5 0,E6 0}
DECL E6POS XC_s14r0506u_10={X 3948.58,Y 8494.6,Z 307.94,A -151.833,B -36.407,C 93.106,S 2,T 35,E1 -5600,E2 0,E3 0,E4 0,E5 0,E6 0}
DECL E6POS XP10_s14r0506u={X 4019.1,Y 8483.31,Z 156.44,A -151.833,B -36.407,C 93.106,S 2,T 35,E1 -5650,E2 0,E3 0,E4 0,E5 0,E6 0}
DECL E6POS XP5_s14r0405u={X 2698.26,Y 7717.67,Z 142.2,A -151.833,B -36.407,C 93.106,S 2,T 35,E1 -4000,E2 0,E3 0,E4 0,E5 0,E6 0}
DECL E6POS XC_s14r0405u_5={X 2763.9,Y 7808.9,Z 292.72,A -151.833,B -36.407,C 93.106,S 2,T 35,E1 -4100,E2 0,E3 0,E4 0,E5 0,E6 0}
DECL E6POS XC_s14r0405u_10={X 3189.8,Y 8055.66,Z 295.12,A -151.833,B -36.407,C 93.107,S 2,T 35,E1 -4500,E2 0,E3 0,E4 0,E5 0,E6 0}
DECL E6POS XP10_s14r0405u={X 3260.32,Y 8044.35,Z 143.61,A -151.833,B -36.407,C 93.107,S 2,T 35,E1 -4550,E2 0,E3 0,E4 0,E5 0,E6 0}
DECL E6POS XP5_s14r0405o={X 3400.7,Y 8233.52,Z 140.48,A -151.833,B -36.407,C -86.893,S 2,T 35,E1 -4750,E2 0,E3 0,E4 0,E5 0,E6 0}
DECL E6POS XC_s14r0405o_5={X 3381.06,Y 8180.35,Z 297.62,A -151.833,B -36.407,C -86.893,S 2,T 35,E1 -4700,E2 0,E3 0,E4 0,E5 0,E6 0}
DECL E6POS XC_s14r0405o_10={X 2757.23,Y 7820.43,Z 292.13,A -151.833,B -36.407,C -86.893,S 2,T 35,E1 -4100,E2 0,E3 0,E4 0,E5 0,E6 0}
DECL E6POS XP10_s14r0405o={X 2655.77,Y 7801.02,Z 144.74,A -151.833,B -36.407,C -86.893,S 2,T 35,E1 -4000,E2 0,E3 0,E4 0,E5 0,E6 0}
DECL E6POS XP5_s14r0102u={X 431.03,Y 6406.95,Z 76.5,A -151.833,B -36.407,C 93.106,S 2,T 35,E1 -1450,E2 0,E3 0,E4 0,E5 0,E6 0}
DECL E6POS XC_s14r0102u_5={X 437.89,Y 6463.43,Z 236.58,A -151.833,B -36.407,C 93.106,S 2,T 35,E1 -1450,E2 0,E3 0,E4 0,E5 0,E6 0}
DECL E6POS XC_s14r0102u_10={X 635.28,Y 6577.48,Z 238.15,A -151.833,B -36.407,C 93.106,S 2,T 35,E1 -1600,E2 0,E3 0,E4 0,E5 0,E6 0}
DECL E6POS XP10_s14r0102u={X 713.05,Y 6570.01,Z 84.34,A -151.833,B -36.407,C 93.106,S 2,T 35,E1 -1600,E2 0,E3 0,E4 0,E5 0,E6 0}
DECL E6POS XP5_s14r0102o={X 666.26,Y 6651.01,Z 80.25,A -151.833,B -36.407,C -86.893,S 2,T 35,E1 -1600,E2 0,E3 0,E4 0,E5 0,E6 0}
DECL E6POS XC_s14r0102o_5={X 629.44,Y 6587.59,Z 237.64,A -151.833,B -36.407,C -86.893,S 2,T 35,E1 -1600,E2 0,E3 0,E4 0,E5 0,E6 0}
DECL E6POS XC_s14r0102o_10={X 262.59,Y 6375.65,Z 236.06,A -151.833,B -36.407,C -86.893,S 2,T 35,E1 -1300,E2 0,E3 0,E4 0,E5 0,E6 0}
DECL E6POS XP10_s14r0102o={X 214.8,Y 6390.03,Z 72.41,A -151.833,B -36.407,C -86.893,S 2,T 35,E1 -1300,E2 0,E3 0,E4 0,E5 0,E6 0}
DECL E6POS XP5_s13r0506u={X 3952.99,Y 8165.82,Z 183.48,A -151.833,B -36.407,C 93.106,S 2,T 35,E1 -5750,E2 0,E3 0,E4 0,E5 0,E6 0}
DECL E6POS XC_s13r0506u_5={X 4018.63,Y 8257.04,Z 334.01,A -151.833,B -36.407,C 93.106,S 2,T 35,E1 -5750,E2 0,E3 0,E4 0,E5 0,E6 0}
DECL E6POS XC_s13r0506u_10={X 4165.9,Y 8341.95,Z 332,A -151.833,B -36.407,C 93.106,S 2,T 35,E1 -5750,E2 0,E3 0,E4 0,E5 0,E6 0}
DECL E6POS XP10_s13r0506u={X 4236.42,Y 8330.66,Z 180.49,A -151.833,B -36.407,C 93.106,S 2,T 35,E1 -5750,E2 0,E3 0,E4 0,E5 0,E6 0}
DECL E6POS XP5_s13r0506o={X 4179.44,Y 8405.68,Z 174.33,A -151.833,B -36.407,C -86.893,S 2,T 35,E1 -5750,E2 0,E3 0,E4 0,E5 0,E6 0}
DECL E6POS XC_s13r0506o_5={X 4159.81,Y 8352.5,Z 331.46,A -151.833,B -36.407,C -86.893,S 2,T 35,E1 -5750,E2 0,E3 0,E4 0,E5 0,E6 0}
DECL E6POS XC_s13r0506o_10={X 4021.19,Y 8272.58,Z 333.36,A -151.833,B -36.407,C -86.893,S 2,T 35,E1 -5750,E2 0,E3 0,E4 0,E5 0,E6 0}
DECL E6POS XP10_s13r0506o={X 3911.07,Y 8248.17,Z 186.07,A -151.833,B -36.407,C -86.893,S 2,T 35,E1 -5750,E2 0,E3 0,E4 0,E5 0,E6 0}
DECL E6POS XP5_s13r0405u={X 2788.13,Y 7491.37,Z 165.62,A -151.833,B -36.407,C 93.107,S 2,T 35,E1 -4000,E2 0,E3 0,E4 0,E5 0,E6 0}
DECL E6POS XC_s13r0405u_5={X 2853.76,Y 7582.59,Z 316.14,A -151.833,B -36.407,C 93.107,S 2,T 35,E1 -4100,E2 0,E3 0,E4 0,E5 0,E6 0}
DECL E6POS XC_s13r0405u_10={X 3310.36,Y 7847.08,Z 318.73,A -151.833,B -36.407,C 93.106,S 2,T 35,E1 -4500,E2 0,E3 0,E4 0,E5 0,E6 0}
DECL E6POS XP10_s13r0405u={X 3380.89,Y 7835.79,Z 167.22,A -151.833,B -36.407,C 93.106,S 2,T 35,E1 -4550,E2 0,E3 0,E4 0,E5 0,E6 0}
DECL E6POS XP5_s13r0405o={X 3323.77,Y 7910.72,Z 161.06,A -151.833,B -36.407,C -86.893,S 2,T 35,E1 -4550,E2 0,E3 0,E4 0,E5 0,E6 0}
DECL E6POS XC_s13r0405o_5={X 3312.78,Y 7862.54,Z 318.08,A -151.833,B -36.407,C -86.893,S 2,T 35,E1 -4550,E2 0,E3 0,E4 0,E5 0,E6 0}
DECL E6POS XC_s13r0405o_10={X 2855.75,Y 7599.13,Z 315.44,A -151.833,B -36.407,C -86.893,S 2,T 35,E1 -4100,E2 0,E3 0,E4 0,E5 0,E6 0}
DECL E6POS XP10_s13r0405o={X 2745.63,Y 7574.71,Z 168.17,A -151.833,B -36.407,C -86.893,S 2,T 35,E1 -4000,E2 0,E3 0,E4 0,E5 0,E6 0}
DECL E6POS XP5_s13r0102u={X 485.1,Y 6163.1,Z 132.25,A -151.658,B -33.721,C 93.006,S 2,T 35,E1 -1600,E2 0,E3 0,E4 0,E5 0,E6 0}
DECL E6POS XC_s13r0102u_5={X 531.4,Y 6239.32,Z 261.67,A -151.658,B -33.721,C 93.006,S 2,T 35,E1 -1600,E2 0,E3 0,E4 0,E5 0,E6 0}
DECL E6POS XC_s13r0102u_10={X 671.79,Y 6319.8,Z 262.49,A -151.658,B -33.721,C 93.006,S 2,T 35,E1 -1600,E2 0,E3 0,E4 0,E5 0,E6 0}
DECL E6POS XP10_s13r0102u={X 736.72,Y 6307.12,Z 110.62,A -151.658,B -33.721,C 93.006,S 2,T 35,E1 -1600,E2 0,E3 0,E4 0,E5 0,E6 0}
DECL E6POS XP5_s13r0102o={X 689.93,Y 6388.12,Z 106.53,A -151.833,B -36.407,C -86.894,S 2,T 35,E1 -1600,E2 0,E3 0,E4 0,E5 0,E6 0}
DECL E6POS XC_s13r0102o_5={X 665.69,Y 6330.36,Z 261.96,A -151.833,B -36.407,C -86.894,S 2,T 35,E1 -1600,E2 0,E3 0,E4 0,E5 0,E6 0}
DECL E6POS XC_s13r0102o_10={X 525.56,Y 6249.42,Z 261.16,A -151.833,B -36.407,C -86.894,S 2,T 35,E1 -1600,E2 0,E3 0,E4 0,E5 0,E6 0}
DECL E6POS XP10_s13r0102o={X 438.99,Y 6242.93,Z 128.22,A -151.833,B -36.407,C -86.894,S 2,T 35,E1 -1600,E2 0,E3 0,E4 0,E5 0,E6 0}
DECL E6POS XP5_s12r0506u={X 4078.86,Y 7960.35,Z 204.41,A -151.833,B -36.407,C 93.107,S 2,T 35,E1 -5750,E2 0,E3 0,E4 0,E5 0,E6 0}
DECL E6POS XC_s12r0506u_5={X 4144.49,Y 8051.57,Z 354.93,A -151.833,B -36.407,C 93.107,S 2,T 35,E1 -5750,E2 0,E3 0,E4 0,E5 0,E6 0}
DECL E6POS XC_s12r0506u_10={X 4291.76,Y 8136.48,Z 352.92,A -151.833,B -36.407,C 93.107,S 2,T 35,E1 -5750,E2 0,E3 0,E4 0,E5 0,E6 0}
DECL E6POS XP10_s12r0506u={X 4362.29,Y 8125.19,Z 201.41,A -151.833,B -36.407,C 93.107,S 2,T 35,E1 -5750,E2 0,E3 0,E4 0,E5 0,E6 0}
DECL E6POS XP5_s12r0506o={X 4305,Y 8200.03,Z 165.26,A -151.833,B -36.407,C -86.894,S 2,T 35,E1 -5750,E2 0,E3 0,E4 0,E5 0,E6 0}
DECL E6POS XC_s12r0506o_5={X 4285.67,Y 8147.03,Z 352.39,A -151.833,B -36.407,C -86.894,S 2,T 35,E1 -5750,E2 0,E3 0,E4 0,E5 0,E6 0}
DECL E6POS XC_s12r0506o_10={X 4138.4,Y 8062.12,Z 354.4,A -151.833,B -36.407,C -86.894,S 2,T 35,E1 -5750,E2 0,E3 0,E4 0,E5 0,E6 0}
DECL E6POS XP10_s12r0506o={X 4036.94,Y 8042.7,Z 207.01,A -151.833,B -36.407,C -86.894,S 2,T 35,E1 -5750,E2 0,E3 0,E4 0,E5 0,E6 0}
DECL E6POS XP5_s12r0405u={X 2848.01,Y 7247.81,Z 187.05,A -151.833,B -36.407,C 93.106,S 2,T 35,E1 -3900,E2 0,E3 0,E4 0,E5 0,E6 0}
DECL E6POS XC_s12r0405u_5={X 2913.65,Y 7339.03,Z 337.57,A -151.833,B -36.407,C 93.106,S 2,T 35,E1 -4000,E2 0,E3 0,E4 0,E5 0,E6 0}
DECL E6POS XC_s12r0405u_10={X 3112.76,Y 7454.1,Z 336.3,A -151.55,B -36.419,C 93.111,S 2,T 35,E1 -4150,E2 0,E3 0,E4 0,E5 0,E6 0}
DECL E6POS XP10_s12r0405u={X 3183.32,Y 7443.15,Z 184.78,A -151.55,B -36.419,C 93.111,S 2,T 35,E1 -4200,E2 0,E3 0,E4 0,E5 0,E6 0}
DECL E6POS XP5_s12r0405o={X 3126.17,Y 7518.49,Z 178.61,A -152.116,B -36.395,C -86.899,S 2,T 35,E1 -4150,E2 0,E3 0,E4 0,E5 0,E6 0}
DECL E6POS XC_s12r0405o_5={X 3106.24,Y 7465.38,Z 335.73,A -152.116,B -36.395,C -86.899,S 2,T 35,E1 -4150,E2 0,E3 0,E4 0,E5 0,E6 0}
DECL E6POS XC_s12r0405o_10={X 2906.98,Y 7350.57,Z 336.99,A -151.833,B -36.407,C -86.893,S 2,T 35,E1 -4000,E2 0,E3 0,E4 0,E5 0,E6 0}
DECL E6POS XP10_s12r0405o={X 2805.52,Y 7331.16,Z 189.6,A -151.833,B -36.407,C -86.893,S 2,T 35,E1 -3900,E2 0,E3 0,E4 0,E5 0,E6 0}
DECL E6POS XP5_s12r0102u={X 510.85,Y 5901.24,Z 179.63,A -151.658,B -33.721,C 93.006,S 2,T 35,E1 -1300,E2 0,E3 0,E4 0,E5 0,E6 0}
DECL E6POS XC_s12r0102u_5={X 555.02,Y 5975.01,Z 287.05,A -151.658,B -33.721,C 93.006,S 2,T 35,E1 -1300,E2 0,E3 0,E4 0,E5 0,E6 0}
DECL E6POS XC_s12r0102u_10={X 688.09,Y 6051.78,Z 286.18,A -151.658,B -33.721,C 93.006,S 2,T 35,E1 -1300,E2 0,E3 0,E4 0,E5 0,E6 0}
DECL E6POS XP10_s12r0102u={X 752.6,Y 6040.31,Z 173.19,A -151.658,B -33.721,C 93.006,S 2,T 35,E1 -1300,E2 0,E3 0,E4 0,E5 0,E6 0}
DECL E6POS XP5_s12r0102o={X 695.73,Y 6115.36,Z 166.48,A -151.658,B -33.721,C -86.994,S 2,T 35,E1 -1300,E2 0,E3 0,E4 0,E5 0,E6 0}
DECL E6POS XC_s12r0102o_5={X 682.25,Y 6061.89,Z 285.67,A -151.658,B -33.721,C -86.994,S 2,T 35,E1 -1300,E2 0,E3 0,E4 0,E5 0,E6 0}
DECL E6POS XC_s12r0102o_10={X 549.19,Y 5985.12,Z 286.54,A -151.658,B -33.721,C -86.994,S 2,T 35,E1 -1300,E2 0,E3 0,E4 0,E5 0,E6 0}
DECL E6POS XP10_s12r0102o={X 468.55,Y 5983.61,Z 182.44,A -151.658,B -33.721,C -86.994,S 2,T 35,E1 -1300,E2 0,E3 0,E4 0,E5 0,E6 0}
DECL E6POS XP5_s11r0708u={X 5190.63,Y 8324.46,Z 223.86,A -151.833,B -36.407,C 93.107,S 2,T 35,E1 -6200,E2 0,E3 0,E4 0,E5 0,E6 0}
DECL E6POS XC_s11r0708u_5={X 5256.27,Y 8415.69,Z 374.38,A -151.833,B -36.407,C 93.106,S 2,T 35,E1 -6300,E2 0,E3 0,E4 0,E5 0,E6 0}
DECL E6POS XC_s11r0708u_10={X 5447.69,Y 8526.12,Z 372.71,A -151.833,B -36.407,C 93.106,S 2,T 35,E1 -6400,E2 0,E3 0,E4 0,E5 0,E6 0}
DECL E6POS XP10_s11r0708u={X 5500.9,Y 8504.84,Z 221.44,A -151.833,B -36.407,C 93.106,S 2,T 35,E1 -6450,E2 0,E3 0,E4 0,E5 0,E6 0}
DECL E6POS XP5_s11r0708o={X 5452.58,Y 8584.85,Z 215.17,A -151.833,B -36.407,C -86.893,S 2,T 35,E1 -6450,E2 0,E3 0,E4 0,E5 0,E6 0}
DECL E6POS XC_s11r0708o_5={X 5441.6,Y 8536.67,Z 372.18,A -151.833,B -36.407,C -86.893,S 2,T 35,E1 -6400,E2 0,E3 0,E4 0,E5 0,E6 0}
DECL E6POS XC_s11r0708o_10={X 5258.84,Y 8431.23,Z 373.73,A -151.833,B -36.407,C -86.893,S 2,T 35,E1 -6300,E2 0,E3 0,E4 0,E5 0,E6 0}
DECL E6POS XP10_s11r0708o={X 5187.73,Y 8440.51,Z 226.31,A -151.833,B -36.407,C -86.893,S 2,T 35,E1 -6200,E2 0,E3 0,E4 0,E5 0,E6 0}
DECL E6POS XP5_s11r0607o={X 5187.72,Y 8440.5,Z 226.32,A -151.833,B -36.407,C -86.893,S 2,T 35,E1 -6200,E2 0,E3 0,E4 0,E5 0,E6 0}
DECL E6POS XC_s11r0607o_5={X 5114.96,Y 8348.11,Z 374.38,A -150.631,B -36.442,C -89.006,S 2,T 35,E1 -6050,E2 0,E3 0,E4 0,E5 0,E6 0}
DECL E6POS XC_s11r0607o_10={X 4490.88,Y 7987.53,Z 371.78,A -150.631,B -36.442,C -89.006,S 2,T 35,E1 -5450,E2 0,E3 0,E4 0,E5 0,E6 0}
DECL E6POS XP10_s11r0607o={X 4439.21,Y 8001.96,Z 224.75,A -150.631,B -36.442,C -89.006,S 2,T 35,E1 -5400,E2 0,E3 0,E4 0,E5 0,E6 0}
DECL E6POS XP5_s11r0102u={X 562.09,Y 5652.89,Z 201.99,A -151.658,B -33.721,C 93.006,S 2,T 35,E1 -1300,E2 0,E3 0,E4 0,E5 0,E6 0}
DECL E6POS XC_s11r0102u_5={X 606.26,Y 5726.67,Z 309.41,A -151.658,B -33.721,C 93.006,S 2,T 35,E1 -1300,E2 0,E3 0,E4 0,E5 0,E6 0}
DECL E6POS XC_s11r0102u_10={X 739.32,Y 5803.44,Z 308.53,A -151.658,B -33.721,C 93.006,S 2,T 35,E1 -1300,E2 0,E3 0,E4 0,E5 0,E6 0}
DECL E6POS XP10_s11r0102u={X 803.84,Y 5791.97,Z 195.55,A -151.658,B -33.721,C 93.006,S 2,T 35,E1 -1300,E2 0,E3 0,E4 0,E5 0,E6 0}
DECL E6POS XP5_s11r0102o={X 746.97,Y 5867.02,Z 188.84,A -151.658,B -33.721,C -86.994,S 2,T 35,E1 -1300,E2 0,E3 0,E4 0,E5 0,E6 0}
DECL E6POS XC_s11r0102o_5={X 733.48,Y 5813.55,Z 308.02,A -151.658,B -33.721,C -86.994,S 2,T 35,E1 -1300,E2 0,E3 0,E4 0,E5 0,E6 0}
DECL E6POS XC_s11r0102o_10={X 600.42,Y 5736.77,Z 308.9,A -151.658,B -33.721,C -86.994,S 2,T 35,E1 -1300,E2 0,E3 0,E4 0,E5 0,E6 0}
DECL E6POS XP10_s11r0102o={X 519.79,Y 5735.26,Z 204.79,A -151.658,B -33.721,C -86.994,S 2,T 35,E1 -1300,E2 0,E3 0,E4 0,E5 0,E6 0}
DECL E6POS XP5_s10r0708u={X 5286.88,Y 8100.35,Z 244.18,A -151.833,B -36.407,C 93.106,S 2,T 35,E1 -6150,E2 0,E3 0,E4 0,E5 0,E6 0}
DECL E6POS XC_s10r0708u_5={X 5361.17,Y 8196.56,Z 394.58,A -151.833,B -36.407,C 93.106,S 2,T 35,E1 -6250,E2 0,E3 0,E4 0,E5 0,E6 0}
DECL E6POS XC_s10r0708u_10={X 5587.93,Y 8327.82,Z 393.3,A -151.548,B -36.42,C 93.108,S 2,T 35,E1 -6400,E2 0,E3 0,E4 0,E5 0,E6 0}
DECL E6POS XP10_s10r0708u={X 5670.65,Y 8321.31,Z 218.1,A -151.548,B -36.42,C 93.108,S 2,T 35,E1 -6470,E2 0,E3 0,E4 0,E5 0,E6 0}
DECL E6POS XP5_s10r0708o={X 5609.17,Y 8398.61,Z 235.41,A -152.118,B -36.395,C -86.895,S 2,T 35,E1 -6450,E2 0,E3 0,E4 0,E5 0,E6 0}
DECL E6POS XC_s10r0708o_5={X 5597.91,Y 8350.52,Z 392.42,A -152.118,B -36.395,C -86.895,S 2,T 35,E1 -6450,E2 0,E3 0,E4 0,E5 0,E6 0}
DECL E6POS XC_s10r0708o_10={X 5344.83,Y 8204.86,Z 394.03,A -151.833,B -36.407,C -86.892,S 2,T 35,E1 -6250,E2 0,E3 0,E4 0,E5 0,E6 0}
DECL E6POS XP10_s10r0708o={X 5243.37,Y 8185.44,Z 246.63,A -151.833,B -36.407,C -86.892,S 2,T 35,E1 -6150,E2 0,E3 0,E4 0,E5 0,E6 0}
DECL E6POS XP5_s10r0102o={X 941.77,Y 5701.95,Z 214.55,A -151.658,B -33.721,C -86.994,S 2,T 35,E1 -1300,E2 0,E3 0,E4 0,E5 0,E6 0}
DECL E6POS XC_s10r0102o_5={X 928.29,Y 5648.47,Z 333.73,A -151.658,B -33.721,C -86.994,S 2,T 35,E1 -1300,E2 0,E3 0,E4 0,E5 0,E6 0}
DECL E6POS XC_s10r0102o_10={X 735.46,Y 5536.98,Z 330.68,A -151.658,B -33.721,C -86.994,S 2,T 35,E1 -1300,E2 0,E3 0,E4 0,E5 0,E6 0}
DECL E6POS XP10_s10r0102o={X 654.83,Y 5535.47,Z 226.58,A -151.658,B -33.721,C -86.994,S 2,T 35,E1 -1300,E2 0,E3 0,E4 0,E5 0,E6 0}
DECL E6POS XP5_s09r0708u={X 5447.07,Y 7917.36,Z 266.26,A -151.834,B -36.407,C 93.107,S 2,T 35,E1 -6150,E2 0,E3 0,E4 0,E5 0,E6 0}
DECL E6POS XC_s09r0708u_5={X 5488.17,Y 7992.38,Z 406.6,A -151.834,B -36.407,C 93.107,S 2,T 35,E1 -6250,E2 0,E3 0,E4 0,E5 0,E6 0}
DECL E6POS XC_s09r0708u_10={X 5635.44,Y 8077.29,Z 404.59,A -151.834,B -36.407,C 93.107,S 2,T 35,E1 -6320,E2 0,E3 0,E4 0,E5 0,E6 0}
DECL E6POS XP10_s09r0708u={X 5688.64,Y 8056.01,Z 253.32,A -151.834,B -36.407,C 93.107,S 2,T 35,E1 -6370,E2 0,E3 0,E4 0,E5 0,E6 0}
DECL E6POS XP5_s09r0708o={X 5656.47,Y 8147.83,Z 236.71,A -151.834,B -36.407,C -86.893,S 2,T 35,E1 -6370,E2 0,E3 0,E4 0,E5 0,E6 0}
DECL E6POS XC_s09r0708o_5={X 5636.93,Y 8094.71,Z 403.84,A -151.834,B -36.407,C -86.893,S 2,T 35,E1 -6320,E2 0,E3 0,E4 0,E5 0,E6 0}
DECL E6POS XC_s09r0708o_10={X 5489.66,Y 8009.8,Z 405.85,A -151.834,B -36.407,C -86.893,S 2,T 35,E1 -6250,E2 0,E3 0,E4 0,E5 0,E6 0}
DECL E6POS XP10_s09r0708o={X 5379.54,Y 7985.39,Z 258.58,A -151.834,B -36.407,C -86.893,S 2,T 35,E1 -6150,E2 0,E3 0,E4 0,E5 0,E6 0}
DECL E6POS XP5_s09r0304u={X 2539.89,Y 6238.09,Z 242.27,A -151.833,B -36.407,C 93.107,S 2,T 35,E1 -3200,E2 0,E3 0,E4 0,E5 0,E6 0}
DECL E6POS XC_s09r0304u_5={X 2589.65,Y 6318.1,Z 382.49,A -151.833,B -36.407,C 93.107,S 2,T 35,E1 -3300,E2 0,E3 0,E4 0,E5 0,E6 0}
DECL E6POS XC_s09r0304u_10={X 2917.73,Y 6507.59,Z 382.98,A -151.833,B -36.407,C 93.106,S 2,T 35,E1 -3600,E2 0,E3 0,E4 0,E5 0,E6 0}
DECL E6POS XP10_s09r0304u={X 2970.94,Y 6486.31,Z 231.72,A -151.833,B -36.407,C 93.106,S 2,T 35,E1 -3600,E2 0,E3 0,E4 0,E5 0,E6 0}
DECL E6POS XP5_s09r0203o={X 1686.07,Y 5851.09,Z 207,A -151.833,B -36.407,C -86.894,S 2,T 35,E1 -2100,E2 0,E3 0,E4 0,E5 0,E6 0}
DECL E6POS XC_s09r0203o_5={X 1657.77,Y 5792.92,Z 364.25,A -151.833,B -36.407,C -86.894,S 2,T 35,E1 -2100,E2 0,E3 0,E4 0,E5 0,E6 0}
DECL E6POS XC_s09r0203o_10={X 1301.88,Y 5587.34,Z 363.18,A -151.833,B -36.407,C -86.894,S 2,T 35,E1 -1800,E2 0,E3 0,E4 0,E5 0,E6 0}
DECL E6POS XP10_s09r0203o={X 1191.76,Y 5562.93,Z 215.91,A -151.833,B -36.407,C -86.894,S 2,T 35,E1 -1700,E2 0,E3 0,E4 0,E5 0,E6 0}
DECL E6POS XP5_s08r0708u={X 5567.65,Y 7708.97,Z 277.34,A -151.547,B -36.42,C 93.107,S 2,T 35,E1 -6150,E2 0,E3 0,E4 0,E5 0,E6 0}
DECL E6POS XC_s08r0708u_5={X 5617.02,Y 7789.25,Z 417.54,A -151.547,B -36.42,C 93.107,S 2,T 35,E1 -6250,E2 0,E3 0,E4 0,E5 0,E6 0}
DECL E6POS XC_s08r0708u_10={X 5755.63,Y 7869.16,Z 415.65,A -151.547,B -36.42,C 93.107,S 2,T 35,E1 -6320,E2 0,E3 0,E4 0,E5 0,E6 0}
DECL E6POS XP10_s08r0708u={X 5808.88,Y 7848.22,Z 264.37,A -151.547,B -36.42,C 93.107,S 2,T 35,E1 -6370,E2 0,E3 0,E4 0,E5 0,E6 0}
DECL E6POS XP5_s08r0708o={X 5751.43,Y 7924.03,Z 258.17,A -152.119,B -36.395,C -86.894,S 2,T 35,E1 -6370,E2 0,E3 0,E4 0,E5 0,E6 0}
DECL E6POS XC_s08r0708o_5={X 5740.17,Y 7875.94,Z 415.17,A -152.119,B -36.395,C -86.894,S 2,T 35,E1 -6320,E2 0,E3 0,E4 0,E5 0,E6 0}
DECL E6POS XC_s08r0708o_10={X 5610.22,Y 7801.02,Z 416.95,A -152.119,B -36.395,C -86.894,S 2,T 35,E1 -6250,E2 0,E3 0,E4 0,E5 0,E6 0}
DECL E6POS XP10_s08r0708o={X 5524.52,Y 7793.42,Z 279.83,A -152.119,B -36.395,C -86.894,S 2,T 35,E1 -6150,E2 0,E3 0,E4 0,E5 0,E6 0}
DECL E6POS XP5_s08r0304u={X 2624.55,Y 6009.46,Z 257.82,A -151.833,B -36.407,C 93.107,S 2,T 35,E1 -3300,E2 0,E3 0,E4 0,E5 0,E6 0}
DECL E6POS XC_s08r0304u_5={X 2622.5,Y 6059.29,Z 400.51,A -151.833,B -36.407,C 93.107,S 2,T 35,E1 -3300,E2 0,E3 0,E4 0,E5 0,E6 0}
DECL E6POS XC_s08r0304u_10={X 2804.39,Y 6164.24,Z 399.27,A -151.833,B -36.407,C 93.107,S 2,T 35,E1 -3400,E2 0,E3 0,E4 0,E5 0,E6 0}
DECL E6POS XP10_s08r0304u={X 2866.23,Y 6147.94,Z 244.88,A -151.833,B -36.407,C 93.107,S 2,T 35,E1 -3400,E2 0,E3 0,E4 0,E5 0,E6 0}
DECL E6POS XP5_s08r0304o={X 2809.24,Y 6222.95,Z 238.73,A -151.833,B -36.407,C -86.894,S 2,T 35,E1 -3300,E2 0,E3 0,E4 0,E5 0,E6 0}
DECL E6POS XC_s08r0304o_5={X 2806.93,Y 6179.76,Z 395.62,A -151.833,B -36.407,C -86.894,S 2,T 35,E1 -3300,E2 0,E3 0,E4 0,E5 0,E6 0}
DECL E6POS XC_s08r0304o_10={X 2616.38,Y 6069.82,Z 396.98,A -151.833,B -36.407,C -86.894,S 2,T 35,E1 -3200,E2 0,E3 0,E4 0,E5 0,E6 0}
DECL E6POS XP10_s08r0304o={X 2530.69,Y 6061.78,Z 259.88,A -151.833,B -36.407,C -86.894,S 2,T 35,E1 -3200,E2 0,E3 0,E4 0,E5 0,E6 0}
DECL E6POS XP5_s08r0203u={X 1664.77,Y 5454.46,Z 246.32,A -151.833,B -36.407,C 93.107,S 2,T 35,E1 -2200,E2 0,E3 0,E4 0,E5 0,E6 0}
DECL E6POS XC_s08r0203u_5={X 1714.66,Y 5534.32,Z 389.54,A -151.833,B -36.407,C 93.107,S 2,T 35,E1 -2200,E2 0,E3 0,E4 0,E5 0,E6 0}
DECL E6POS XC_s08r0203u_10={X 1853.27,Y 5614.24,Z 387.65,A -151.833,B -36.407,C 93.107,S 2,T 35,E1 -2300,E2 0,E3 0,E4 0,E5 0,E6 0}
DECL E6POS XP10_s08r0203u={X 1906.44,Y 5592.94,Z 233.39,A -151.833,B -36.407,C 93.107,S 2,T 35,E1 -2300,E2 0,E3 0,E4 0,E5 0,E6 0}
DECL E6POS XP5_s08r0203o={X 1849.46,Y 5667.95,Z 227.25,A -151.833,B -36.407,C -86.894,S 2,T 35,E1 -2200,E2 0,E3 0,E4 0,E5 0,E6 0}
DECL E6POS XC_s08r0203o_5={X 1847.14,Y 5624.77,Z 384.14,A -151.833,B -36.407,C -86.894,S 2,T 35,E1 -2200,E2 0,E3 0,E4 0,E5 0,E6 0}
DECL E6POS XC_s08r0203o_10={X 1708.53,Y 5544.85,Z 386.04,A -151.833,B -36.407,C -86.894,S 2,T 35,E1 -2200,E2 0,E3 0,E4 0,E5 0,E6 0}
DECL E6POS XP10_s08r0203o={X 1622.85,Y 5536.81,Z 248.94,A -151.833,B -36.407,C -86.894,S 2,T 35,E1 -2200,E2 0,E3 0,E4 0,E5 0,E6 0}
DECL E6POS XP5_s07r0910o={X 7145.04,Y 8459.38,Z 100.67,A -151.908,B -39.41,C -86.77,S 2,T 35,E1 -8050,E2 0,E3 0,E4 0,E5 0,E6 0}
DECL E6POS XP10_s07r0910o={X 7710.4,Y 8777.07,Z 242.15,A -151.833,B -36.407,C -86.894,S 2,T 35,E1 -8650,E2 0,E3 0,E4 0,E5 0,E6 0}
DECL E6POS XC_s07r0910o_5={X 7760.06,Y 8763.87,Z 400.33,A -151.833,B -36.407,C -86.894,S 2,T 35,E1 -8650,E2 0,E3 0,E4 0,E5 0,E6 0}
DECL E6POS XC_s07r0910o_10={X 7348.9,Y 8526.67,Z 405.23,A -151.833,B -36.407,C -86.893,S 2,T 35,E1 -8250,E2 0,E3 0,E4 0,E5 0,E6 0}
DECL E6POS XP15_s07r0910o={X 7234.48,Y 8510.97,Z 258.39,A -151.833,B -36.407,C -86.893,S 2,T 35,E1 -8150,E2 0,E3 0,E4 0,E5 0,E6 0}
DECL E6POS XP20_s07r0910o={X 7145.04,Y 8459.38,Z 100.67,A -151.908,B -39.41,C -86.77,S 2,T 35,E1 -8050,E2 0,E3 0,E4 0,E5 0,E6 0}
DECL E6POS XP5_s07r0809o={X 7145.04,Y 8459.38,Z 100.67,A -151.908,B -39.41,C -86.77,S 2,T 35,E1 -7900,E2 0,E3 0,E4 0,E5 0,E6 0}
DECL E6POS XC_s07r0809o_5={X 7139.17,Y 8405.49,Z 411.39,A -150.631,B -36.442,C -89.006,S 2,T 35,E1 -7820,E2 0,E3 0,E4 0,E5 0,E6 0}
DECL E6POS XC_s07r0809o_10={X 6457.17,Y 8011.91,Z 417.62,A -150.631,B -36.442,C -89.006,S 2,T 35,E1 -7140,E2 0,E3 0,E4 0,E5 0,E6 0}
DECL E6POS XP10_s07r0809o={X 6383.89,Y 8025.04,Z 271.55,A -150.631,B -36.442,C -89.006,S 2,T 35,E1 -7040,E2 0,E3 0,E4 0,E5 0,E6 0}
DECL E6POS XP5_s07r0708o={X 6383.89,Y 8025.04,Z 271.55,A -150.631,B -36.442,C -89.006,S 2,T 35,E1 -7040,E2 0,E3 0,E4 0,E5 0,E6 0}
DECL E6POS XC_s07r0708o_5={X 6301.22,Y 7921.4,Z 422.43,A -150.631,B -36.442,C -89.006,S 2,T 35,E1 -6900,E2 0,E3 0,E4 0,E5 0,E6 0}
DECL E6POS XC_s07r0708o_10={X 5804.68,Y 7634.6,Z 425.7,A -152.12,B -36.403,C -86.892,S 2,T 35,E1 -6400,E2 0,E3 0,E4 0,E5 0,E6 0}
DECL E6POS XP10_s07r0708o={X 5718.62,Y 7626.79,Z 254.6,A -152.12,B -36.403,C -86.892,S 2,T 35,E1 -6330,E2 0,E3 0,E4 0,E5 0,E6 0}
DECL E6POS XP5_s07r0607u={X 4790.69,Y 6983.41,Z 283.12,A -151.833,B -36.407,C 93.107,S 2,T 35,E1 -5250,E2 0,E3 0,E4 0,E5 0,E6 0}
DECL E6POS XC_s07r0607u_5={X 4831.79,Y 7058.43,Z 423.46,A -151.833,B -36.407,C 93.107,S 2,T 35,E1 -5250,E2 0,E3 0,E4 0,E5 0,E6 0}
DECL E6POS XC_s07r0607u_10={X 4970.4,Y 7138.35,Z 421.57,A -151.833,B -36.407,C 93.107,S 2,T 35,E1 -5250,E2 0,E3 0,E4 0,E5 0,E6 0}
DECL E6POS XP10_s07r0607u={X 5032.26,Y 7122.06,Z 270.18,A -151.833,B -36.407,C 93.107,S 2,T 35,E1 -5250,E2 0,E3 0,E4 0,E5 0,E6 0}
DECL E6POS XP5_s07r0607o={X 4931.99,Y 7172.06,Z 264.01,A -151.833,B -36.407,C -86.893,S 2,T 35,E1 -5250,E2 0,E3 0,E4 0,E5 0,E6 0}
DECL E6POS XC_s07r0607o_5={X 4921.01,Y 7123.88,Z 421.01,A -151.833,B -36.407,C -86.893,S 2,T 35,E1 -5250,E2 0,E3 0,E4 0,E5 0,E6 0}
DECL E6POS XC_s07r0607o_10={X 4791.06,Y 7048.96,Z 422.79,A -151.833,B -36.407,C -86.893,S 2,T 35,E1 -5250,E2 0,E3 0,E4 0,E5 0,E6 0}
DECL E6POS XP10_s07r0607o={X 4719.96,Y 7058.23,Z 275.36,A -151.833,B -36.407,C -86.893,S 2,T 35,E1 -5250,E2 0,E3 0,E4 0,E5 0,E6 0}
DECL E6POS XP5_s07r0506o={X 4719.95,Y 7058.23,Z 275.36,A -151.833,B -36.407,C -86.893,S 2,T 35,E1 -5250,E2 0,E3 0,E4 0,E5 0,E6 0}
DECL E6POS XC_s07r0506o_5={X 4709.39,Y 7001.48,Z 421.97,A -150.631,B -36.442,C -89.006,S 2,T 35,E1 -5200,E2 0,E3 0,E4 0,E5 0,E6 0}
DECL E6POS XC_s07r0506o_10={X 3980.24,Y 6580.28,Z 422.21,A -150.631,B -36.442,C -89.006,S 2,T 35,E1 -4500,E2 0,E3 0,E4 0,E5 0,E6 0}
DECL E6POS XP10_s07r0506o={X 3906.96,Y 6593.41,Z 276.14,A -150.631,B -36.442,C -89.006,S 2,T 35,E1 -4500,E2 0,E3 0,E4 0,E5 0,E6 0}
DECL E6POS XP5_s07r0405o={X 3906.96,Y 6593.41,Z 276.15,A -150.631,B -36.442,C -89.006,S 2,T 35,E1 -4600,E2 0,E3 0,E4 0,E5 0,E6 0}
DECL E6POS XC_s07r0405o_5={X 3857.02,Y 6508.46,Z 424.37,A -151.548,B -36.42,C -86.892,S 2,T 35,E1 -4500,E2 0,E3 0,E4 0,E5 0,E6 0}
DECL E6POS XC_s07r0405o_10={X 3190.61,Y 6123.86,Z 422.91,A -152.118,B -36.395,C -86.896,S 2,T 35,E1 -3800,E2 0,E3 0,E4 0,E5 0,E6 0}
DECL E6POS XP10_s07r0405o={X 3119.46,Y 6133.73,Z 275.46,A -152.118,B -36.395,C -86.896,S 2,T 35,E1 -3700,E2 0,E3 0,E4 0,E5 0,E6 0}
DECL E6POS XP5_s07r0304o={X 3119.46,Y 6133.73,Z 275.46,A -152.118,B -36.395,C -86.896,S 2,T 35,E1 -3700,E2 0,E3 0,E4 0,E5 0,E6 0}
DECL E6POS XC_s07r0304o_5={X 3062.06,Y 6049.48,Z 412.25,A -151.833,B -36.407,C -86.893,S 2,T 35,E1 -3600,E2 0,E3 0,E4 0,E5 0,E6 0}
DECL E6POS XC_s07r0304o_10={X 2212.2,Y 5558.37,Z 407.42,A -151.833,B -36.407,C -86.893,S 2,T 35,E1 -2700,E2 0,E3 0,E4 0,E5 0,E6 0}
DECL E6POS XP10_s07r0304o={X 2141.07,Y 5567.62,Z 256.99,A -151.833,B -36.407,C -86.893,S 2,T 35,E1 -2600,E2 0,E3 0,E4 0,E5 0,E6 0}
DECL E6POS XP5_s07r0203o={X 2141.07,Y 5567.63,Z 256.99,A -151.833,B -36.407,C -86.893,S 2,T 35,E1 -2600,E2 0,E3 0,E4 0,E5 0,E6 0}
DECL E6POS XC_s07r0203o_5={X 2038.79,Y 5457.96,Z 400.86,A -151.833,B -36.407,C -86.894,S 2,T 35,E1 -2400,E2 0,E3 0,E4 0,E5 0,E6 0}
DECL E6POS XC_s07r0203o_10={X 1856.02,Y 5352.53,Z 402.52,A -151.833,B -36.407,C -86.894,S 2,T 35,E1 -2300,E2 0,E3 0,E4 0,E5 0,E6 0}
DECL E6POS XP10_s07r0203o={X 1775.21,Y 5331.84,Z 61.35,A -151.834,B -36.408,C -86.89,S 2,T 35,E1 -2200,E2 0,E3 0,E4 0,E5 0,E6 0}
DECL E6POS XP5_s06r0607u={X 4864.38,Y 6748.12,Z 288.49,A -151.833,B -36.407,C 93.107,S 2,T 35,E1 -5250,E2 0,E3 0,E4 0,E5 0,E6 0}
DECL E6POS XC_s06r0607u_5={X 4914.14,Y 6828.14,Z 428.7,A -151.833,B -36.407,C 93.107,S 2,T 35,E1 -5250,E2 0,E3 0,E4 0,E5 0,E6 0}
DECL E6POS XC_s06r0607u_10={X 5061.41,Y 6913.05,Z 426.69,A -151.833,B -36.407,C 93.107,S 2,T 35,E1 -5250,E2 0,E3 0,E4 0,E5 0,E6 0}
DECL E6POS XP10_s06r0607u={X 5105.96,Y 6886.77,Z 275.54,A -151.833,B -36.407,C 93.107,S 2,T 35,E1 -5250,E2 0,E3 0,E4 0,E5 0,E6 0}
DECL E6POS XP5_s06r0607o={X 5048.98,Y 6961.78,Z 269.36,A -151.833,B -36.407,C -86.894,S 2,T 35,E1 -5250,E2 0,E3 0,E4 0,E5 0,E6 0}
DECL E6POS XC_s06r0607o_5={X 5046.65,Y 6918.59,Z 426.26,A -151.833,B -36.407,C -86.894,S 2,T 35,E1 -5250,E2 0,E3 0,E4 0,E5 0,E6 0}
DECL E6POS XC_s06r0607o_10={X 4899.38,Y 6833.68,Z 428.27,A -151.833,B -36.407,C -86.894,S 2,T 35,E1 -5250,E2 0,E3 0,E4 0,E5 0,E6 0}
DECL E6POS XP10_s06r0607o={X 4822.36,Y 6830.64,Z 291.06,A -151.833,B -36.407,C -86.894,S 2,T 35,E1 -5250,E2 0,E3 0,E4 0,E5 0,E6 0}
DECL E6POS XP5_s05r0607u={X 4989.37,Y 6542.61,Z 286.43,A -151.658,B -33.721,C 93.006,S 2,T 35,E1 -5250,E2 0,E3 0,E4 0,E5 0,E6 0}
DECL E6POS XC_s05r0607u_5={X 5025.76,Y 6615.1,Z 430.52,A -151.658,B -33.721,C 93.006,S 2,T 35,E1 -5250,E2 0,E3 0,E4 0,E5 0,E6 0}
DECL E6POS XC_s05r0607u_10={X 5173.03,Y 6700.01,Z 428.51,A -151.658,B -33.721,C 93.006,S 2,T 35,E1 -5250,E2 0,E3 0,E4 0,E5 0,E6 0}
DECL E6POS XP10_s05r0607u={X 5231.13,Y 6681.7,Z 279.99,A -151.658,B -33.721,C 93.006,S 2,T 35,E1 -5250,E2 0,E3 0,E4 0,E5 0,E6 0}
DECL E6POS XP5_s05r0607o={X 5169.51,Y 6753.31,Z 271.09,A -151.833,B -36.407,C -86.894,S 2,T 35,E1 -5250,E2 0,E3 0,E4 0,E5 0,E6 0}
DECL E6POS XC_s05r0607o_5={X 5175.85,Y 6715.12,Z 427.86,A -151.833,B -36.407,C -86.894,S 2,T 35,E1 -5250,E2 0,E3 0,E4 0,E5 0,E6 0}
DECL E6POS XC_s05r0607o_10={X 5028.58,Y 6630.21,Z 429.88,A -151.833,B -36.407,C -86.894,S 2,T 35,E1 -5250,E2 0,E3 0,E4 0,E5 0,E6 0}
DECL E6POS XP10_s05r0607o={X 4942.89,Y 6622.17,Z 292.78,A -151.833,B -36.407,C -86.894,S 2,T 35,E1 -5250,E2 0,E3 0,E4 0,E5 0,E6 0}
DECL E6POS XP5_s05r0102u={X 455.86,Y 3923.04,Z 270.33,A -151.658,B -33.721,C 93.006,S 2,T 35,E1 -200,E2 0,E3 0,E4 0,E5 0,E6 0}
DECL E6POS XC_s05r0102u_5={X 483.58,Y 3990.53,Z 414.54,A -151.658,B -33.721,C 93.006,S 2,T 35,E1 -200,E2 0,E3 0,E4 0,E5 0,E6 0}
DECL E6POS XC_s05r0102u_10={X 665.47,Y 4095.48,Z 413.22,A -151.658,B -33.721,C 93.006,S 2,T 35,E1 -300,E2 0,E3 0,E4 0,E5 0,E6 0}
DECL E6POS XP10_s05r0102u={X 714.9,Y 4072.17,Z 264.82,A -151.658,B -33.721,C 93.006,S 2,T 35,E1 -300,E2 0,E3 0,E4 0,E5 0,E6 0}
DECL E6POS XP5_s05r0102o={X 670.6,Y 4153.76,Z 255.7,A -151.833,B -36.407,C -86.894,S 2,T 35,E1 -300,E2 0,E3 0,E4 0,E5 0,E6 0}
DECL E6POS XC_s05r0102o_5={X 676.95,Y 4115.57,Z 412.47,A -151.833,B -36.407,C -86.894,S 2,T 35,E1 -300,E2 0,E3 0,E4 0,E5 0,E6 0}
DECL E6POS XC_s05r0102o_10={X 275.94,Y 3883.97,Z 411.99,A -151.833,B -36.407,C -86.893,S 2,T 35,E1 100,E2 0,E3 0,E4 0,E5 0,E6 0}
DECL E6POS XP10_s05r0102o={X 190.25,Y 3875.93,Z 274.9,A -151.833,B -36.407,C -86.893,S 2,T 35,E1 150,E2 0,E3 0,E4 0,E5 0,E6 0}
DECL E6POS XP5_s04r0607u={X 5072.62,Y 6313.08,Z 316.4,A -151.658,B -33.721,C 93.005,S 2,T 35,E1 -5250,E2 0,E3 0,E4 0,E5 0,E6 0}
DECL E6POS XC_s04r0607u_5={X 5117.35,Y 6390.38,Z 430.38,A -151.658,B -33.721,C 93.005,S 2,T 35,E1 -5250,E2 0,E3 0,E4 0,E5 0,E6 0}
DECL E6POS XC_s04r0607u_10={X 5307.93,Y 6500.28,Z 428.05,A -151.658,B -33.721,C 93.005,S 2,T 35,E1 -5250,E2 0,E3 0,E4 0,E5 0,E6 0}
DECL E6POS XP10_s04r0607u={X 5366.34,Y 6482.15,Z 309.53,A -151.658,B -33.721,C 93.005,S 2,T 35,E1 -5250,E2 0,E3 0,E4 0,E5 0,E6 0}
DECL E6POS XP5_s04r0607o={X 5309.72,Y 6556.75,Z 302.83,A -151.658,B -33.721,C -86.994,S 2,T 35,E1 -5250,E2 0,E3 0,E4 0,E5 0,E6 0}
DECL E6POS XC_s04r0607o_5={X 5293.43,Y 6505.39,Z 427.64,A -151.658,B -33.721,C -86.994,S 2,T 35,E1 -5250,E2 0,E3 0,E4 0,E5 0,E6 0}
DECL E6POS XC_s04r0607o_10={X 5111.52,Y 6400.49,Z 429.85,A -151.658,B -33.721,C -86.994,S 2,T 35,E1 -5250,E2 0,E3 0,E4 0,E5 0,E6 0}
DECL E6POS XP10_s04r0607o={X 5030.57,Y 6395.01,Z 319.21,A -151.658,B -33.721,C -86.994,S 2,T 35,E1 -5250,E2 0,E3 0,E4 0,E5 0,E6 0}
DECL E6POS XP5_s04r0203u={X 1182.67,Y 3998.87,Z 282.28,A -151.63,B -33.761,C 92.96,S 2,T 35,E1 -867.5,E2 0,E3 0,E4 0,E5 0,E6 0}
DECL E6POS XC_s04r0203u_5={X 1216.92,Y 4143.66,Z 442.9,A -151.637,B -33.763,C 92.955,S 2,T 35,E1 -867.5,E2 0,E3 0,E4 0,E5 0,E6 0}
DECL E6POS XC_s04r0203u_10={X 2091.17,Y 4647.76,Z 447.12,A -151.705,B -33.762,C 94.539,S 2,T 35,E1 -1897.4,E2 0,E3 0,E4 0,E5 0,E6 0}
DECL E6POS XP10_s04r0203u={X 2162.98,Y 4615.35,Z 263.22,A -151.706,B -33.761,C 94.541,S 2,T 35,E1 -1897.4,E2 0,E3 0,E4 0,E5 0,E6 0}
DECL E6POS XP5_s04r0102o={X 888.64,Y 4003.08,Z 305.58,A -151.658,B -33.721,C -86.994,S 2,T 35,E1 -300,E2 0,E3 0,E4 0,E5 0,E6 0}
DECL E6POS XC_s04r0102o_5={X 863.68,Y 3946.73,Z 430.52,A -151.658,B -33.721,C -86.994,S 2,T 35,E1 -300,E2 0,E3 0,E4 0,E5 0,E6 0}
DECL E6POS XC_s04r0102o_10={X 675.62,Y 3838.19,Z 431.22,A -151.658,B -33.721,C -86.994,S 2,T 35,E1 -200,E2 0,E3 0,E4 0,E5 0,E6 0}
DECL E6POS XP10_s04r0102o={X 594.67,Y 3832.71,Z 320.58,A -151.658,B -33.721,C -86.994,S 2,T 35,E1 -100,E2 0,E3 0,E4 0,E5 0,E6 0}
DECL E6POS XP5_s03r0607o={X 5293.55,Y 6279.06,Z 316.3,A -151.658,B -33.721,C -86.994,S 2,T 35,E1 -5250,E2 0,E3 0,E4 0,E5 0,E6 0}
DECL E6POS XC_s03r0607o_5={X 5284.48,Y 6233.19,Z 427.25,A -151.658,B -33.721,C -86.994,S 2,T 35,E1 -5250,E2 0,E3 0,E4 0,E5 0,E6 0}
DECL E6POS XC_s03r0607o_10={X 5114.83,Y 6135.38,Z 429.99,A -151.658,B -33.721,C -86.994,S 2,T 35,E1 -5250,E2 0,E3 0,E4 0,E5 0,E6 0}
DECL E6POS XP10_s03r0607o={X 5077.97,Y 6154.74,Z 319.68,A -151.658,B -33.721,C -86.994,S 2,T 35,E1 -5250,E2 0,E3 0,E4 0,E5 0,E6 0}
DECL E6POS XP5_s03r0506o={X 4734.07,Y 5956.27,Z 323.8,A -151.658,B -33.721,C -86.994,S 2,T 35,E1 -4850,E2 0,E3 0,E4 0,E5 0,E6 0}
DECL E6POS XC_s03r0506o_5={X 4742.59,Y 5920.53,Z 434.51,A -151.658,B -33.721,C -86.994,S 2,T 35,E1 -4850,E2 0,E3 0,E4 0,E5 0,E6 0}
DECL E6POS XC_s03r0506o_10={X 4262.84,Y 5643.62,Z 437.83,A -150.574,B -33.741,C -89.039,S 2,T 35,E1 -4400,E2 0,E3 0,E4 0,E5 0,E6 0}
DECL E6POS XP10_s03r0506o={X 4200.36,Y 5663.04,Z 295.19,A -150.574,B -33.741,C -89.039,S 2,T 35,E1 -4400,E2 0,E3 0,E4 0,E5 0,E6 0}
DECL E6POS XP5_s03r0405o={X 4200.35,Y 5663.03,Z 295.21,A -150.575,B -33.741,C -89.039,S 2,T 35,E1 -4400,E2 0,E3 0,E4 0,E5 0,E6 0}
DECL E6POS XC_s03r0405o_5={X 4154.25,Y 5580.74,Z 435.73,A -151.658,B -33.721,C -86.994,S 2,T 35,E1 -4300,E2 0,E3 0,E4 0,E5 0,E6 0}
DECL E6POS XC_s03r0405o_10={X 3416.77,Y 5155.05,Z 440.9,A -151.658,B -33.721,C -86.994,S 2,T 35,E1 -3500,E2 0,E3 0,E4 0,E5 0,E6 0}
DECL E6POS XP10_s03r0405o={X 3356.39,Y 5170.68,Z 296.93,A -151.658,B -33.721,C -86.994,S 2,T 35,E1 -3300,E2 0,E3 0,E4 0,E5 0,E6 0}
DECL E6POS XP5_s03r0304o={X 3356.39,Y 5170.68,Z 296.93,A -151.658,B -33.721,C -86.994,S 2,T 35,E1 -3300,E2 0,E3 0,E4 0,E5 0,E6 0}
DECL E6POS XC_s03r0304o_5={X 3288.89,Y 5080.93,Z 431.39,A -151.658,B -33.721,C -86.994,S 2,T 35,E1 -3200,E2 0,E3 0,E4 0,E5 0,E6 0}
DECL E6POS XC_s03r0304o_10={X 2310.28,Y 4515.92,Z 435.75,A -151.658,B -33.721,C -86.994,S 2,T 35,E1 -2200,E2 0,E3 0,E4 0,E5 0,E6 0}
DECL E6POS XP10_s03r0304o={X 2249.9,Y 4531.56,Z 291.77,A -151.658,B -33.721,C -86.994,S 2,T 35,E1 -2100,E2 0,E3 0,E4 0,E5 0,E6 0}
DECL E6POS XP5_s03r0203o={X 2249.9,Y 4531.56,Z 291.78,A -151.658,B -33.721,C -86.994,S 2,T 35,E1 -2100,E2 0,E3 0,E4 0,E5 0,E6 0}
DECL E6POS XC_s03r0203o_5={X 2161.31,Y 4429.81,Z 438.71,A -151.372,B -33.734,C -86.994,S 2,T 35,E1 -1900,E2 0,E3 0,E4 0,E5 0,E6 0}
DECL E6POS XC_s03r0203o_10={X 1362.57,Y 3968.42,Z 440.64,A -151.658,B -33.721,C -86.994,S 2,T 35,E1 -1000,E2 0,E3 0,E4 0,E5 0,E6 0}
DECL E6POS XP10_s03r0203o={X 1308.07,Y 3977.62,Z 300.57,A -151.658,B -33.721,C -86.994,S 2,T 35,E1 -900,E2 0,E3 0,E4 0,E5 0,E6 0}
DECL E6POS XP5_s02r0506u={X 4761.09,Y 5597.56,Z 274.56,A -151.658,B -33.721,C 93.006,S 2,T 33,E1 -4750,E2 0,E3 0,E4 0,E5 0,E6 0}
DECL E6POS XP10_s02r0506u={X 4740.44,Y 5622.4,Z 413.2,A -151.658,B -33.721,C 93.006,S 2,T 33,E1 -4750,E2 0,E3 0,E4 0,E5 0,E6 0}
DECL E6POS XC_s02r0506u_5={X 4753.28,Y 5659.38,Z 425.98,A -151.658,B -33.721,C 93.006,S 2,T 33,E1 -5100,E2 0,E3 0,E4 0,E5 0,E6 0}
DECL E6POS XC_s02r0506u_10={X 5048.73,Y 5827.78,Z 423.42,A -151.658,B -33.721,C 93.006,S 2,T 33,E1 -5100,E2 0,E3 0,E4 0,E5 0,E6 0}
DECL E6POS XP15_s02r0506u={X 5073.53,Y 5821.12,Z 423.76,A -151.658,B -33.721,C 93.006,S 2,T 33,E1 -5100,E2 0,E3 0,E4 0,E5 0,E6 0}
DECL E6POS XP20_s02r0506u={X 5070.11,Y 5775.83,Z 270.28,A -151.658,B -33.721,C 93.006,S 2,T 33,E1 -5100,E2 0,E3 0,E4 0,E5 0,E6 0}
DECL E6POS XP5_s02r0506o={X 4861.05,Y 5791.92,Z 265.03,A -151.658,B -33.721,C -86.994,S 2,T 35,E1 -4850,E2 0,E3 0,E4 0,E5 0,E6 0}
DECL E6POS XP10_s02r0506o={X 4895.37,Y 5776.16,Z 423.29,A -151.658,B -33.721,C -86.994,S 2,T 33,E1 -4850,E2 0,E3 0,E4 0,E5 0,E6 0}
DECL E6POS XC_s02r0506o_5={X 4888.04,Y 5748.88,Z 424.67,A -151.658,B -33.721,C -86.994,S 2,T 33,E1 -4850,E2 0,E3 0,E4 0,E5 0,E6 0}
DECL E6POS XC_s02r0506o_10={X 4749.47,Y 5669,Z 427.79,A -151.658,B -33.721,C -86.994,S 2,T 35,E1 -4850,E2 0,E3 0,E4 0,E5 0,E6 0}
DECL E6POS XP15_s02r0506o={X 4722.14,Y 5676.33,Z 427.41,A -151.658,B -33.721,C -86.994,S 2,T 35,E1 -4850,E2 0,E3 0,E4 0,E5 0,E6 0}
DECL E6POS XP20_s02r0506o={X 4671.38,Y 5675.29,Z 283.58,A -151.658,B -33.721,C -86.994,S 2,T 35,E1 -4850,E2 0,E3 0,E4 0,E5 0,E6 0}
