DECL LOCAL CONST robtarget pBU_1_10={X 2503.72,Y 1606.41,Z 2621.82,A 88.609968159,B 55.401838087,C 177.336467065,S 0,T 1,E1 9000000000,E2 9000000000,E3 9000000000,E4 9000000000,E5 9000000000,E6 9000000000}
DECL LOCAL CONST robtarget pBU_1_20={X 2503.86,Y 1614.97,Z 2609.47,A 88.60847765,B 55.401349211,C 177.336892027,S 0,T 1,E1 9000000000,E2 9000000000,E3 9000000000,E4 9000000000,E5 9000000000,E6 9000000000}
DECL LOCAL CONST robtarget pBU_1_30={X 2504.32,Y 1628.5,Z 2610.59,A 88.608993622,B 55.401068847,C 177.337459021,S 0,T 1,E1 9000000000,E2 9000000000,E3 9000000000,E4 9000000000,E5 9000000000,E6 9000000000}
DECL LOCAL CONST robtarget pBU_1_40={X 2503.87,Y 1655.77,Z 2606.7,A 88.608858523,B 55.401356903,C 177.337273648,S 0,T 1,E1 9000000000,E2 9000000000,E3 9000000000,E4 9000000000,E5 9000000000,E6 9000000000}
DECL LOCAL CONST robtarget pBU_1_50={X 2494.68,Y 1647.69,Z 2564.41,A 88.905330118,B 55.372932426,C 177.512708202,S 0,T 1,E1 9,E2 9,E3 9,E4 9,E5 9,E6 9}
DECL LOCAL CONST robtarget pBU_1_60={X 2494.74,Y 1683.59,Z 2549.3,A 90.112596229,B 52.974022563,C 178.00649308,S 0,T 1,E1 9,E2 9,E3 9,E4 9,E5 9,E6 9}
DECL LOCAL CONST robtarget pBU_1_70={X 2494.67,Y 1688.32,Z 2546.05,A 90.112596229,B 52.974022563,C 178.00649308,S 0,T 1,E1 9,E2 9,E3 9,E4 9,E5 9,E6 9}
DECL LOCAL CONST robtarget pBU_1_80={X 2494.59,Y 1692.54,Z 2543.44,A 90.112596229,B 52.974022563,C 178.00649308,S 0,T 1,E1 9,E2 9,E3 9,E4 9,E5 9,E6 9}
DECL LOCAL CONST robtarget pBU_1_90={X 2494.55,Y 1695.7,Z 2540.72,A 90.112596229,B 52.974022563,C 178.00649308,S 0,T 1,E1 9,E2 9,E3 9,E4 9,E5 9,E6 9}
DECL LOCAL CONST robtarget pBU_1_100={X 2494.48,Y 1699.79,Z 2537.18,A 90.169801632,B 51.957985665,C 178.051851078,S 0,T 1,E1 9,E2 9,E3 9,E4 9,E5 9,E6 9}
DECL LOCAL CONST robtarget pBU_1_110={X 2494.43,Y 1703.08,Z 2535.49,A 90.112596229,B 52.974022563,C 178.00649308,S 0,T 1,E1 9,E2 9,E3 9,E4 9,E5 9,E6 9}
DECL LOCAL CONST robtarget pBU_1_120={X 2493.87,Y 1707,Z 2531.82,A 90.169801632,B 51.957985665,C 178.051851078,S 0,T 1,E1 9,E2 9,E3 9,E4 9,E5 9,E6 9}
DECL LOCAL CONST robtarget pBU_1_130={X 2493.82,Y 1710.21,Z 2530.07,A 90.169801632,B 51.957985665,C 178.051851078,S 0,T 1,E1 9,E2 9,E3 9,E4 9,E5 9,E6 9}
DECL LOCAL CONST robtarget pBU_1_140={X 2493.76,Y 1714.3,Z 2526.53,A 90.169801632,B 51.957985665,C 178.051851078,S 0,T 1,E1 9,E2 9,E3 9,E4 9,E5 9,E6 9}
DECL LOCAL CONST robtarget pBU_1_150={X 2493.74,Y 1716.71,Z 2524.17,A 90.169801632,B 51.957985665,C 178.051851078,S 0,T 1,E1 9,E2 9,E3 9,E4 9,E5 9,E6 9}
DECL LOCAL CONST robtarget pBU_1_160={X 2500.87,Y 1704.13,Z 2581.78,A 88.608732414,B 55.401171022,C 177.336846459,S 0,T 1,E1 9000000000,E2 9000000000,E3 9000000000,E4 9000000000,E5 9000000000,E6 9000000000}
DECL LOCAL CONST robtarget pBU_1_170={X 2499.2,Y 1717.22,Z 2570.87,A 88.6092422,B 55.401070457,C 177.337226038,S 0,T 1,E1 9000000000,E2 9000000000,E3 9000000000,E4 9000000000,E5 9000000000,E6 9000000000}
DECL LOCAL CONST robtarget pBU_1_180={X 2493.14,Y 1727.64,Z 2513.96,A 92.880985401,B 53.944732319,C -179.340117725,S 0,T 1,E1 9,E2 9,E3 9,E4 9,E5 9,E6 9}
DECL LOCAL CONST robtarget pBU_1_190={X 2492.66,Y 1735.97,Z 2503.88,A 93.546048045,B 48.689439353,C -178.747553811,S 0,T 1,E1 9,E2 9,E3 9,E4 9,E5 9,E6 9}
DECL LOCAL CONST robtarget pBU_1_200={X 2492.46,Y 1739.35,Z 2500.21,A 93.451908333,B 48.690704152,C -178.81834212,S 0,T 1,E1 9,E2 9,E3 9,E4 9,E5 9,E6 9}
DECL LOCAL CONST robtarget pBU_1_210={X 2492.27,Y 1741.93,Z 2497.16,A 94.658285691,B 48.668024732,C -177.19860248,S 0,T 1,E1 9,E2 9,E3 9,E4 9,E5 9,E6 9}
DECL LOCAL CONST robtarget pBU_1_220={X 2491.97,Y 1745.38,Z 2492.35,A 94.834991269,B 48.663629154,C -176.963493336,S 0,T 1,E1 9,E2 9,E3 9,E4 9,E5 9,E6 9}
DECL LOCAL CONST robtarget pBU_1_230={X 2491.73,Y 1748.17,Z 2488.31,A 94.81612029,B 48.664149939,C -176.850117585,S 0,T 1,E1 9,E2 9,E3 9,E4 9,E5 9,E6 9}
DECL LOCAL CONST robtarget pBU_1_240={X 2491.48,Y 1750.88,Z 2484.23,A 95.703706041,B 48.638070631,C -175.66997985,S 0,T 1,E1 9,E2 9,E3 9,E4 9,E5 9,E6 9}
DECL LOCAL CONST robtarget pBU_1_250={X 2491.28,Y 1752.2,Z 2481.05,A 92.735224089,B 48.67619352,C -176.193648338,S 0,T 1,E1 9,E2 9,E3 9,E4 9,E5 9,E6 9}
DECL LOCAL CONST robtarget pBU_1_260={X 2499.47,Y 1737.47,Z 2550.35,A 88.609126024,B 55.400451603,C 177.336881098,S 0,T 1,E1 9000000000,E2 9000000000,E3 9000000000,E4 9000000000,E5 9000000000,E6 9000000000}
DECL LOCAL CONST robtarget pBU_1_270={X 2497.04,Y 1755.2,Z 2523.53,A 88.609128212,B 55.400269166,C 177.33670297,S 0,T 1,E1 9000000000,E2 9000000000,E3 9000000000,E4 9000000000,E5 9000000000,E6 9000000000}
DECL LOCAL CONST robtarget pBU_1_280={X 2497.53,Y 1768.36,Z 2497.41,A 88.608101152,B 55.400976642,C 177.33615415,S 0,T 1,E1 9000000000,E2 9000000000,E3 9000000000,E4 9000000000,E5 9000000000,E6 9000000000}
DECL LOCAL CONST robtarget pBU_1_290={X 2491.35,Y 1748.06,Z 2475.62,A -88.362251745,B 61.486807491,C 1.863700948,S 0,T 2,E1 9,E2 9,E3 9,E4 9,E5 9,E6 9}
DECL LOCAL CONST robtarget pBU_1_300={X 2490.82,Y 1743.11,Z 2473.73,A -89.028998639,B 45.671700639,C 1.357236962,S 0,T 2,E1 9,E2 9,E3 9,E4 9,E5 9,E6 9}
DECL LOCAL CONST robtarget pBU_1_310={X 2490.7,Y 1738.59,Z 2471.59,A -88.980154468,B 46.998078905,C 1.394446477,S 0,T 2,E1 9,E2 9,E3 9,E4 9,E5 9,E6 9}
DECL LOCAL CONST robtarget pBU_1_320={X 2490.58,Y 1734.08,Z 2469.45,A -88.634718258,B 55.133541405,C 1.6638119,S 0,T 2,E1 9,E2 9,E3 9,E4 9,E5 9,E6 9}
DECL LOCAL CONST robtarget pBU_2_10={X 2496.66,Y 1747.49,Z 2479.99,A -109.256532528,B 84.049398077,C -20.290187953,S 0,T 1,E1 9000000000,E2 9000000000,E3 9000000000,E4 9000000000,E5 9000000000,E6 9000000000}
DECL LOCAL CONST robtarget pBU_2_20={X 2494.57,Y 1738.61,Z 2465.71,A 126.494048901,B 86.418659797,C -145.100402547,S 0,T 1,E1 9000000000,E2 9000000000,E3 9000000000,E4 9000000000,E5 9000000000,E6 9000000000}
DECL LOCAL CONST robtarget pBU_2_30={X 2488.28,Y 1756.24,Z 2378.62,A 101.660322732,B 74.528627823,C -173.389056815,S 0,T 1,E1 9000000000,E2 9000000000,E3 9000000000,E4 9000000000,E5 9000000000,E6 9000000000}
DECL LOCAL CONST robtarget pBU_2_40={X 2489.03,Y 1763.68,Z 2359.93,A 101.436612977,B 74.124997375,C -169.977563015,S 0,T 1,E1 9000000000,E2 9000000000,E3 9000000000,E4 9000000000,E5 9000000000,E6 9000000000}
DECL LOCAL CONST robtarget pBU_2_50={X 2489.18,Y 1769.47,Z 2340.7,A 101.514888997,B 74.268769416,C -170.012827621,S 0,T 1,E1 9000000000,E2 9000000000,E3 9000000000,E4 9000000000,E5 9000000000,E6 9000000000}
DECL LOCAL CONST robtarget pBU_2_60={X 2481.43,Y 1762.47,Z 2318.44,A 101.309457983,B 73.885640789,C -174.338679155,S 0,T 1,E1 9,E2 9,E3 9,E4 9,E5 9,E6 9}
DECL LOCAL CONST robtarget pBU_2_70={X 2480.23,Y 1767.9,Z 2299.23,A 101.347247869,B 73.957669416,C -174.567295256,S 0,T 1,E1 9,E2 9,E3 9,E4 9,E5 9,E6 9}
DECL LOCAL CONST robtarget pBU_2_80={X 2479.36,Y 1771.97,Z 2284.82,A 101.293255844,B 73.855216946,C -174.635303321,S 0,T 1,E1 9,E2 9,E3 9,E4 9,E5 9,E6 9}
DECL LOCAL CONST robtarget pBU_2_90={X 2478.77,Y 1774.69,Z 2275.22,A 101.293255844,B 73.855216946,C -174.635303321,S 0,T 1,E1 9,E2 9,E3 9,E4 9,E5 9,E6 9}
DECL LOCAL CONST robtarget pBU_2_100={X 2477.61,Y 1780.14,Z 2256.01,A 101.293255844,B 73.855216946,C -174.635303321,S 0,T 1,E1 9,E2 9,E3 9,E4 9,E5 9,E6 9}
DECL LOCAL CONST robtarget pBU_2_110={X 2476.16,Y 1786.88,Z 2231.98,A 101.465189039,B 74.176984487,C -174.674379804,S 0,T 1,E1 9,E2 9,E3 9,E4 9,E5 9,E6 9}
DECL LOCAL CONST robtarget pBU_2_120={X 2475.02,Y 1792.15,Z 2212.71,A 101.777910879,B 74.731669799,C -174.47292282,S 0,T 1,E1 9,E2 9,E3 9,E4 9,E5 9,E6 9}
DECL LOCAL CONST robtarget pBU_2_130={X 2473.9,Y 1797.28,Z 2193.42,A 101.807624824,B 74.782663904,C -174.314205931,S 0,T 1,E1 9,E2 9,E3 9,E4 9,E5 9,E6 9}
DECL LOCAL CONST robtarget pBU_2_140={X 2472.78,Y 1802.39,Z 2174.11,A 102.036399579,B 75.162335311,C -174.407036429,S 0,T 1,E1 9,E2 9,E3 9,E4 9,E5 9,E6 9}
DECL LOCAL CONST robtarget pBU_2_150={X 2476.18,Y 1814.22,Z 2156.26,A 102.287413927,B 75.557608372,C -167.368951788,S 0,T 1,E1 9000000000,E2 9000000000,E3 9000000000,E4 9000000000,E5 9000000000,E6 9000000000}
DECL LOCAL CONST robtarget pBU_2_160={X 2470.58,Y 1812.23,Z 2135.41,A 102.179577932,B 75.390774887,C -174.3992626,S 0,T 1,E1 9,E2 9,E3 9,E4 9,E5 9,E6 9}
DECL LOCAL CONST robtarget pBU_2_170={X 2469.23,Y 1818.19,Z 2111.17,A 102.728503218,B 76.205165002,C -173.469825215,S 0,T 1,E1 9,E2 9,E3 9,E4 9,E5 9,E6 9}
DECL LOCAL CONST robtarget pBU_2_180={X 2468.16,Y 1822.84,Z 2091.74,A 102.728503218,B 76.205165002,C -173.469825215,S 0,T 1,E1 9,E2 9,E3 9,E4 9,E5 9,E6 9}
DECL LOCAL CONST robtarget pBU_2_190={X 2467.1,Y 1827.44,Z 2072.31,A 103.014574667,B 76.594628522,C -173.538261581,S 0,T 1,E1 9,E2 9,E3 9,E4 9,E5 9,E6 9}
DECL LOCAL CONST robtarget pBU_2_200={X 2466.05,Y 1831.9,Z 2052.84,A 103.172235434,B 76.79947137,C -173.408929894,S 0,T 1,E1 9,E2 9,E3 9,E4 9,E5 9,E6 9}
DECL LOCAL CONST robtarget pBU_2_210={X 2465.02,Y 1836.24,Z 2033.35,A 103.33539583,B 77.005282377,C -172.878064257,S 0,T 1,E1 9,E2 9,E3 9,E4 9,E5 9,E6 9}
DECL LOCAL CONST robtarget pBU_2_220={X 2464,Y 1840.54,Z 2013.84,A 103.974295821,B 77.753949674,C -172.888507212,S 0,T 1,E1 9,E2 9,E3 9,E4 9,E5 9,E6 9}
DECL LOCAL CONST robtarget pBU_2_230={X 2462.99,Y 1844.65,Z 1994.29,A 104.029585995,B 77.81494448,C -172.577122027,S 0,T 1,E1 9,E2 9,E3 9,E4 9,E5 9,E6 9}
DECL LOCAL CONST robtarget pBU_2_240={X 2461.99,Y 1848.75,Z 1974.75,A 104.029585995,B 77.81494448,C -172.577122027,S 0,T 1,E1 9,E2 9,E3 9,E4 9,E5 9,E6 9}
DECL LOCAL CONST robtarget pBU_2_250={X 2462.27,Y 1855.53,Z 1955.66,A 104.395162535,B 78.203049534,C -164.631144497,S 0,T 1,E1 9000000000,E2 9000000000,E3 9000000000,E4 9000000000,E5 9000000000,E6 9000000000}
DECL LOCAL CONST robtarget pBU_2_260={X 2459.79,Y 1857.61,Z 1930.68,A 104.733979344,B 78.538955051,C -171.862115548,S 0,T 1,E1 9,E2 9,E3 9,E4 9,E5 9,E6 9}
DECL LOCAL CONST robtarget pBU_2_270={X 2458.82,Y 1861.46,Z 1911.08,A 104.733979344,B 78.538955051,C -171.862115548,S 0,T 1,E1 9,E2 9,E3 9,E4 9,E5 9,E6 9}
DECL LOCAL CONST robtarget pBU_2_280={X 2457.88,Y 1865.17,Z 1891.45,A 105.337082214,B 79.09353771,C -171.619988736,S 0,T 1,E1 9,E2 9,E3 9,E4 9,E5 9,E6 9}
DECL LOCAL CONST robtarget pBU_2_290={X 2456.94,Y 1868.82,Z 1871.81,A 105.380989533,B 79.132092864,C -171.457426667,S 0,T 1,E1 9,E2 9,E3 9,E4 9,E5 9,E6 9}
DECL LOCAL CONST robtarget pBU_2_300={X 2456.04,Y 1872.37,Z 1852.14,A 106.076973291,B 79.703478749,C -170.460759038,S 0,T 1,E1 9,E2 9,E3 9,E4 9,E5 9,E6 9}
DECL LOCAL CONST robtarget pBU_2_310={X 2455.16,Y 1875.78,Z 1832.46,A 106.181411751,B 79.784297389,C -170.181734376,S 0,T 1,E1 9,E2 9,E3 9,E4 9,E5 9,E6 9}
DECL LOCAL CONST robtarget pBU_2_320={X 2454.38,Y 1879,Z 1812.73,A 107.207525002,B 80.513552911,C -168.772185328,S 0,T 1,E1 9,E2 9,E3 9,E4 9,E5 9,E6 9}
DECL LOCAL CONST robtarget pBU_2_330={X 2453.67,Y 1882.17,Z 1793,A 107.532693741,B 80.72266478,C -168.833320704,S 0,T 2,E1 9,E2 9,E3 9,E4 9,E5 9,E6 9}
DECL LOCAL CONST robtarget pBU_2_340={X 2453.22,Y 1884.42,Z 1778.18,A 108.346964521,B 81.207120613,C -167.695161764,S 0,T 2,E1 9,E2 9,E3 9,E4 9,E5 9,E6 9}
DECL LOCAL CONST robtarget pBU_2_350={X 2455.77,Y 1885.18,Z 1757.94,A 108.337231621,B 81.201550194,C -161.817234226,S 0,T 2,E1 9000000000,E2 9000000000,E3 9000000000,E4 9000000000,E5 9000000000,E6 9000000000}
DECL LOCAL CONST robtarget pBU_2_360={X 2452.03,Y 1890.14,Z 1738.6,A 110.028319915,B 82.060645991,C -165.43016519,S 0,T 2,E1 9,E2 9,E3 9,E4 9,E5 9,E6 9}
DECL LOCAL CONST robtarget pBU_2_370={X 2451.39,Y 1892.76,Z 1718.79,A 110.028319915,B 82.060645991,C -165.43016519,S 0,T 2,E1 9,E2 9,E3 9,E4 9,E5 9,E6 9}
DECL LOCAL CONST robtarget pBU_2_380={X 2450.7,Y 1895.32,Z 1698.96,A 111.156622559,B 82.542510693,C -164.380618003,S 0,T 2,E1 9,E2 9,E3 9,E4 9,E5 9,E6 9}
DECL LOCAL CONST robtarget pBU_2_390={X 2450.21,Y 1897.08,Z 1684.08,A 112.305184307,B 82.97463353,C -162.414787753,S 0,T 2,E1 9,E2 9,E3 9,E4 9,E5 9,E6 9}
DECL LOCAL CONST robtarget pBU_2_400={X 2449.87,Y 1898.22,Z 1674.15,A 112.305184307,B 82.97463353,C -162.414787753,S 0,T 2,E1 9,E2 9,E3 9,E4 9,E5 9,E6 9}
DECL LOCAL CONST robtarget pBU_2_410={X 2449.18,Y 1900.5,Z 1654.3,A 112.907011675,B 83.180946945,C -162.692206849,S 0,T 2,E1 9,E2 9,E3 9,E4 9,E5 9,E6 9}
DECL LOCAL CONST robtarget pBU_2_420={X 2448.5,Y 1902.48,Z 1634.4,A 115.220793691,B 83.866379271,C -158.744242174,S 0,T 2,E1 9,E2 9,E3 9,E4 9,E5 9,E6 9}
DECL LOCAL CONST robtarget pBU_2_430={X 2447.81,Y 1904.42,Z 1614.51,A 116.120526593,B 84.09478419,C -158.174360506,S 0,T 2,E1 9,E2 9,E3 9,E4 9,E5 9,E6 9}
DECL LOCAL CONST robtarget pBU_2_440={X 2447.12,Y 1906.16,Z 1594.6,A 119.381001038,B 84.787706398,C -154.378158188,S 0,T 2,E1 9,E2 9,E3 9,E4 9,E5 9,E6 9}
DECL LOCAL CONST robtarget pBU_2_450={X 2445.76,Y 1907.65,Z 1574.71,A 120.664042178,B 85.013781324,C -152.921094958,S 0,T 2,E1 9,E2 9,E3 9,E4 9,E5 9,E6 9}
DECL LOCAL CONST robtarget pBU_2_460={X 2442.47,Y 1908.84,Z 1555.02,A 124.982024068,B 85.634567715,C -148.363574429,S 0,T 2,E1 9,E2 9,E3 9,E4 9,E5 9,E6 9}
DECL LOCAL CONST robtarget pBU_2_470={X 2448.92,Y 1897.65,Z 1608.71,A 117.996957512,B 84.445152331,C -148.890706774,S 0,T 2,E1 9000000000,E2 9000000000,E3 9000000000,E4 9000000000,E5 9000000000,E6 9000000000}
DECL LOCAL CONST robtarget pBU_2_480={X 2430.25,Y 1910.34,Z 1517.03,A 133.521239104,B 86.448277671,C -139.591423228,S 0,T 2,E1 9,E2 9,E3 9,E4 9,E5 9,E6 9}
DECL LOCAL CONST robtarget pBU_2_490={X 2423.05,Y 1910.81,Z 1498.38,A 140.200367901,B 86.858566404,C -132.150148689,S 0,T 2,E1 9,E2 9,E3 9,E4 9,E5 9,E6 9}
DECL LOCAL CONST robtarget pBU_2_500={X 2417.86,Y 1911.2,Z 1479.09,A 148.278946622,B 87.199100449,C -124.444005548,S 0,T 2,E1 9,E2 9,E3 9,E4 9,E5 9,E6 9}
DECL LOCAL CONST robtarget pBU_2_510={X 2415.11,Y 1911.49,Z 1459.29,A 168.803899224,B 87.630939581,C -103.333740187,S 0,T 2,E1 9,E2 9,E3 9,E4 9,E5 9,E6 9}
DECL LOCAL CONST robtarget pBU_2_520={X 2414.65,Y 1911.56,Z 1439.3,A -171.577621102,B 87.697614631,C -82.929599363,S 0,T 2,E1 9,E2 9,E3 9,E4 9,E5 9,E6 9}
DECL LOCAL CONST robtarget pBU_2_530={X 2414.64,Y 1911.46,Z 1419.3,A -171.680164326,B 87.697994098,C -83.20150354,S 0,T 2,E1 9,E2 9,E3 9,E4 9,E5 9,E6 9}
DECL LOCAL CONST robtarget pBU_2_540={X 2414.63,Y 1911.01,Z 1399.31,A -146.519909945,B 87.348784044,C -57.531840131,S 0,T 2,E1 9,E2 9,E3 9,E4 9,E5 9,E6 9}
DECL LOCAL CONST robtarget pBU_2_550={X 2414.63,Y 1910.39,Z 1379.32,A -132.227898902,B 86.790299754,C -43.233631796,S 0,T 2,E1 9,E2 9,E3 9,E4 9,E5 9,E6 9}
DECL LOCAL CONST robtarget pBU_2_560={X 2422.6,Y 1899.71,Z 1511.76,A 155.320713704,B 75.462362053,C -112.078808322,S 0,T 2,E1 9000000000,E2 9000000000,E3 9000000000,E4 9000000000,E5 9000000000,E6 9000000000}
DECL LOCAL CONST robtarget pBU_2_570={X 2414.62,Y 1908.39,Z 1339.37,A -121.560918726,B 85.996600067,C -32.157399594,S 0,T 2,E1 9,E2 9,E3 9,E4 9,E5 9,E6 9}
DECL LOCAL CONST robtarget pBU_2_580={X 2414.61,Y 1907.14,Z 1319.41,A -116.766544751,B 85.435618229,C -27.055535246,S 0,T 2,E1 9,E2 9,E3 9,E4 9,E5 9,E6 9}
DECL LOCAL CONST robtarget pBU_2_590={X 2414.61,Y 1905.73,Z 1299.46,A -117.247326328,B 85.500372552,C -27.346747979,S 0,T 2,E1 9,E2 9,E3 9,E4 9,E5 9,E6 9}
DECL LOCAL CONST robtarget pBU_2_600={X 2414.6,Y 1904.24,Z 1279.52,A -115.101965672,B 85.19381341,C -25.19227997,S 0,T 2,E1 9,E2 9,E3 9,E4 9,E5 9,E6 9}
DECL LOCAL CONST robtarget pBU_2_610={X 2414.6,Y 1902.76,Z 1259.56,A -117.069413572,B 85.47652075,C -27.065857663,S 0,T 2,E1 9,E2 9,E3 9,E4 9,E5 9,E6 9}
DECL LOCAL CONST robtarget pBU_2_620={X 2414.6,Y 1901.36,Z 1239.61,A -117.292481076,B 85.506219321,C -27.203944674,S 0,T 2,E1 9,E2 9,E3 9,E4 9,E5 9,E6 9}
DECL LOCAL CONST robtarget pBU_2_630={X 2418.95,Y 1895.17,Z 1387.68,A 117.109699277,B 87.907375745,C -149.850804047,S 0,T 2,E1 9000000000,E2 9000000000,E3 9000000000,E4 9000000000,E5 9000000000,E6 9000000000}
DECL LOCAL CONST robtarget pBU_2_640={X 2414.59,Y 1899.46,Z 1199.67,A -157.307086745,B 87.569555945,C -67.28886951,S 0,T 2,E1 9,E2 9,E3 9,E4 9,E5 9,E6 9}
DECL LOCAL CONST robtarget pBU_2_650={X 2414.59,Y 1899.32,Z 1179.67,A 169.889966753,B 87.642085798,C -100.111441988,S 0,T 2,E1 9,E2 9,E3 9,E4 9,E5 9,E6 9}
DECL LOCAL CONST robtarget pBU_2_660={X 2414.58,Y 1899.66,Z 1159.68,A 142.210002491,B 86.956448128,C -127.791417013,S 0,T 2,E1 9,E2 9,E3 9,E4 9,E5 9,E6 9}
DECL LOCAL CONST robtarget pBU_2_670={X 2414.58,Y 1900.27,Z 1144.69,A 134.165924331,B 86.494510951,C -135.915435959,S 0,T 2,E1 9,E2 9,E3 9,E4 9,E5 9,E6 9}
DECL LOCAL CONST robtarget pBU_2_680={X 2414.58,Y 1901.38,Z 1124.72,A 123.819770513,B 85.485627556,C -146.201792121,S 0,T 2,E1 9,E2 9,E3 9,E4 9,E5 9,E6 9}
DECL LOCAL CONST robtarget pBU_2_690={X 2414.57,Y 1902.71,Z 1104.77,A 120.460059707,B 84.979249745,C -149.622067904,S -1,T 2,E1 9,E2 9,E3 9,E4 9,E5 9,E6 9}
DECL LOCAL CONST robtarget pBU_2_700={X 2414.57,Y 1904.28,Z 1084.83,A 118.797788453,B 84.677307037,C -151.302197685,S -1,T 2,E1 9,E2 9,E3 9,E4 9,E5 9,E6 9}
DECL LOCAL CONST robtarget pBU_2_710={X 2414.57,Y 1905.89,Z 1064.89,A 118.692190512,B 84.656463519,C -151.343187053,S -1,T 2,E1 9,E2 9,E3 9,E4 9,E5 9,E6 9}
DECL LOCAL CONST robtarget pBU_2_720={X 2414.57,Y 1907.53,Z 1044.96,A 118.649303154,B 84.648177291,C -151.362639798,S -1,T 2,E1 9,E2 9,E3 9,E4 9,E5 9,E6 9}
DECL LOCAL CONST robtarget pBU_2_730={X 2417.29,Y 1889.7,Z 1293.69,A 154.547293299,B 88.417070936,C -109.07551966,S 0,T 2,E1 9000000000,E2 9000000000,E3 9000000000,E4 9000000000,E5 9000000000,E6 9000000000}
DECL LOCAL CONST robtarget pBU_2_740={X 2415.99,Y 1886.64,Z 1197.33,A 132.445423026,B 87.465856613,C -128.460269868,S 0,T 2,E1 9000000000,E2 9000000000,E3 9000000000,E4 9000000000,E5 9000000000,E6 9000000000}
DECL LOCAL CONST robtarget pBU_2_750={X 2416.61,Y 1895.47,Z 1091.03,A 138.378699117,B 87.270033607,C -121.224256247,S -1,T 2,E1 9000000000,E2 9000000000,E3 9000000000,E4 9000000000,E5 9000000000,E6 9000000000}
DECL LOCAL CONST robtarget pBU_2_760={X 2418.03,Y 1897.3,Z 1036.11,A 151.10928525,B 87.471522184,C -108.158850472,S -1,T 2,E1 9000000000,E2 9000000000,E3 9000000000,E4 9000000000,E5 9000000000,E6 9000000000}
DECL LOCAL CONST robtarget pBU_2_770={X 2414.58,Y 1925.64,Z 954.21,A 102.503185944,B 76.821816687,C -167.748860031,S -1,T 2,E1 9,E2 9,E3 9,E4 9,E5 9,E6 9}
DECL LOCAL CONST robtarget pBU_2_780={X 2414.61,Y 1926.98,Z 953.9,A 106.076507013,B 79.734017292,C -164.248863457,S -1,T 2,E1 9,E2 9,E3 9,E4 9,E5 9,E6 9}
DECL LOCAL CONST robtarget pBU_2_790={X 2414.64,Y 1927.97,Z 953.32,A 109.812603611,B 81.641487881,C -160.561445101,S -1,T 2,E1 9,E2 9,E3 9,E4 9,E5 9,E6 9}
DECL LOCAL CONST robtarget pBU_2_800={X 2413.94,Y 1947.58,Z 942.93,A 109.812730515,B 81.641547651,C -160.561373168,S -1,T 2,E1 9,E2 9,E3 9,E4 9,E5 9,E6 9}
DECL LOCAL CONST robtarget pBU_3_10={X 2428.92,Y 1915.43,Z 977.12,A -70.193594726,B -81.642086445,C 167.837672178,S -1,T 2,E1 9000000000,E2 9000000000,E3 9000000000,E4 9000000000,E5 9000000000,E6 9000000000}
DECL LOCAL CONST robtarget pBU_3_20={X 2428.92,Y 1908.56,Z 946.07,A -70.193707096,B -81.64214451,C 168.91200195,S -1,T 2,E1 9000000000,E2 9000000000,E3 9000000000,E4 9000000000,E5 9000000000,E6 9000000000}
DECL LOCAL CONST robtarget pBU_3_30={X 2429.72,Y 1889.37,Z 909.85,A -70.192532098,B -81.64262763,C 168.910536172,S -1,T 2,E1 9000000000,E2 9000000000,E3 9000000000,E4 9000000000,E5 9000000000,E6 9000000000}
DECL LOCAL CONST robtarget pBU_3_40={X 2430.81,Y 1859.41,Z 883.55,A -70.193014059,B -81.642764786,C 168.91101817,S -1,T 2,E1 9000000000,E2 9000000000,E3 9000000000,E4 9000000000,E5 9000000000,E6 9000000000}
DECL LOCAL CONST robtarget pBU_3_50={X 2433.78,Y 1839.66,Z 879.53,A -70.19432696,B -81.64324372,C 168.912498422,S -1,T 2,E1 9000000000,E2 9000000000,E3 9000000000,E4 9000000000,E5 9000000000,E6 9000000000}
DECL LOCAL CONST robtarget pBU_3_60={X 2414.58,Y 1925.45,Z 899.9,A -90.510286214,B -80.057858772,C -179.600596051,S -1,T 2,E1 9,E2 9,E3 9,E4 9,E5 9,E6 9}
DECL LOCAL CONST robtarget pBU_3_70={X 2414.58,Y 1922.03,Z 890.79,A -90.416141915,B -80.057916282,C -179.68513957,S -1,T 2,E1 9,E2 9,E3 9,E4 9,E5 9,E6 9}
DECL LOCAL CONST robtarget pBU_3_80={X 2414.57,Y 1916,Z 878.3,A -90.326326393,B -80.058061182,C -179.787085088,S -1,T 2,E1 9,E2 9,E3 9,E4 9,E5 9,E6 9}
DECL LOCAL CONST robtarget pBU_3_90={X 2414.66,Y 1894.26,Z 848.73,A -91.134820535,B -80.056528324,C -178.847920241,S -1,T 2,E1 9,E2 9,E3 9,E4 9,E5 9,E6 9}
DECL LOCAL CONST robtarget pBU_3_100={X 2415.08,Y 1882.84,Z 843.45,A -91.425905398,B -82.055973827,C -178.560364007,S -1,T 2,E1 9,E2 9,E3 9,E4 9,E5 9,E6 9}
DECL LOCAL CONST robtarget pBU_3_110={X 2414.69,Y 1866.78,Z 839.61,A -91.911589021,B -84.055128998,C -178.078140672,S -1,T 2,E1 9,E2 9,E3 9,E4 9,E5 9,E6 9}
DECL LOCAL CONST robtarget pBU_3_120={X 2414.69,Y 1858.05,Z 838.97,A -92.300667053,B -85.054423644,C -177.690846113,S -1,T 2,E1 9,E2 9,E3 9,E4 9,E5 9,E6 9}
DECL LOCAL CONST robtarget pBU_3_130={X 2415.09,Y 1847.56,Z 838.54,A -92.300667053,B -85.054423644,C -177.690846113,S -1,T 2,E1 9,E2 9,E3 9,E4 9,E5 9,E6 9}
DECL LOCAL CONST robtarget pBU_3_140={X 2414.69,Y 1836.7,Z 839.35,A -93.866724192,B -87.051733667,C -176.128232013,S -1,T 2,E1 9,E2 9,E3 9,E4 9,E5 9,E6 9}
DECL LOCAL CONST robtarget pBU_3_150={X 2414.69,Y 1826.14,Z 839,A -95.85220677,B -88.04826199,C -174.144527305,S -1,T 2,E1 9,E2 9,E3 9,E4 9,E5 9,E6 9}
DECL LOCAL CONST robtarget pBU_3_160={X 2414.7,Y 1781.42,Z 837.51,A 90.739978994,B -74.940283289,C -0.766162504,S -1,T 2,E1 9,E2 9,E3 9,E4 9,E5 9,E6 9}
DECL LOCAL CONST robtarget pBU_4_10={X 3773.81,Y 1899.93,Z 1800.43,A -1.551113015,B -2.251496794,C 138.489069774,S 0,T 2,E1 9000000000,E2 9000000000,E3 9000000000,E4 9000000000,E5 9000000000,E6 9000000000}
DECL LOCAL CONST robtarget pBU_4_20={X 3919.86,Y 1899.45,Z 1803.5,A -1.551099128,B -2.251741109,C 138.489428258,S 0,T 2,E1 9000000000,E2 9000000000,E3 9000000000,E4 9000000000,E5 9000000000,E6 9000000000}
DECL LOCAL CONST robtarget pBU_4_30={X 4038.07,Y 1893.91,Z 1804.12,A -1.551102671,B -2.251838367,C 138.489622789,S 0,T 2,E1 9000000000,E2 9000000000,E3 9000000000,E4 9000000000,E5 9000000000,E6 9000000000}
DECL LOCAL CONST robtarget pBU_4_40={X 4174.69,Y 1888.19,Z 1805.2,A -1.55120063,B -2.251994688,C 138.490334538,S 0,T 2,E1 9000000000,E2 9000000000,E3 9000000000,E4 9000000000,E5 9000000000,E6 9000000000}
DECL LOCAL CONST robtarget pBU_4_50={X 4374.93,Y 1876.47,Z 1805.92,A -0.26752782,B -3.694770693,C 138.357817145,S 0,T 2,E1 9000000000,E2 9000000000,E3 9000000000,E4 9000000000,E5 9000000000,E6 9000000000}
DECL LOCAL CONST robtarget pBU_4_60={X 4474.55,Y 1871.33,Z 1807.11,A -0.084572061,B -3.908269581,C 138.47859041,S 0,T 2,E1 9000000000,E2 9000000000,E3 9000000000,E4 9000000000,E5 9000000000,E6 9000000000}
DECL LOCAL CONST robtarget pBU_5_10={X 3742.83,Y 1897.39,Z 1773.22,A -0.000040294,B -0.876378101,C 94.000448994,S 0,T 1,E1 9,E2 9,E3 9,E4 9,E5 9,E6 9}
DECL LOCAL CONST robtarget pBU_5_20={X 3747.83,Y 1897.25,Z 1773.3,A -0.000040294,B -0.876378101,C 94.000448994,S 0,T 1,E1 9,E2 9,E3 9,E4 9,E5 9,E6 9}
DECL LOCAL CONST robtarget pBU_5_30={X 3752.82,Y 1897.1,Z 1773.38,A -0.000040294,B -0.876378101,C 94.000448994,S 0,T 1,E1 9,E2 9,E3 9,E4 9,E5 9,E6 9}
DECL LOCAL CONST robtarget pBU_5_40={X 3757.82,Y 1896.94,Z 1773.47,A -0.000040294,B -0.876378101,C 94.000448994,S 0,T 1,E1 9,E2 9,E3 9,E4 9,E5 9,E6 9}
DECL LOCAL CONST robtarget pBU_5_50={X 3762.81,Y 1896.78,Z 1773.55,A -0.000040294,B -0.876378101,C 94.000448994,S 0,T 1,E1 9,E2 9,E3 9,E4 9,E5 9,E6 9}
DECL LOCAL CONST robtarget pBU_6_10={X 3783.23,Y 1899.49,Z 1773.51,A -0.000040294,B -0.876378101,C 94.000448994,S 0,T 1,E1 9,E2 9,E3 9,E4 9,E5 9,E6 9}
DECL LOCAL CONST robtarget pBU_6_20={X 3785.81,Y 1899.41,Z 1773.56,A -0.000040294,B -0.876378101,C 94.000448994,S 0,T 1,E1 9,E2 9,E3 9,E4 9,E5 9,E6 9}
DECL LOCAL CONST robtarget pBU_6_30={X 3790.81,Y 1899.25,Z 1773.64,A -0.000040294,B -0.876378101,C 94.000448994,S 0,T 1,E1 9,E2 9,E3 9,E4 9,E5 9,E6 9}
DECL LOCAL CONST robtarget pBU_6_40={X 3795.81,Y 1899.08,Z 1773.72,A -0.000040294,B -0.876378101,C 94.000448994,S 0,T 1,E1 9,E2 9,E3 9,E4 9,E5 9,E6 9}
DECL LOCAL CONST robtarget pBU_6_50={X 3800.8,Y 1898.92,Z 1773.8,A -0.000040294,B -0.876378101,C 94.000448994,S 0,T 1,E1 9,E2 9,E3 9,E4 9,E5 9,E6 9}
DECL LOCAL CONST robtarget pBU_6_60={X 3805.8,Y 1898.75,Z 1773.88,A -0.000040294,B -0.876378101,C 94.000448994,S 0,T 1,E1 9,E2 9,E3 9,E4 9,E5 9,E6 9}
DECL LOCAL CONST robtarget pBU_6_70={X 3810.8,Y 1898.59,Z 1773.96,A -0.000040294,B -0.876378101,C 94.000448994,S 0,T 1,E1 9,E2 9,E3 9,E4 9,E5 9,E6 9}
DECL LOCAL CONST robtarget pBU_6_80={X 3815.79,Y 1898.43,Z 1774.04,A -0.000040294,B -0.876378101,C 94.000448994,S 0,T 1,E1 9,E2 9,E3 9,E4 9,E5 9,E6 9}
DECL LOCAL CONST robtarget pBU_6_90={X 3820.79,Y 1898.26,Z 1774.12,A -0.000040294,B -0.876378101,C 94.000448994,S 0,T 1,E1 9,E2 9,E3 9,E4 9,E5 9,E6 9}
DECL LOCAL CONST robtarget pBU_6_100={X 3825.78,Y 1898.08,Z 1774.2,A -0.000040294,B -0.876378101,C 94.000448994,S 0,T 1,E1 9,E2 9,E3 9,E4 9,E5 9,E6 9}
DECL LOCAL CONST robtarget pBU_6_110={X 3830.78,Y 1897.91,Z 1774.28,A -0.000040294,B -0.876378101,C 94.000448994,S 0,T 1,E1 9,E2 9,E3 9,E4 9,E5 9,E6 9}
DECL LOCAL CONST robtarget pBU_6_120={X 3835.79,Y 1897.7,Z 1774.41,A -0.000040294,B -0.876378101,C 94.000448994,S 0,T 1,E1 9,E2 9,E3 9,E4 9,E5 9,E6 9}
DECL LOCAL CONST robtarget pBU_6_130={X 3840.77,Y 1897.56,Z 1774.44,A -0.000040294,B -0.876378101,C 94.000448994,S 0,T 1,E1 9,E2 9,E3 9,E4 9,E5 9,E6 9}
DECL LOCAL CONST robtarget pBU_6_140={X 3845.77,Y 1897.38,Z 1774.52,A -0.000040294,B -0.876378101,C 94.000448994,S 0,T 1,E1 9,E2 9,E3 9,E4 9,E5 9,E6 9}
DECL LOCAL CONST robtarget pBU_6_150={X 3850.78,Y 1897.17,Z 1774.65,A -0.000040294,B -0.876378101,C 94.000448994,S 0,T 1,E1 9,E2 9,E3 9,E4 9,E5 9,E6 9}
DECL LOCAL CONST robtarget pBU_6_160={X 3855.76,Y 1897.02,Z 1774.68,A -0.000040294,B -0.876378101,C 94.000448994,S 0,T 1,E1 9,E2 9,E3 9,E4 9,E5 9,E6 9}
DECL LOCAL CONST robtarget pBU_6_170={X 3860.76,Y 1896.84,Z 1774.76,A -0.000040294,B -0.876378101,C 94.000448994,S 0,T 1,E1 9,E2 9,E3 9,E4 9,E5 9,E6 9}
DECL LOCAL CONST robtarget pBU_6_180={X 3865.75,Y 1896.66,Z 1774.83,A -0.000040294,B -0.876378101,C 94.000448994,S 0,T 1,E1 9,E2 9,E3 9,E4 9,E5 9,E6 9}
DECL LOCAL CONST robtarget pBU_6_190={X 3870.75,Y 1896.48,Z 1774.91,A -0.000040294,B -0.876378101,C 94.000448994,S 0,T 1,E1 9,E2 9,E3 9,E4 9,E5 9,E6 9}
DECL LOCAL CONST robtarget pBU_6_200={X 3875.75,Y 1896.29,Z 1774.99,A -0.000040294,B -0.876378101,C 94.000448994,S 0,T 1,E1 9,E2 9,E3 9,E4 9,E5 9,E6 9}
DECL LOCAL CONST robtarget pBU_6_210={X 3880.74,Y 1896.11,Z 1775.06,A -0.000040294,B -0.876378101,C 94.000448994,S 0,T 1,E1 9,E2 9,E3 9,E4 9,E5 9,E6 9}
DECL LOCAL CONST robtarget pBU_6_220={X 3885.74,Y 1895.92,Z 1775.14,A -0.000040294,B -0.876378101,C 94.000448994,S 0,T 1,E1 9,E2 9,E3 9,E4 9,E5 9,E6 9}
DECL LOCAL CONST robtarget pBU_6_230={X 3890.73,Y 1895.73,Z 1775.22,A -0.000040294,B -0.876378101,C 94.000448994,S 0,T 1,E1 9,E2 9,E3 9,E4 9,E5 9,E6 9}
DECL LOCAL CONST robtarget pBU_6_240={X 3895.73,Y 1895.54,Z 1775.3,A -0.000040294,B -0.876378101,C 94.000448994,S 0,T 1,E1 9,E2 9,E3 9,E4 9,E5 9,E6 9}
DECL LOCAL CONST robtarget pBU_6_250={X 3900.73,Y 1895.34,Z 1775.37,A -0.000040294,B -0.876378101,C 94.000448994,S 0,T 1,E1 9,E2 9,E3 9,E4 9,E5 9,E6 9}
DECL LOCAL CONST robtarget pBU_6_260={X 3905.72,Y 1895.15,Z 1775.45,A -0.000040294,B -0.876378101,C 94.000448994,S 0,T 1,E1 9,E2 9,E3 9,E4 9,E5 9,E6 9}
DECL LOCAL CONST robtarget pBU_6_270={X 3910.72,Y 1894.95,Z 1775.53,A -0.000040294,B -0.876378101,C 94.000448994,S 0,T 1,E1 9,E2 9,E3 9,E4 9,E5 9,E6 9}
DECL LOCAL CONST robtarget pBU_6_280={X 3915.71,Y 1894.75,Z 1775.61,A -0.000040294,B -0.876378101,C 94.000448994,S 0,T 1,E1 9,E2 9,E3 9,E4 9,E5 9,E6 9}
DECL LOCAL CONST robtarget pBU_6_290={X 3920.71,Y 1894.56,Z 1775.68,A -0.000040294,B -0.876378101,C 94.000448994,S 0,T 1,E1 9,E2 9,E3 9,E4 9,E5 9,E6 9}
DECL LOCAL CONST robtarget pBU_6_300={X 3925.7,Y 1894.36,Z 1775.76,A -0.000040294,B -0.876378101,C 94.000448994,S 0,T 1,E1 9,E2 9,E3 9,E4 9,E5 9,E6 9}
DECL LOCAL CONST robtarget pBU_6_310={X 3930.7,Y 1894.15,Z 1775.83,A -0.000040294,B -0.876378101,C 94.000448994,S 0,T 1,E1 9,E2 9,E3 9,E4 9,E5 9,E6 9}
DECL LOCAL CONST robtarget pBU_6_320={X 3935.69,Y 1893.95,Z 1775.91,A -0.000040294,B -0.876378101,C 94.000448994,S 0,T 1,E1 9,E2 9,E3 9,E4 9,E5 9,E6 9}
DECL LOCAL CONST robtarget pBU_6_330={X 3940.69,Y 1893.74,Z 1775.99,A -0.000040294,B -0.876378101,C 94.000448994,S 0,T 1,E1 9,E2 9,E3 9,E4 9,E5 9,E6 9}
DECL LOCAL CONST robtarget pBU_6_340={X 3945.68,Y 1893.54,Z 1776.06,A -0.000040294,B -0.876378101,C 94.000448994,S 0,T 1,E1 9,E2 9,E3 9,E4 9,E5 9,E6 9}
DECL LOCAL CONST robtarget pBU_6_350={X 3950.68,Y 1893.33,Z 1776.13,A -0.000040294,B -0.876378101,C 94.000448994,S 0,T 1,E1 9,E2 9,E3 9,E4 9,E5 9,E6 9}
DECL LOCAL CONST robtarget pBU_6_360={X 3955.67,Y 1893.12,Z 1776.21,A -0.000040294,B -0.876378101,C 94.000448994,S 0,T 1,E1 9,E2 9,E3 9,E4 9,E5 9,E6 9}
DECL LOCAL CONST robtarget pBU_6_370={X 3960.67,Y 1892.91,Z 1776.28,A -0.000040294,B -0.876378101,C 94.000448994,S 0,T 1,E1 9,E2 9,E3 9,E4 9,E5 9,E6 9}
DECL LOCAL CONST robtarget pBU_6_380={X 3965.66,Y 1892.7,Z 1776.36,A -0.000040294,B -0.876378101,C 94.000448994,S 0,T 1,E1 9,E2 9,E3 9,E4 9,E5 9,E6 9}
DECL LOCAL CONST robtarget pBU_6_390={X 3970.66,Y 1892.48,Z 1776.43,A -0.000040294,B -0.876378101,C 94.000448994,S 0,T 1,E1 9,E2 9,E3 9,E4 9,E5 9,E6 9}
DECL LOCAL CONST robtarget pBU_6_400={X 3975.65,Y 1892.26,Z 1776.5,A -0.000040294,B -0.876378101,C 94.000448994,S 0,T 1,E1 9,E2 9,E3 9,E4 9,E5 9,E6 9}
DECL LOCAL CONST robtarget pBU_6_410={X 3980.65,Y 1892.05,Z 1776.58,A -0.000040294,B -0.876378101,C 94.000448994,S 0,T 1,E1 9,E2 9,E3 9,E4 9,E5 9,E6 9}
DECL LOCAL CONST robtarget pBU_6_420={X 3985.64,Y 1891.82,Z 1776.65,A -0.000040294,B -0.876378101,C 94.000448994,S 0,T 1,E1 9,E2 9,E3 9,E4 9,E5 9,E6 9}
DECL LOCAL CONST robtarget pBU_6_430={X 3990.64,Y 1891.6,Z 1776.72,A -0.000040294,B -0.876378101,C 94.000448994,S 0,T 1,E1 9,E2 9,E3 9,E4 9,E5 9,E6 9}
DECL LOCAL CONST robtarget pBU_6_440={X 3995.63,Y 1891.38,Z 1776.79,A -0.000040294,B -0.876378101,C 94.000448994,S 0,T 1,E1 9,E2 9,E3 9,E4 9,E5 9,E6 9}
DECL LOCAL CONST robtarget pBU_6_450={X 4000.63,Y 1891.16,Z 1776.86,A -0.000040294,B -0.876378101,C 94.000448994,S 0,T 1,E1 9,E2 9,E3 9,E4 9,E5 9,E6 9}
DECL LOCAL CONST robtarget pBU_6_460={X 4005.62,Y 1890.93,Z 1776.93,A -0.000040294,B -0.876378101,C 94.000448994,S 0,T 1,E1 9,E2 9,E3 9,E4 9,E5 9,E6 9}
DECL LOCAL CONST robtarget pBU_6_470={X 4010.62,Y 1890.7,Z 1777.01,A -0.000040294,B -0.876378101,C 94.000448994,S 0,T 1,E1 9,E2 9,E3 9,E4 9,E5 9,E6 9}
DECL LOCAL CONST robtarget pBU_6_480={X 4015.61,Y 1890.43,Z 1777.13,A -0.000040294,B -0.876378101,C 94.000448994,S 0,T 1,E1 9,E2 9,E3 9,E4 9,E5 9,E6 9}
DECL LOCAL CONST robtarget pBU_6_490={X 4020.59,Y 1890.24,Z 1777.15,A -0.000040294,B -0.876378101,C 94.000448994,S 0,T 1,E1 9,E2 9,E3 9,E4 9,E5 9,E6 9}
DECL LOCAL CONST robtarget pBU_6_500={X 4030.59,Y 1889.77,Z 1777.29,A -0.000040294,B -0.876378101,C 94.000448994,S 0,T 1,E1 9,E2 9,E3 9,E4 9,E5 9,E6 9}
DECL LOCAL CONST robtarget pBU_6_510={X 4035.59,Y 1889.54,Z 1777.36,A -0.000040294,B -0.876378101,C 94.000448994,S 0,T 1,E1 9,E2 9,E3 9,E4 9,E5 9,E6 9}
DECL LOCAL CONST robtarget pBU_6_520={X 4040.58,Y 1889.27,Z 1777.39,A -0.000040294,B -0.876378101,C 94.000448994,S 0,T 1,E1 9,E2 9,E3 9,E4 9,E5 9,E6 9}
DECL LOCAL CONST robtarget pBU_6_530={X 4045.56,Y 1889.06,Z 1777.5,A -0.000040294,B -0.876378101,C 94.000448994,S 0,T 1,E1 9,E2 9,E3 9,E4 9,E5 9,E6 9}
DECL LOCAL CONST robtarget pBU_6_540={X 4050.56,Y 1888.82,Z 1777.57,A -0.000040294,B -0.876378101,C 94.000448994,S 0,T 1,E1 9,E2 9,E3 9,E4 9,E5 9,E6 9}
DECL LOCAL CONST robtarget pBU_6_550={X 4055.55,Y 1888.58,Z 1777.64,A -0.000040294,B -0.876378101,C 94.000448994,S 0,T 1,E1 9,E2 9,E3 9,E4 9,E5 9,E6 9}
DECL LOCAL CONST robtarget pBU_6_560={X 4060.54,Y 1888.33,Z 1777.71,A -0.000040294,B -0.876378101,C 94.000448994,S 0,T 1,E1 9,E2 9,E3 9,E4 9,E5 9,E6 9}
DECL LOCAL CONST robtarget pBU_6_570={X 4065.54,Y 1888.09,Z 1777.78,A -0.000040294,B -0.876378101,C 94.000448994,S 0,T 1,E1 9,E2 9,E3 9,E4 9,E5 9,E6 9}
DECL LOCAL CONST robtarget pBU_6_580={X 4070.53,Y 1887.84,Z 1777.85,A -0.000040294,B -0.876378101,C 94.000448994,S 0,T 1,E1 9,E2 9,E3 9,E4 9,E5 9,E6 9}
DECL LOCAL CONST robtarget pBU_6_590={X 4075.52,Y 1887.59,Z 1777.92,A -0.000040294,B -0.876378101,C 94.000448994,S 0,T 1,E1 9,E2 9,E3 9,E4 9,E5 9,E6 9}
DECL LOCAL CONST robtarget pBU_6_600={X 4080.52,Y 1887.34,Z 1777.98,A -0.000040294,B -0.876378101,C 94.000448994,S 0,T 1,E1 9,E2 9,E3 9,E4 9,E5 9,E6 9}
DECL LOCAL CONST robtarget pBU_6_610={X 4085.51,Y 1887.08,Z 1778.05,A -0.000040294,B -0.876378101,C 94.000448994,S 0,T 1,E1 9,E2 9,E3 9,E4 9,E5 9,E6 9}
DECL LOCAL CONST robtarget pBU_6_620={X 4090.5,Y 1886.83,Z 1778.12,A -0.000040294,B -0.876378101,C 94.000448994,S 0,T 1,E1 9,E2 9,E3 9,E4 9,E5 9,E6 9}
DECL LOCAL CONST robtarget pBU_6_630={X 4095.5,Y 1886.57,Z 1778.18,A -0.000040294,B -0.876378101,C 94.000448994,S 0,T 1,E1 9,E2 9,E3 9,E4 9,E5 9,E6 9}
DECL LOCAL CONST robtarget pBU_6_640={X 4100.5,Y 1886.28,Z 1778.3,A -0.000040294,B -0.876378101,C 94.000448994,S 0,T 1,E1 9,E2 9,E3 9,E4 9,E5 9,E6 9}
DECL LOCAL CONST robtarget pBU_6_650={X 4105.48,Y 1886.05,Z 1778.32,A -0.000040294,B -0.876378101,C 94.000448994,S 0,T 1,E1 9,E2 9,E3 9,E4 9,E5 9,E6 9}
DECL LOCAL CONST robtarget pBU_6_660={X 4110.48,Y 1885.79,Z 1778.38,A -0.000040294,B -0.876378101,C 94.000448994,S 0,T 1,E1 9,E2 9,E3 9,E4 9,E5 9,E6 9}
DECL LOCAL CONST robtarget pBU_6_670={X 4115.47,Y 1885.53,Z 1778.45,A -0.000040294,B -0.876378101,C 94.000448994,S 0,T 1,E1 9,E2 9,E3 9,E4 9,E5 9,E6 9}
DECL LOCAL CONST robtarget pBU_6_680={X 4120.46,Y 1885.26,Z 1778.52,A -0.000040294,B -0.876378101,C 94.000448994,S 0,T 1,E1 9,E2 9,E3 9,E4 9,E5 9,E6 9}
DECL LOCAL CONST robtarget pBU_6_690={X 4125.45,Y 1884.99,Z 1778.58,A -0.000040294,B -0.876378101,C 94.000448994,S 0,T 1,E1 9,E2 9,E3 9,E4 9,E5 9,E6 9}
DECL LOCAL CONST robtarget pBU_6_700={X 4130.46,Y 1884.68,Z 1778.7,A -0.000040294,B -0.876378101,C 94.000448994,S 0,T 1,E1 9,E2 9,E3 9,E4 9,E5 9,E6 9}
DECL LOCAL CONST robtarget pBU_6_710={X 4135.44,Y 1884.45,Z 1778.71,A -0.000040294,B -0.876378101,C 94.000448994,S 0,T 1,E1 9,E2 9,E3 9,E4 9,E5 9,E6 9}
DECL LOCAL CONST robtarget pBU_6_720={X 4140.43,Y 1884.18,Z 1778.78,A -0.000040294,B -0.876378101,C 94.000448994,S 0,T 1,E1 9,E2 9,E3 9,E4 9,E5 9,E6 9}
DECL LOCAL CONST robtarget pBU_6_730={X 4145.42,Y 1883.9,Z 1778.84,A -0.000040294,B -0.876378101,C 94.000448994,S 0,T 1,E1 9,E2 9,E3 9,E4 9,E5 9,E6 9}
DECL LOCAL CONST robtarget pBU_6_740={X 4150.41,Y 1883.62,Z 1778.9,A -0.000040294,B -0.876378101,C 94.000448994,S 0,T 1,E1 9,E2 9,E3 9,E4 9,E5 9,E6 9}
DECL LOCAL CONST robtarget pBU_6_750={X 4155.4,Y 1883.34,Z 1778.97,A -0.000040294,B -0.876378101,C 94.000448994,S 0,T 1,E1 9,E2 9,E3 9,E4 9,E5 9,E6 9}
DECL LOCAL CONST robtarget pBU_6_760={X 4160.4,Y 1883.07,Z 1779.03,A -0.000040294,B -0.876378101,C 94.000448994,S 0,T 1,E1 9,E2 9,E3 9,E4 9,E5 9,E6 9}
DECL LOCAL CONST robtarget pBU_6_770={X 4165.39,Y 1882.78,Z 1779.1,A -0.000040294,B -0.876378101,C 94.000448994,S 0,T 1,E1 9,E2 9,E3 9,E4 9,E5 9,E6 9}
DECL LOCAL CONST robtarget pBU_6_780={X 4170.38,Y 1882.49,Z 1779.16,A -0.000040294,B -0.876378101,C 94.000448994,S 0,T 1,E1 9,E2 9,E3 9,E4 9,E5 9,E6 9}
DECL LOCAL CONST robtarget pBU_6_790={X 4175.37,Y 1882.21,Z 1779.22,A -0.000040294,B -0.876378101,C 94.000448994,S 0,T 1,E1 9,E2 9,E3 9,E4 9,E5 9,E6 9}
DECL LOCAL CONST robtarget pBU_6_800={X 4180.36,Y 1881.93,Z 1779.28,A -0.000040294,B -0.876378101,C 94.000448994,S 0,T 1,E1 9,E2 9,E3 9,E4 9,E5 9,E6 9}
DECL LOCAL CONST robtarget pBU_6_810={X 4185.35,Y 1881.63,Z 1779.35,A -0.000040294,B -0.876378101,C 94.000448994,S 0,T 1,E1 9,E2 9,E3 9,E4 9,E5 9,E6 9}
DECL LOCAL CONST robtarget pBU_6_820={X 4190.35,Y 1881.29,Z 1779.46,A -0.000040294,B -0.876378101,C 94.000448994,S 0,T 1,E1 9,E2 9,E3 9,E4 9,E5 9,E6 9}
DECL LOCAL CONST robtarget pBU_6_830={X 4195.34,Y 1881.01,Z 1779.52,A -0.000040294,B -0.876378101,C 94.000448994,S 0,T 1,E1 9,E2 9,E3 9,E4 9,E5 9,E6 9}
DECL LOCAL CONST robtarget pBU_6_840={X 4200.34,Y 1880.7,Z 1779.58,A -0.000040294,B -0.876378101,C 94.000448994,S 0,T 1,E1 9,E2 9,E3 9,E4 9,E5 9,E6 9}
DECL LOCAL CONST robtarget pBU_6_850={X 4205.33,Y 1880.4,Z 1779.64,A -0.000040294,B -0.876378101,C 94.000448994,S 0,T 1,E1 9,E2 9,E3 9,E4 9,E5 9,E6 9}
DECL LOCAL CONST robtarget pBU_6_860={X 4210.32,Y 1880.1,Z 1779.7,A -0.000040294,B -0.876378101,C 94.000448994,S 0,T 1,E1 9,E2 9,E3 9,E4 9,E5 9,E6 9}
DECL LOCAL CONST robtarget pBU_6_870={X 4215.31,Y 1879.79,Z 1779.75,A -0.000040294,B -0.876378101,C 94.000448994,S 0,T 1,E1 9,E2 9,E3 9,E4 9,E5 9,E6 9}
DECL LOCAL CONST robtarget pBU_6_880={X 4220.3,Y 1879.48,Z 1779.81,A -0.000040294,B -0.876378101,C 94.000448994,S 0,T 1,E1 9,E2 9,E3 9,E4 9,E5 9,E6 9}
DECL LOCAL CONST robtarget pBU_6_890={X 4235.27,Y 1878.55,Z 1779.99,A -0.000040294,B -0.876378101,C 94.000448994,S 0,T 1,E1 9,E2 9,E3 9,E4 9,E5 9,E6 9}
DECL LOCAL CONST robtarget pBU_6_900={X 4240.26,Y 1878.24,Z 1780.05,A -0.000040294,B -0.876378101,C 94.000448994,S 0,T 1,E1 9,E2 9,E3 9,E4 9,E5 9,E6 9}
DECL LOCAL CONST robtarget pBU_6_910={X 4245.25,Y 1877.92,Z 1780.11,A -0.000040294,B -0.876378101,C 94.000448994,S 0,T 1,E1 9,E2 9,E3 9,E4 9,E5 9,E6 9}
DECL LOCAL CONST robtarget pBU_6_920={X 4250.24,Y 1877.61,Z 1780.17,A -0.000040294,B -0.876378101,C 94.000448994,S 0,T 1,E1 9,E2 9,E3 9,E4 9,E5 9,E6 9}
DECL LOCAL CONST robtarget pBU_6_930={X 4255.23,Y 1877.27,Z 1780.23,A -0.000040294,B -0.876378101,C 94.000448994,S 0,T 1,E1 9,E2 9,E3 9,E4 9,E5 9,E6 9}
DECL LOCAL CONST robtarget pBU_6_940={X 4260.21,Y 1876.95,Z 1780.28,A -0.000040294,B -0.876378101,C 94.000448994,S 0,T 1,E1 9,E2 9,E3 9,E4 9,E5 9,E6 9}
DECL LOCAL CONST robtarget pBU_6_950={X 4265.19,Y 1876.66,Z 1780.29,A -0.000040294,B -0.876378101,C 94.000448994,S 0,T 1,E1 9,E2 9,E3 9,E4 9,E5 9,E6 9}
DECL LOCAL CONST robtarget pBU_6_960={X 4270.18,Y 1876.33,Z 1780.35,A -0.000040294,B -0.876378101,C 94.000448994,S 0,T 1,E1 9,E2 9,E3 9,E4 9,E5 9,E6 9}
DECL LOCAL CONST robtarget pBU_6_970={X 4275.17,Y 1876,Z 1780.4,A -0.000040294,B -0.876378101,C 94.000448994,S 0,T 1,E1 9,E2 9,E3 9,E4 9,E5 9,E6 9}
DECL LOCAL CONST robtarget pBU_6_980={X 4280.16,Y 1875.67,Z 1780.46,A -0.000040294,B -0.876378101,C 94.000448994,S 0,T 1,E1 9,E2 9,E3 9,E4 9,E5 9,E6 9}
DECL LOCAL CONST robtarget pBU_6_990={X 4285.16,Y 1875.29,Z 1780.56,A -0.000040294,B -0.876378101,C 94.000448994,S 0,T 1,E1 9,E2 9,E3 9,E4 9,E5 9,E6 9}
DECL LOCAL CONST robtarget pBU_6_1000={X 4290.14,Y 1874.99,Z 1780.56,A -0.000040294,B -0.876378101,C 94.000448994,S 0,T 1,E1 9,E2 9,E3 9,E4 9,E5 9,E6 9}
DECL LOCAL CONST robtarget pBU_6_1010={X 4295.12,Y 1874.64,Z 1780.62,A -0.000040294,B -0.876378101,C 94.000448994,S 0,T 1,E1 9,E2 9,E3 9,E4 9,E5 9,E6 9}
DECL LOCAL CONST robtarget pBU_6_1020={X 4305.1,Y 1873.95,Z 1780.73,A -0.000040294,B -0.876378101,C 94.000448994,S 0,T 1,E1 9,E2 9,E3 9,E4 9,E5 9,E6 9}
DECL LOCAL CONST robtarget pBU_6_1030={X 4315.07,Y 1873.24,Z 1780.84,A -0.000040294,B -0.876378101,C 94.000448994,S 0,T 1,E1 9,E2 9,E3 9,E4 9,E5 9,E6 9}
DECL LOCAL CONST robtarget pBU_6_1040={X 4325.05,Y 1872.52,Z 1780.94,A -0.000040294,B -0.876378101,C 94.000448994,S 0,T 1,E1 9,E2 9,E3 9,E4 9,E5 9,E6 9}
DECL LOCAL CONST robtarget pBU_6_1050={X 4330.03,Y 1872.16,Z 1780.99,A -0.000040294,B -0.876378101,C 94.000448994,S 0,T 1,E1 9,E2 9,E3 9,E4 9,E5 9,E6 9}
DECL LOCAL CONST robtarget pBU_6_1060={X 4335.02,Y 1871.8,Z 1781.04,A -0.000040294,B -0.876378101,C 94.000448994,S 0,T 1,E1 9,E2 9,E3 9,E4 9,E5 9,E6 9}
DECL LOCAL CONST robtarget pBU_6_1070={X 4340.01,Y 1871.43,Z 1781.09,A -0.000040294,B -0.876378101,C 94.000448994,S 0,T 1,E1 9,E2 9,E3 9,E4 9,E5 9,E6 9}
DECL LOCAL CONST robtarget pBU_6_1080={X 4344.99,Y 1871.06,Z 1781.14,A -0.000040294,B -0.876378101,C 94.000448994,S 0,T 1,E1 9,E2 9,E3 9,E4 9,E5 9,E6 9}
DECL LOCAL CONST robtarget pBU_6_1090={X 4349.98,Y 1870.68,Z 1781.19,A -0.000040294,B -0.876378101,C 94.000448994,S 0,T 1,E1 9,E2 9,E3 9,E4 9,E5 9,E6 9}
DECL LOCAL CONST robtarget pBU_6_1100={X 4354.96,Y 1870.3,Z 1781.24,A -0.000040294,B -0.876378101,C 94.000448994,S 0,T 1,E1 9,E2 9,E3 9,E4 9,E5 9,E6 9}
DECL LOCAL CONST robtarget pBU_6_1110={X 4359.95,Y 1869.92,Z 1781.29,A -0.000040294,B -0.876378101,C 94.000448994,S 0,T 1,E1 9,E2 9,E3 9,E4 9,E5 9,E6 9}
DECL LOCAL CONST robtarget pBU_6_1120={X 4364.93,Y 1869.54,Z 1781.34,A -0.000040294,B -0.876378101,C 94.000448994,S 0,T 1,E1 9,E2 9,E3 9,E4 9,E5 9,E6 9}
DECL LOCAL CONST robtarget pBU_6_1130={X 4369.92,Y 1869.15,Z 1781.39,A -0.000040294,B -0.876378101,C 94.000448994,S 0,T 1,E1 9,E2 9,E3 9,E4 9,E5 9,E6 9}
DECL LOCAL CONST robtarget pBU_6_1140={X 4374.9,Y 1868.76,Z 1781.43,A -0.000040294,B -0.876378101,C 94.000448994,S 0,T 1,E1 9,E2 9,E3 9,E4 9,E5 9,E6 9}
DECL LOCAL CONST robtarget pBU_6_1150={X 4379.89,Y 1868.36,Z 1781.48,A -0.000040294,B -0.876378101,C 94.000448994,S 0,T 1,E1 9,E2 9,E3 9,E4 9,E5 9,E6 9}
DECL LOCAL CONST robtarget pBU_6_1160={X 4384.87,Y 1867.96,Z 1781.53,A -0.000040294,B -0.876378101,C 94.000448994,S 0,T 1,E1 9,E2 9,E3 9,E4 9,E5 9,E6 9}
DECL LOCAL CONST robtarget pBU_6_1170={X 4389.85,Y 1867.56,Z 1781.57,A -0.000040294,B -0.876378101,C 94.000448994,S 0,T 1,E1 9,E2 9,E3 9,E4 9,E5 9,E6 9}
DECL LOCAL CONST robtarget pBU_6_1180={X 4394.84,Y 1867.16,Z 1781.62,A -0.000040294,B -0.876378101,C 94.000448994,S 0,T 1,E1 9,E2 9,E3 9,E4 9,E5 9,E6 9}
DECL LOCAL CONST robtarget pBU_6_1190={X 4399.82,Y 1866.75,Z 1781.67,A -0.000040294,B -0.876378101,C 94.000448994,S 0,T 1,E1 9,E2 9,E3 9,E4 9,E5 9,E6 9}
DECL LOCAL CONST robtarget pBU_6_1200={X 4404.8,Y 1866.34,Z 1781.71,A -0.000040294,B -0.876378101,C 94.000448994,S 0,T 1,E1 9,E2 9,E3 9,E4 9,E5 9,E6 9}
DECL LOCAL CONST robtarget pBU_6_1210={X 4409.79,Y 1865.92,Z 1781.74,A -0.000040294,B -0.876378101,C 94.000448994,S 0,T 1,E1 9,E2 9,E3 9,E4 9,E5 9,E6 9}
DECL LOCAL CONST robtarget pBU_6_1220={X 4414.77,Y 1865.46,Z 1781.85,A -0.000040294,B -0.876378101,C 94.000448994,S 0,T 1,E1 9,E2 9,E3 9,E4 9,E5 9,E6 9}
DECL LOCAL CONST robtarget pBU_6_1230={X 4419.75,Y 1865.04,Z 1781.89,A -0.000040294,B -0.876378101,C 94.000448994,S 0,T 1,E1 9,E2 9,E3 9,E4 9,E5 9,E6 9}
DECL LOCAL CONST robtarget pBU_6_1240={X 4424.73,Y 1864.61,Z 1781.93,A -0.000040294,B -0.876378101,C 94.000448994,S 0,T 1,E1 9,E2 9,E3 9,E4 9,E5 9,E6 9}
DECL LOCAL CONST robtarget pBU_6_1250={X 4429.71,Y 1864.18,Z 1781.97,A -0.000040294,B -0.876378101,C 94.000448994,S 0,T 1,E1 9,E2 9,E3 9,E4 9,E5 9,E6 9}
DECL LOCAL CONST robtarget pBU_6_1260={X 4434.69,Y 1863.74,Z 1782.01,A -0.000040294,B -0.876378101,C 94.000448994,S 0,T 1,E1 9,E2 9,E3 9,E4 9,E5 9,E6 9}
DECL LOCAL CONST robtarget pBU_6_1270={X 4439.67,Y 1863.3,Z 1782.06,A -0.000040294,B -0.876378101,C 94.000448994,S 0,T 1,E1 9,E2 9,E3 9,E4 9,E5 9,E6 9}
DECL LOCAL CONST robtarget pBU_6_1280={X 4444.65,Y 1862.86,Z 1782.1,A -0.000040294,B -0.876378101,C 94.000448994,S 0,T 1,E1 9,E2 9,E3 9,E4 9,E5 9,E6 9}
DECL LOCAL CONST robtarget pBU_6_1290={X 4449.63,Y 1862.42,Z 1782.14,A -0.000040294,B -0.876378101,C 94.000448994,S 0,T 1,E1 9,E2 9,E3 9,E4 9,E5 9,E6 9}
DECL LOCAL CONST robtarget pBU_6_1300={X 4514.59,Y 1862.43,Z 1783.12,A -0.000000488,B -0.87630041,C 104.000415838,S 0,T 2,E1 9,E2 9,E3 9,E4 9,E5 9,E6 9}
DECL LOCAL CONST robtarget pBU_7_10={X 4633,Y 1926.06,Z 1843.75,A -168.527736181,B -6.775725712,C -54.119956967,S 0,T -1,E1 9000000000,E2 9000000000,E3 9000000000,E4 9000000000,E5 9000000000,E6 9000000000}
DECL LOCAL CONST robtarget pBU_7_20={X 4657.55,Y 1842.39,Z 1906.15,A -168.527705288,B -6.775690423,C -54.119757743,S 0,T -1,E1 9000000000,E2 9000000000,E3 9000000000,E4 9000000000,E5 9000000000,E6 9000000000}
DECL LOCAL CONST robtarget pBU_7_30={X 4590.45,Y 1845.04,Z 1916.3,A -168.526806981,B -6.776058485,C -54.119575416,S 0,T -1,E1 9000000000,E2 9000000000,E3 9000000000,E4 9000000000,E5 9000000000,E6 9000000000}
DECL LOCAL CONST robtarget pBU_7_40={X 4569.5,Y 1847.34,Z 1916.15,A -168.526501104,B -6.776084963,C -54.119509401,S 0,T -1,E1 9000000000,E2 9000000000,E3 9000000000,E4 9000000000,E5 9000000000,E6 9000000000}
DECL LOCAL CONST robtarget pBU_7_50={X 4453.31,Y 1856.32,Z 1917.77,A -168.526882653,B -6.776256708,C -54.119784255,S 0,T -1,E1 9000000000,E2 9000000000,E3 9000000000,E4 9000000000,E5 9000000000,E6 9000000000}
DECL LOCAL CONST robtarget pBU_7_60={X 4356.1,Y 1862.61,Z 1917.1,A -168.526741709,B -6.776288467,C -54.11952545,S 0,T -1,E1 9000000000,E2 9000000000,E3 9000000000,E4 9000000000,E5 9000000000,E6 9000000000}
DECL LOCAL CONST robtarget pBU_7_70={X 4284.09,Y 1864.3,Z 1914.62,A -168.526650008,B -6.776378046,C -54.119074107,S 0,T -1,E1 9000000000,E2 9000000000,E3 9000000000,E4 9000000000,E5 9000000000,E6 9000000000}
DECL LOCAL CONST robtarget pBU_7_80={X 4200.29,Y 1869.97,Z 1915.74,A -168.526525749,B -6.776191874,C -54.119258201,S 0,T -1,E1 9000000000,E2 9000000000,E3 9000000000,E4 9000000000,E5 9000000000,E6 9000000000}
DECL LOCAL CONST robtarget pBU_7_90={X 4104.28,Y 1874.09,Z 1914.92,A -168.526890344,B -6.776611979,C -54.118834355,S 0,T -1,E1 9000000000,E2 9000000000,E3 9000000000,E4 9000000000,E5 9000000000,E6 9000000000}
DECL LOCAL CONST robtarget pBU_7_100={X 3997.14,Y 1877.93,Z 1912.21,A -170.871349762,B -9.963701026,C -53.777398132,S 0,T -1,E1 9000000000,E2 9000000000,E3 9000000000,E4 9000000000,E5 9000000000,E6 9000000000}
DECL LOCAL CONST robtarget pBU_7_110={X 3918.35,Y 1882.76,Z 1912.89,A -170.871296841,B -9.963790124,C -53.777658481,S 0,T -1,E1 9000000000,E2 9000000000,E3 9000000000,E4 9000000000,E5 9000000000,E6 9000000000}
DECL LOCAL CONST robtarget pBU_7_120={X 3821.82,Y 1889.18,Z 1913.34,A -170.870975091,B -9.963763228,C -53.777862748,S 0,T -1,E1 9000000000,E2 9000000000,E3 9000000000,E4 9000000000,E5 9000000000,E6 9000000000}
DECL LOCAL CONST robtarget pBU_7_130={X 3799.52,Y 1886,Z 1910.82,A -170.870379137,B -9.963731878,C -53.77710117,S 0,T -1,E1 9000000000,E2 9000000000,E3 9000000000,E4 9000000000,E5 9000000000,E6 9000000000}
DECL LOCAL CONST robtarget pBU_7_140={X 4571.5,Y 1837.26,Z 1875.98,A -164.075710483,B 2.729812313,C -96.479847187,S 0,T 0,E1 9,E2 9,E3 9,E4 9,E5 9,E6 9}
DECL LOCAL CONST robtarget pBU_7_150={X 4566.54,Y 1837.83,Z 1876.02,A -164.075710483,B 2.729812313,C -96.479847187,S 0,T 0,E1 9,E2 9,E3 9,E4 9,E5 9,E6 9}
DECL LOCAL CONST robtarget pBU_7_160={X 4561.58,Y 1838.48,Z 1876.03,A -164.075710483,B 2.729812313,C -96.479847187,S 0,T 0,E1 9,E2 9,E3 9,E4 9,E5 9,E6 9}
DECL LOCAL CONST robtarget pBU_7_170={X 4556.6,Y 1838.97,Z 1876.02,A -164.075710483,B 2.729812313,C -96.479847187,S 0,T 0,E1 9,E2 9,E3 9,E4 9,E5 9,E6 9}
DECL LOCAL CONST robtarget pBU_7_180={X 4551.63,Y 1839.52,Z 1876.01,A -164.075710483,B 2.729812313,C -96.479847187,S 0,T 0,E1 9,E2 9,E3 9,E4 9,E5 9,E6 9}
DECL LOCAL CONST robtarget pBU_7_190={X 4546.66,Y 1840.07,Z 1876,A -164.075710483,B 2.729812313,C -96.479847187,S 0,T 0,E1 9,E2 9,E3 9,E4 9,E5 9,E6 9}
DECL LOCAL CONST robtarget pBU_7_200={X 4541.69,Y 1840.61,Z 1875.99,A -164.075710483,B 2.729812313,C -96.479847187,S 0,T 0,E1 9,E2 9,E3 9,E4 9,E5 9,E6 9}
DECL LOCAL CONST robtarget pBU_7_210={X 4536.72,Y 1841.15,Z 1875.98,A -164.075710483,B 2.729812313,C -96.479847187,S 0,T 0,E1 9,E2 9,E3 9,E4 9,E5 9,E6 9}
DECL LOCAL CONST robtarget pBU_7_220={X 4531.75,Y 1841.68,Z 1875.97,A -164.075710483,B 2.729812313,C -96.479847187,S 0,T 0,E1 9,E2 9,E3 9,E4 9,E5 9,E6 9}
DECL LOCAL CONST robtarget pBU_7_230={X 4526.78,Y 1842.2,Z 1875.96,A -164.075710483,B 2.729812313,C -96.479847187,S 0,T 0,E1 9,E2 9,E3 9,E4 9,E5 9,E6 9}
DECL LOCAL CONST robtarget pBU_7_240={X 4521.8,Y 1842.71,Z 1875.95,A -164.075710483,B 2.729812313,C -96.479847187,S 0,T 0,E1 9,E2 9,E3 9,E4 9,E5 9,E6 9}
DECL LOCAL CONST robtarget pBU_7_250={X 4516.83,Y 1843.22,Z 1875.94,A -164.075710483,B 2.729812313,C -96.479847187,S 0,T 0,E1 9,E2 9,E3 9,E4 9,E5 9,E6 9}
DECL LOCAL CONST robtarget pBU_7_260={X 4511.85,Y 1843.72,Z 1875.92,A -164.075710483,B 2.729812313,C -96.479847187,S 0,T 0,E1 9,E2 9,E3 9,E4 9,E5 9,E6 9}
DECL LOCAL CONST robtarget pBU_7_270={X 4506.88,Y 1844.22,Z 1875.91,A -164.075710483,B 2.729812313,C -96.479847187,S 0,T 0,E1 9,E2 9,E3 9,E4 9,E5 9,E6 9}
DECL LOCAL CONST robtarget pBU_7_280={X 4501.9,Y 1844.71,Z 1875.89,A -164.075710483,B 2.729812313,C -96.479847187,S 0,T 0,E1 9,E2 9,E3 9,E4 9,E5 9,E6 9}
DECL LOCAL CONST robtarget pBU_7_290={X 4496.93,Y 1845.2,Z 1875.88,A -164.075710483,B 2.729812313,C -96.479847187,S 0,T 0,E1 9,E2 9,E3 9,E4 9,E5 9,E6 9}
DECL LOCAL CONST robtarget pBU_7_300={X 4491.95,Y 1845.68,Z 1875.86,A -164.075710483,B 2.729812313,C -96.479847187,S 0,T 0,E1 9,E2 9,E3 9,E4 9,E5 9,E6 9}
DECL LOCAL CONST robtarget pBU_7_310={X 4486.97,Y 1846.16,Z 1875.84,A -164.075710483,B 2.729812313,C -96.479847187,S 0,T 0,E1 9,E2 9,E3 9,E4 9,E5 9,E6 9}
DECL LOCAL CONST robtarget pBU_7_320={X 4482,Y 1846.63,Z 1875.82,A -164.075710483,B 2.729812313,C -96.479847187,S 0,T 0,E1 9,E2 9,E3 9,E4 9,E5 9,E6 9}
DECL LOCAL CONST robtarget pBU_7_330={X 4477.02,Y 1847.1,Z 1875.8,A -164.075710483,B 2.729812313,C -96.479847187,S 0,T 0,E1 9,E2 9,E3 9,E4 9,E5 9,E6 9}
DECL LOCAL CONST robtarget pBU_7_340={X 4472.04,Y 1847.56,Z 1875.78,A -164.075710483,B 2.729812313,C -96.479847187,S 0,T 0,E1 9,E2 9,E3 9,E4 9,E5 9,E6 9}
DECL LOCAL CONST robtarget pBU_7_350={X 4467.06,Y 1848.02,Z 1875.76,A -164.075710483,B 2.729812313,C -96.479847187,S 0,T 0,E1 9,E2 9,E3 9,E4 9,E5 9,E6 9}
DECL LOCAL CONST robtarget pBU_7_360={X 4462.08,Y 1848.48,Z 1875.69,A -164.075710483,B 2.729812313,C -96.479847187,S 0,T 0,E1 9,E2 9,E3 9,E4 9,E5 9,E6 9}
DECL LOCAL CONST robtarget pBU_7_370={X 4457.1,Y 1848.9,Z 1875.72,A -164.075710483,B 2.729812313,C -96.479847187,S 0,T 0,E1 9,E2 9,E3 9,E4 9,E5 9,E6 9}
DECL LOCAL CONST robtarget pBU_7_380={X 4452.12,Y 1849.33,Z 1875.69,A -164.075710483,B 2.729812313,C -96.479847187,S 0,T 0,E1 9,E2 9,E3 9,E4 9,E5 9,E6 9}
DECL LOCAL CONST robtarget pBU_7_390={X 4447.14,Y 1849.75,Z 1875.67,A -164.075710483,B 2.729812313,C -96.479847187,S 0,T 0,E1 9,E2 9,E3 9,E4 9,E5 9,E6 9}
DECL LOCAL CONST robtarget pBU_7_400={X 4442.15,Y 1850.16,Z 1875.64,A -164.075710483,B 2.729812313,C -96.479847187,S 0,T 0,E1 9,E2 9,E3 9,E4 9,E5 9,E6 9}
DECL LOCAL CONST robtarget pBU_7_410={X 4437.17,Y 1850.58,Z 1875.62,A -164.075710483,B 2.729812313,C -96.479847187,S 0,T 0,E1 9,E2 9,E3 9,E4 9,E5 9,E6 9}
DECL LOCAL CONST robtarget pBU_7_420={X 4432.19,Y 1850.98,Z 1875.59,A -164.075710483,B 2.729812313,C -96.479847187,S 0,T 0,E1 9,E2 9,E3 9,E4 9,E5 9,E6 9}
DECL LOCAL CONST robtarget pBU_7_430={X 4427.2,Y 1851.39,Z 1875.56,A -164.075710483,B 2.729812313,C -96.479847187,S 0,T 0,E1 9,E2 9,E3 9,E4 9,E5 9,E6 9}
DECL LOCAL CONST robtarget pBU_7_440={X 4422.22,Y 1851.79,Z 1875.53,A -164.075710483,B 2.729812313,C -96.479847187,S 0,T 0,E1 9,E2 9,E3 9,E4 9,E5 9,E6 9}
DECL LOCAL CONST robtarget pBU_7_450={X 4417.24,Y 1852.18,Z 1875.5,A -164.075710483,B 2.729812313,C -96.479847187,S 0,T 0,E1 9,E2 9,E3 9,E4 9,E5 9,E6 9}
DECL LOCAL CONST robtarget pBU_7_460={X 4412.25,Y 1852.57,Z 1875.47,A -164.075710483,B 2.729812313,C -96.479847187,S 0,T 0,E1 9,E2 9,E3 9,E4 9,E5 9,E6 9}
DECL LOCAL CONST robtarget pBU_7_470={X 4407.27,Y 1852.96,Z 1875.44,A -164.075710483,B 2.729812313,C -96.479847187,S 0,T 0,E1 9,E2 9,E3 9,E4 9,E5 9,E6 9}
DECL LOCAL CONST robtarget pBU_7_480={X 4402.28,Y 1853.35,Z 1875.41,A -164.075710483,B 2.729812313,C -96.479847187,S 0,T 0,E1 9,E2 9,E3 9,E4 9,E5 9,E6 9}
DECL LOCAL CONST robtarget pBU_7_490={X 4397.3,Y 1853.73,Z 1875.38,A -164.075710483,B 2.729812313,C -96.479847187,S 0,T 0,E1 9,E2 9,E3 9,E4 9,E5 9,E6 9}
DECL LOCAL CONST robtarget pBU_7_500={X 4387.32,Y 1854.47,Z 1875.31,A -164.075710483,B 2.729812313,C -96.479847187,S 0,T 0,E1 9,E2 9,E3 9,E4 9,E5 9,E6 9}
DECL LOCAL CONST robtarget pBU_7_510={X 4382.34,Y 1854.84,Z 1875.28,A -164.075710483,B 2.729812313,C -96.479847187,S 0,T 0,E1 9,E2 9,E3 9,E4 9,E5 9,E6 9}
DECL LOCAL CONST robtarget pBU_7_520={X 4377.35,Y 1855.21,Z 1875.25,A -164.075710483,B 2.729812313,C -96.479847187,S 0,T 0,E1 9,E2 9,E3 9,E4 9,E5 9,E6 9}
DECL LOCAL CONST robtarget pBU_7_530={X 4372.36,Y 1855.57,Z 1875.21,A -164.075710483,B 2.729812313,C -96.479847187,S 0,T 0,E1 9,E2 9,E3 9,E4 9,E5 9,E6 9}
DECL LOCAL CONST robtarget pBU_7_540={X 4367.38,Y 1855.94,Z 1875.12,A -164.075710483,B 2.729812313,C -96.479847187,S 0,T 0,E1 9,E2 9,E3 9,E4 9,E5 9,E6 9}
DECL LOCAL CONST robtarget pBU_7_550={X 4362.39,Y 1856.28,Z 1875.14,A -164.075710483,B 2.729812313,C -96.479847187,S 0,T 0,E1 9,E2 9,E3 9,E4 9,E5 9,E6 9}
DECL LOCAL CONST robtarget pBU_7_560={X 4357.4,Y 1856.64,Z 1875.1,A -164.075710483,B 2.729812313,C -96.479847187,S 0,T 0,E1 9,E2 9,E3 9,E4 9,E5 9,E6 9}
DECL LOCAL CONST robtarget pBU_7_570={X 4317.5,Y 1859.34,Z 1874.8,A -164.075710483,B 2.729812313,C -96.479847187,S 0,T 0,E1 9,E2 9,E3 9,E4 9,E5 9,E6 9}
DECL LOCAL CONST robtarget pBU_7_580={X 4312.51,Y 1859.66,Z 1874.76,A -164.075710483,B 2.729812313,C -96.479847187,S 0,T 0,E1 9,E2 9,E3 9,E4 9,E5 9,E6 9}
DECL LOCAL CONST robtarget pBU_7_590={X 4302.53,Y 1860.3,Z 1874.67,A -164.075710483,B 2.729812313,C -96.479847187,S 0,T 0,E1 9,E2 9,E3 9,E4 9,E5 9,E6 9}
DECL LOCAL CONST robtarget pBU_7_600={X 4292.55,Y 1860.93,Z 1874.59,A -164.075710483,B 2.729812313,C -96.479847187,S 0,T 0,E1 9,E2 9,E3 9,E4 9,E5 9,E6 9}
DECL LOCAL CONST robtarget pBU_7_610={X 4287.56,Y 1861.24,Z 1874.55,A -164.075710483,B 2.729812313,C -96.479847187,S 0,T 0,E1 9,E2 9,E3 9,E4 9,E5 9,E6 9}
DECL LOCAL CONST robtarget pBU_7_620={X 4282.57,Y 1861.54,Z 1874.55,A -164.075710483,B 2.729812313,C -96.479847187,S 0,T 0,E1 9,E2 9,E3 9,E4 9,E5 9,E6 9}
DECL LOCAL CONST robtarget pBU_7_630={X 4277.58,Y 1861.85,Z 1874.46,A -164.075710483,B 2.729812313,C -96.479847187,S 0,T 0,E1 9,E2 9,E3 9,E4 9,E5 9,E6 9}
DECL LOCAL CONST robtarget pBU_7_640={X 4272.59,Y 1862.14,Z 1874.46,A -164.075710483,B 2.729812313,C -96.479847187,S 0,T 0,E1 9,E2 9,E3 9,E4 9,E5 9,E6 9}
DECL LOCAL CONST robtarget pBU_7_650={X 4267.59,Y 1862.44,Z 1874.42,A -164.075710483,B 2.729812313,C -96.479847187,S 0,T 0,E1 9,E2 9,E3 9,E4 9,E5 9,E6 9}
DECL LOCAL CONST robtarget pBU_7_660={X 4262.6,Y 1862.74,Z 1874.37,A -164.075710483,B 2.729812313,C -96.479847187,S 0,T 0,E1 9,E2 9,E3 9,E4 9,E5 9,E6 9}
DECL LOCAL CONST robtarget pBU_7_670={X 4257.61,Y 1863.04,Z 1874.32,A -164.075710483,B 2.729812313,C -96.479847187,S 0,T 0,E1 9,E2 9,E3 9,E4 9,E5 9,E6 9}
DECL LOCAL CONST robtarget pBU_7_680={X 4252.62,Y 1863.33,Z 1874.28,A -164.075710483,B 2.729812313,C -96.479847187,S 0,T 0,E1 9,E2 9,E3 9,E4 9,E5 9,E6 9}
DECL LOCAL CONST robtarget pBU_7_690={X 4247.63,Y 1863.63,Z 1874.19,A -164.075710483,B 2.729812313,C -96.479847187,S 0,T 0,E1 9,E2 9,E3 9,E4 9,E5 9,E6 9}
DECL LOCAL CONST robtarget pBU_7_700={X 4242.64,Y 1863.91,Z 1874.14,A -164.075710483,B 2.729812313,C -96.479847187,S 0,T 0,E1 9,E2 9,E3 9,E4 9,E5 9,E6 9}
DECL LOCAL CONST robtarget pBU_7_710={X 4237.65,Y 1864.2,Z 1874.09,A -164.075710483,B 2.729812313,C -96.479847187,S 0,T 0,E1 9,E2 9,E3 9,E4 9,E5 9,E6 9}
DECL LOCAL CONST robtarget pBU_7_720={X 4232.65,Y 1864.48,Z 1874.04,A -164.075710483,B 2.729812313,C -96.479847187,S 0,T 0,E1 9,E2 9,E3 9,E4 9,E5 9,E6 9}
DECL LOCAL CONST robtarget pBU_7_730={X 4227.66,Y 1864.76,Z 1874,A -164.075710483,B 2.729812313,C -96.479847187,S 0,T 0,E1 9,E2 9,E3 9,E4 9,E5 9,E6 9}
DECL LOCAL CONST robtarget pBU_7_740={X 4222.67,Y 1865.04,Z 1873.95,A -164.075710483,B 2.729812313,C -96.479847187,S 0,T 0,E1 9,E2 9,E3 9,E4 9,E5 9,E6 9}
DECL LOCAL CONST robtarget pBU_7_750={X 4217.68,Y 1865.3,Z 1873.95,A -164.075710483,B 2.729812313,C -96.479847187,S 0,T 0,E1 9,E2 9,E3 9,E4 9,E5 9,E6 9}
DECL LOCAL CONST robtarget pBU_7_760={X 4212.69,Y 1865.59,Z 1873.85,A -164.075710483,B 2.729812313,C -96.479847187,S 0,T 0,E1 9,E2 9,E3 9,E4 9,E5 9,E6 9}
DECL LOCAL CONST robtarget pBU_7_770={X 4207.69,Y 1865.86,Z 1873.8,A -164.075710483,B 2.729812313,C -96.479847187,S 0,T 0,E1 9,E2 9,E3 9,E4 9,E5 9,E6 9}
DECL LOCAL CONST robtarget pBU_7_780={X 4202.7,Y 1866.13,Z 1873.75,A -164.075710483,B 2.729812313,C -96.479847187,S 0,T 0,E1 9,E2 9,E3 9,E4 9,E5 9,E6 9}
DECL LOCAL CONST robtarget pBU_7_790={X 4197.71,Y 1866.39,Z 1873.7,A -164.075710483,B 2.729812313,C -96.479847187,S 0,T 0,E1 9,E2 9,E3 9,E4 9,E5 9,E6 9}
DECL LOCAL CONST robtarget pBU_7_800={X 4192.72,Y 1866.66,Z 1873.65,A -164.075710483,B 2.729812313,C -96.479847187,S 0,T 0,E1 9,E2 9,E3 9,E4 9,E5 9,E6 9}
DECL LOCAL CONST robtarget pBU_7_810={X 4187.72,Y 1866.92,Z 1873.6,A -164.075710483,B 2.729812313,C -96.479847187,S 0,T 0,E1 9,E2 9,E3 9,E4 9,E5 9,E6 9}
DECL LOCAL CONST robtarget pBU_7_820={X 4182.73,Y 1867.17,Z 1873.59,A -164.075710483,B 2.729812313,C -96.479847187,S 0,T 0,E1 9,E2 9,E3 9,E4 9,E5 9,E6 9}
DECL LOCAL CONST robtarget pBU_7_830={X 4177.74,Y 1867.43,Z 1873.54,A -164.075710483,B 2.729812313,C -96.479847187,S 0,T 0,E1 9,E2 9,E3 9,E4 9,E5 9,E6 9}
DECL LOCAL CONST robtarget pBU_7_840={X 4172.74,Y 1867.69,Z 1873.49,A -164.075710483,B 2.729812313,C -96.479847187,S 0,T 0,E1 9,E2 9,E3 9,E4 9,E5 9,E6 9}
DECL LOCAL CONST robtarget pBU_7_850={X 4167.75,Y 1867.94,Z 1873.44,A -164.075710483,B 2.729812313,C -96.479847187,S 0,T 0,E1 9,E2 9,E3 9,E4 9,E5 9,E6 9}
DECL LOCAL CONST robtarget pBU_7_860={X 4162.76,Y 1868.2,Z 1873.39,A -164.075710483,B 2.729812313,C -96.479847187,S 0,T 0,E1 9,E2 9,E3 9,E4 9,E5 9,E6 9}
DECL LOCAL CONST robtarget pBU_7_870={X 4157.76,Y 1868.46,Z 1873.28,A -164.075710483,B 2.729812313,C -96.479847187,S 0,T 0,E1 9,E2 9,E3 9,E4 9,E5 9,E6 9}
DECL LOCAL CONST robtarget pBU_7_880={X 4152.77,Y 1868.69,Z 1873.28,A -164.075710483,B 2.729812313,C -96.479847187,S 0,T 0,E1 9,E2 9,E3 9,E4 9,E5 9,E6 9}
DECL LOCAL CONST robtarget pBU_7_890={X 4147.78,Y 1868.95,Z 1873.18,A -164.075710483,B 2.729812313,C -96.479847187,S 0,T 0,E1 9,E2 9,E3 9,E4 9,E5 9,E6 9}
DECL LOCAL CONST robtarget pBU_7_900={X 4142.78,Y 1869.2,Z 1873.12,A -164.075710483,B 2.729812313,C -96.479847187,S 0,T 0,E1 9,E2 9,E3 9,E4 9,E5 9,E6 9}
DECL LOCAL CONST robtarget pBU_7_910={X 4137.79,Y 1869.44,Z 1873.07,A -164.075710483,B 2.729812313,C -96.479847187,S 0,T 0,E1 9,E2 9,E3 9,E4 9,E5 9,E6 9}
DECL LOCAL CONST robtarget pBU_7_920={X 4132.8,Y 1869.68,Z 1873.01,A -164.075710483,B 2.729812313,C -96.479847187,S 0,T 0,E1 9,E2 9,E3 9,E4 9,E5 9,E6 9}
DECL LOCAL CONST robtarget pBU_7_930={X 4127.8,Y 1869.92,Z 1872.96,A -164.075710483,B 2.729812313,C -96.479847187,S 0,T 0,E1 9,E2 9,E3 9,E4 9,E5 9,E6 9}
DECL LOCAL CONST robtarget pBU_7_940={X 4107.83,Y 1870.86,Z 1872.73,A -164.075710483,B 2.729812313,C -96.479847187,S 0,T 0,E1 9,E2 9,E3 9,E4 9,E5 9,E6 9}
DECL LOCAL CONST robtarget pBU_7_950={X 4102.83,Y 1871.09,Z 1872.68,A -164.075710483,B 2.729812313,C -96.479847187,S 0,T 0,E1 9,E2 9,E3 9,E4 9,E5 9,E6 9}
DECL LOCAL CONST robtarget pBU_7_960={X 4097.84,Y 1871.32,Z 1872.66,A -164.075710483,B 2.729812313,C -96.479847187,S 0,T 0,E1 9,E2 9,E3 9,E4 9,E5 9,E6 9}
DECL LOCAL CONST robtarget pBU_7_970={X 4092.84,Y 1871.54,Z 1872.61,A -164.075710483,B 2.729812313,C -96.479847187,S 0,T 0,E1 9,E2 9,E3 9,E4 9,E5 9,E6 9}
DECL LOCAL CONST robtarget pBU_7_980={X 4087.85,Y 1871.77,Z 1872.55,A -164.075710483,B 2.729812313,C -96.479847187,S 0,T 0,E1 9,E2 9,E3 9,E4 9,E5 9,E6 9}
DECL LOCAL CONST robtarget pBU_7_990={X 4082.85,Y 1871.99,Z 1872.49,A -164.075710483,B 2.729812313,C -96.479847187,S 0,T 0,E1 9,E2 9,E3 9,E4 9,E5 9,E6 9}
DECL LOCAL CONST robtarget pBU_7_1000={X 4077.86,Y 1872.21,Z 1872.43,A -164.075710483,B 2.729812313,C -96.479847187,S 0,T 0,E1 9,E2 9,E3 9,E4 9,E5 9,E6 9}
DECL LOCAL CONST robtarget pBU_7_1010={X 4072.86,Y 1872.46,Z 1872.27,A -164.075710483,B 2.729812313,C -96.479847187,S 0,T 0,E1 9,E2 9,E3 9,E4 9,E5 9,E6 9}
DECL LOCAL CONST robtarget pBU_7_1020={X 4067.87,Y 1872.67,Z 1872.27,A -164.075710483,B 2.729812313,C -96.479847187,S 0,T 0,E1 9,E2 9,E3 9,E4 9,E5 9,E6 9}
DECL LOCAL CONST robtarget pBU_7_1030={X 4062.87,Y 1872.88,Z 1872.21,A -164.075710483,B 2.729812313,C -96.479847187,S 0,T 0,E1 9,E2 9,E3 9,E4 9,E5 9,E6 9}
DECL LOCAL CONST robtarget pBU_7_1040={X 4057.88,Y 1873.1,Z 1872.15,A -164.075710483,B 2.729812313,C -96.479847187,S 0,T 0,E1 9,E2 9,E3 9,E4 9,E5 9,E6 9}
DECL LOCAL CONST robtarget pBU_7_1050={X 4052.88,Y 1873.32,Z 1872.09,A -164.075710483,B 2.729812313,C -96.479847187,S 0,T 0,E1 9,E2 9,E3 9,E4 9,E5 9,E6 9}
DECL LOCAL CONST robtarget pBU_7_1060={X 4047.89,Y 1873.53,Z 1872.03,A -164.075710483,B 2.729812313,C -96.479847187,S 0,T 0,E1 9,E2 9,E3 9,E4 9,E5 9,E6 9}
DECL LOCAL CONST robtarget pBU_7_1070={X 4042.89,Y 1873.74,Z 1871.97,A -164.075710483,B 2.729812313,C -96.479847187,S 0,T 0,E1 9,E2 9,E3 9,E4 9,E5 9,E6 9}
DECL LOCAL CONST robtarget pBU_7_1080={X 4037.9,Y 1873.94,Z 1871.95,A -164.075710483,B 2.729812313,C -96.479847187,S 0,T 0,E1 9,E2 9,E3 9,E4 9,E5 9,E6 9}
DECL LOCAL CONST robtarget pBU_7_1090={X 4032.9,Y 1874.16,Z 1871.84,A -164.075710483,B 2.729812313,C -96.479847187,S 0,T 0,E1 9,E2 9,E3 9,E4 9,E5 9,E6 9}
DECL LOCAL CONST robtarget pBU_7_1100={X 4027.91,Y 1874.37,Z 1871.78,A -164.075710483,B 2.729812313,C -96.479847187,S 0,T 0,E1 9,E2 9,E3 9,E4 9,E5 9,E6 9}
DECL LOCAL CONST robtarget pBU_7_1110={X 4022.91,Y 1874.58,Z 1871.72,A -164.075710483,B 2.729812313,C -96.479847187,S 0,T 0,E1 9,E2 9,E3 9,E4 9,E5 9,E6 9}
DECL LOCAL CONST robtarget pBU_7_1120={X 4017.92,Y 1874.78,Z 1871.66,A -164.075710483,B 2.729812313,C -96.479847187,S 0,T 0,E1 9,E2 9,E3 9,E4 9,E5 9,E6 9}
DECL LOCAL CONST robtarget pBU_7_1130={X 4012.92,Y 1874.99,Z 1871.59,A -164.075710483,B 2.729812313,C -96.479847187,S 0,T 0,E1 9,E2 9,E3 9,E4 9,E5 9,E6 9}
DECL LOCAL CONST robtarget pBU_7_1140={X 4007.93,Y 1875.19,Z 1871.53,A -164.075710483,B 2.729812313,C -96.479847187,S 0,T 0,E1 9,E2 9,E3 9,E4 9,E5 9,E6 9}
DECL LOCAL CONST robtarget pBU_7_1150={X 4002.93,Y 1875.39,Z 1871.47,A -164.075710483,B 2.729812313,C -96.479847187,S 0,T 0,E1 9,E2 9,E3 9,E4 9,E5 9,E6 9}
DECL LOCAL CONST robtarget pBU_7_1160={X 3997.93,Y 1875.59,Z 1871.4,A -164.075710483,B 2.729812313,C -96.479847187,S 0,T 0,E1 9,E2 9,E3 9,E4 9,E5 9,E6 9}
DECL LOCAL CONST robtarget pBU_7_1170={X 3992.94,Y 1875.79,Z 1871.34,A -164.075710483,B 2.729812313,C -96.479847187,S 0,T 0,E1 9,E2 9,E3 9,E4 9,E5 9,E6 9}
DECL LOCAL CONST robtarget pBU_7_1180={X 3987.94,Y 1875.99,Z 1871.27,A -164.075710483,B 2.729812313,C -96.479847187,S 0,T 0,E1 9,E2 9,E3 9,E4 9,E5 9,E6 9}
DECL LOCAL CONST robtarget pBU_7_1190={X 3982.95,Y 1876.18,Z 1871.21,A -164.075710483,B 2.729812313,C -96.479847187,S 0,T 0,E1 9,E2 9,E3 9,E4 9,E5 9,E6 9}
DECL LOCAL CONST robtarget pBU_7_1200={X 3977.95,Y 1876.38,Z 1871.15,A -164.075710483,B 2.729812313,C -96.479847187,S 0,T 0,E1 9,E2 9,E3 9,E4 9,E5 9,E6 9}
DECL LOCAL CONST robtarget pBU_7_1210={X 3972.96,Y 1876.57,Z 1871.08,A -164.075710483,B 2.729812313,C -96.479847187,S 0,T 0,E1 9,E2 9,E3 9,E4 9,E5 9,E6 9}
DECL LOCAL CONST robtarget pBU_7_1220={X 3957.97,Y 1877.14,Z 1870.89,A -164.075710483,B 2.729812313,C -96.479847187,S 0,T 0,E1 9,E2 9,E3 9,E4 9,E5 9,E6 9}
DECL LOCAL CONST robtarget pBU_7_1230={X 3952.97,Y 1877.33,Z 1870.82,A -164.075710483,B 2.729812313,C -96.479847187,S 0,T 0,E1 9,E2 9,E3 9,E4 9,E5 9,E6 9}
DECL LOCAL CONST robtarget pBU_7_1240={X 3927.99,Y 1878.26,Z 1870.49,A -164.075710483,B 2.729812313,C -96.479847187,S 0,T 0,E1 9,E2 9,E3 9,E4 9,E5 9,E6 9}
DECL LOCAL CONST robtarget pBU_7_1250={X 3923,Y 1878.44,Z 1870.42,A -164.075710483,B 2.729812313,C -96.479847187,S 0,T 0,E1 9,E2 9,E3 9,E4 9,E5 9,E6 9}
DECL LOCAL CONST robtarget pBU_7_1260={X 3918,Y 1878.62,Z 1870.36,A -164.075710483,B 2.729812313,C -96.479847187,S 0,T 0,E1 9,E2 9,E3 9,E4 9,E5 9,E6 9}
DECL LOCAL CONST robtarget pBU_7_1270={X 3913,Y 1878.79,Z 1870.34,A -164.075710483,B 2.729812313,C -96.479847187,S 0,T 0,E1 9,E2 9,E3 9,E4 9,E5 9,E6 9}
DECL LOCAL CONST robtarget pBU_7_1280={X 3903.01,Y 1879.14,Z 1870.2,A -164.075710483,B 2.729812313,C -96.479847187,S 0,T 0,E1 9,E2 9,E3 9,E4 9,E5 9,E6 9}
DECL LOCAL CONST robtarget pBU_7_1290={X 3843.05,Y 1881.2,Z 1869.3,A -164.075710483,B 2.729812313,C -96.479847187,S 0,T 0,E1 9,E2 9,E3 9,E4 9,E5 9,E6 9}
DECL LOCAL CONST robtarget pBU_7_1300={X 3833.06,Y 1881.52,Z 1869.22,A -164.075710483,B 2.729812313,C -96.479847187,S 0,T 0,E1 9,E2 9,E3 9,E4 9,E5 9,E6 9}
DECL LOCAL CONST robtarget pBU_7_1310={X 3828.06,Y 1881.68,Z 1869.15,A -164.075710483,B 2.729812313,C -96.479847187,S 0,T 0,E1 9,E2 9,E3 9,E4 9,E5 9,E6 9}
DECL LOCAL CONST robtarget pBU_7_1320={X 3823.06,Y 1881.84,Z 1869.07,A -164.075710483,B 2.729812313,C -96.479847187,S 0,T 0,E1 9,E2 9,E3 9,E4 9,E5 9,E6 9}
DECL LOCAL CONST robtarget pBU_7_1330={X 3818.07,Y 1882,Z 1869,A -164.075710483,B 2.729812313,C -96.479847187,S 0,T 0,E1 9,E2 9,E3 9,E4 9,E5 9,E6 9}
DECL LOCAL CONST robtarget pBU_7_1340={X 3813.07,Y 1882.16,Z 1868.93,A -164.075710483,B 2.729812313,C -96.479847187,S 0,T 0,E1 9,E2 9,E3 9,E4 9,E5 9,E6 9}
DECL LOCAL CONST robtarget pBU_7_1350={X 3806.92,Y 1882.39,Z 1868.81,A -164.075710483,B 2.729812313,C -96.479847187,S 0,T 0,E1 9,E2 9,E3 9,E4 9,E5 9,E6 9}
DECL LOCAL CONST robtarget pBU_7_1360={X 3801.93,Y 1882.56,Z 1868.69,A -164.075710483,B 2.729812313,C -96.479847187,S 0,T 0,E1 9,E2 9,E3 9,E4 9,E5 9,E6 9}
DECL LOCAL CONST robtarget pBU_7_1370={X 3798.08,Y 1882.64,Z 1868.66,A -164.075710483,B 2.729812313,C -96.479847187,S 0,T 0,E1 9,E2 9,E3 9,E4 9,E5 9,E6 9}
DECL LOCAL CONST robtarget pBU_7_1380={X 3793.08,Y 1882.8,Z 1868.59,A -164.075710483,B 2.729812313,C -96.479847187,S 0,T 0,E1 9,E2 9,E3 9,E4 9,E5 9,E6 9}
DECL LOCAL CONST robtarget pBU_7_1390={X 3786.92,Y 1883,Z 1868.55,A -164.075710483,B 2.729812313,C -96.479847187,S 0,T 0,E1 9,E2 9,E3 9,E4 9,E5 9,E6 9}
DECL LOCAL CONST robtarget pBU_7_1400={X 3764.28,Y 2024.39,Z 1837.72,A -170.870467662,B -9.963800649,C -53.777038684,S 0,T -2,E1 9000000000,E2 9000000000,E3 9000000000,E4 9000000000,E5 9000000000,E6 9000000000}
DECL LOCAL CONST robtarget pBU_8_10={X 3760.68,Y 1879.72,Z 1867.47,A -164.075710483,B 2.729812313,C -96.479847187,S 0,T 0,E1 9,E2 9,E3 9,E4 9,E5 9,E6 9}
DECL LOCAL CONST robtarget pBU_8_20={X 3755.7,Y 1879.87,Z 1867.39,A -164.075710483,B 2.729812313,C -96.479847187,S 0,T 0,E1 9,E2 9,E3 9,E4 9,E5 9,E6 9}
DECL LOCAL CONST robtarget pBU_8_30={X 3745.7,Y 1880.17,Z 1867.24,A -164.075710483,B 2.729812313,C -96.479847187,S 0,T 0,E1 9,E2 9,E3 9,E4 9,E5 9,E6 9}
DECL LOCAL CONST robtarget pBU_8_40={X 3740.7,Y 1880.31,Z 1867.17,A -164.075710483,B 2.729812313,C -96.479847187,S 0,T 0,E1 9,E2 9,E3 9,E4 9,E5 9,E6 9}
DECL LOCAL CONST robtarget pBU_9_10={X 3710.72,Y 1881.27,Z 1866.67,A -164.075710483,B 2.729812313,C -96.479847187,S 0,T 0,E1 9,E2 9,E3 9,E4 9,E5 9,E6 9}
DECL LOCAL CONST robtarget pBU_9_20={X 3705.74,Y 1881.41,Z 1866.6,A -164.075710483,B 2.729812313,C -96.479847187,S 0,T 0,E1 9,E2 9,E3 9,E4 9,E5 9,E6 9}
DECL LOCAL CONST robtarget pBU_9_30={X 3700.74,Y 1881.55,Z 1866.52,A -164.075710483,B 2.729812313,C -96.479847187,S 0,T 0,E1 9,E2 9,E3 9,E4 9,E5 9,E6 9}
DECL LOCAL CONST robtarget pBU_9_40={X 3695.74,Y 1881.69,Z 1866.44,A -164.075710483,B 2.729812313,C -96.479847187,S 0,T 0,E1 9,E2 9,E3 9,E4 9,E5 9,E6 9}
DECL LOCAL CONST robtarget pBU_9_50={X 3690.74,Y 1881.83,Z 1866.37,A -164.075710483,B 2.729812313,C -96.479847187,S 0,T 0,E1 9,E2 9,E3 9,E4 9,E5 9,E6 9}
DECL LOCAL CONST robtarget pBU_9_60={X 3650.79,Y 1881.85,Z 1865.64,A -164.075710483,B 2.729812313,C -96.479847187,S 0,T 0,E1 9,E2 9,E3 9,E4 9,E5 9,E6 9}
DECL LOCAL CONST robtarget pBU_9_70={X 3626.81,Y 1907.04,Z 1868.37,A -164.075710483,B 2.729812313,C -96.479847187,S 0,T 1,E1 9,E2 9,E3 9,E4 9,E5 9,E6 9}
DECL LOCAL CONST robtarget pBU_10_10={X 4517.16,Y 1603.97,Z 2517.45,A -96.120149588,B -38.011485061,C 92.566744513,S 0,T 2,E1 9,E2 9,E3 9,E4 9,E5 9,E6 9}
DECL LOCAL CONST robtarget pBU_10_20={X 4522.34,Y 1625.57,Z 2500.37,A -103.683473727,B -37.499727396,C 97.202003779,S 0,T 2,E1 9,E2 9,E3 9,E4 9,E5 9,E6 9}
DECL LOCAL CONST robtarget pBU_10_30={X 4525.73,Y 1639.51,Z 2489.35,A -103.683473727,B -37.499727396,C 97.202003779,S 0,T 2,E1 9,E2 9,E3 9,E4 9,E5 9,E6 9}
DECL LOCAL CONST robtarget pBU_10_40={X 4528,Y 1648.8,Z 2482.02,A -103.683473727,B -37.499727396,C 97.202003779,S 0,T 2,E1 9,E2 9,E3 9,E4 9,E5 9,E6 9}
DECL LOCAL CONST robtarget pBU_10_50={X 4528.88,Y 1652.64,Z 2478.94,A -104.078059101,B -39.09862168,C 97.568038997,S 0,T 2,E1 9,E2 9,E3 9,E4 9,E5 9,E6 9}
DECL LOCAL CONST robtarget pBU_10_60={X 4529.86,Y 1656.4,Z 2475.79,A -104.2968541,B -39.024196886,C 98.070302657,S 0,T 2,E1 9,E2 9,E3 9,E4 9,E5 9,E6 9}
DECL LOCAL CONST robtarget pBU_10_70={X 4530.93,Y 1660.06,Z 2472.56,A -105.018844055,B -41.715409995,C 98.961449186,S 0,T 2,E1 9,E2 9,E3 9,E4 9,E5 9,E6 9}
DECL LOCAL CONST robtarget pBU_10_80={X 4532.07,Y 1662.95,Z 2468.53,A -105.507689196,B -41.571810286,C 100.419675473,S 0,T 2,E1 9,E2 9,E3 9,E4 9,E5 9,E6 9}
DECL LOCAL CONST robtarget pBU_10_90={X 4533.28,Y 1666.43,Z 2465.19,A -106.179770852,B -43.608287116,C 101.178594374,S 0,T 2,E1 9,E2 9,E3 9,E4 9,E5 9,E6 9}
DECL LOCAL CONST robtarget pBU_10_100={X 4534.57,Y 1669.82,Z 2461.78,A -107.30777659,B -44.61855176,C 103.860654152,S 0,T 2,E1 9,E2 9,E3 9,E4 9,E5 9,E6 9}
DECL LOCAL CONST robtarget pBU_10_110={X 4535.89,Y 1672.38,Z 2457.65,A -108.21938115,B -46.5327716,C 105.052752563,S 0,T 2,E1 9,E2 9,E3 9,E4 9,E5 9,E6 9}
DECL LOCAL CONST robtarget pBU_10_120={X 4537.25,Y 1675.54,Z 2454.09,A -109.442381429,B -47.837248173,C 107.360796081,S 0,T 2,E1 9,E2 9,E3 9,E4 9,E5 9,E6 9}
DECL LOCAL CONST robtarget pBU_10_130={X 4539.65,Y 1677.59,Z 2450.01,A -111.116625294,B -49.988102783,C 109.992654828,S 0,T 2,E1 9,E2 9,E3 9,E4 9,E5 9,E6 9}
DECL LOCAL CONST robtarget pBU_10_140={X 4540.67,Y 1679.47,Z 2445.58,A -109.809946532,B -54.161738498,C 103.821339445,S 0,T 2,E1 9,E2 9,E3 9,E4 9,E5 9,E6 9}
DECL LOCAL CONST robtarget pBU_10_150={X 4539.38,Y 1659.31,Z 2523.58,A -110.830246219,B -51.446907424,C 128.13814185,S 0,T 0,E1 9000000000,E2 9000000000,E3 9000000000,E4 9000000000,E5 9000000000,E6 9000000000}
DECL LOCAL CONST robtarget pBU_10_160={X 4543.89,Y 1683.47,Z 2437.44,A -117.328225923,B -58.143592871,C 116.835423499,S 0,T 2,E1 9,E2 9,E3 9,E4 9,E5 9,E6 9}
DECL LOCAL CONST robtarget pBU_10_170={X 4545.43,Y 1684.77,Z 2433.08,A -120.809502448,B -60.533103368,C 121.259331291,S 0,T 2,E1 9,E2 9,E3 9,E4 9,E5 9,E6 9}
DECL LOCAL CONST robtarget pBU_10_180={X 4547.42,Y 1686.78,Z 2429.13,A -127.026072111,B -60.000877134,C 132.869034779,S 0,T 2,E1 9,E2 9,E3 9,E4 9,E5 9,E6 9}
DECL LOCAL CONST robtarget pBU_10_190={X 4548.32,Y 1688.51,Z 2424.71,A -125.683191482,B -63.40956617,C 126.766557129,S 0,T 2,E1 9,E2 9,E3 9,E4 9,E5 9,E6 9}
DECL LOCAL CONST robtarget pBU_10_200={X 4551.22,Y 1692.13,Z 2415.89,A -126.860488118,B -63.308580216,C 128.842122791,S 0,T 2,E1 9,E2 9,E3 9,E4 9,E5 9,E6 9}
DECL LOCAL CONST robtarget pBU_10_210={X 4552.7,Y 1693.93,Z 2411.49,A -127.098266419,B -63.655108597,C 130.157259862,S 0,T 2,E1 9,E2 9,E3 9,E4 9,E5 9,E6 9}
DECL LOCAL CONST robtarget pBU_10_220={X 4554.04,Y 1695.7,Z 2407.02,A -127.098266419,B -63.655108597,C 130.157259862,S 0,T 2,E1 9,E2 9,E3 9,E4 9,E5 9,E6 9}
DECL LOCAL CONST robtarget pBU_10_230={X 4555.49,Y 1697.5,Z 2402.56,A -126.317177086,B -63.863690598,C 130.759253184,S 0,T 2,E1 9,E2 9,E3 9,E4 9,E5 9,E6 9}
DECL LOCAL CONST robtarget pBU_10_240={X 4556.76,Y 1699.25,Z 2398.1,A -126.195098778,B -64.418775794,C 130.650499348,S 0,T 2,E1 9,E2 9,E3 9,E4 9,E5 9,E6 9}
DECL LOCAL CONST robtarget pBU_10_250={X 4558.08,Y 1701.01,Z 2393.59,A -125.432332605,B -64.6447748,C 130.483136454,S 0,T 2,E1 9,E2 9,E3 9,E4 9,E5 9,E6 9}
DECL LOCAL CONST robtarget pBU_10_260={X 4559.3,Y 1702.73,Z 2389.09,A -125.197291963,B -65.149890859,C 130.270355592,S 0,T 2,E1 9,E2 9,E3 9,E4 9,E5 9,E6 9}
DECL LOCAL CONST robtarget pBU_10_270={X 4549.44,Y 1692.3,Z 2488.66,A -110.829341844,B -51.446965721,C 128.137619469,S 0,T 0,E1 9000000000,E2 9000000000,E3 9000000000,E4 9000000000,E5 9000000000,E6 9000000000}
DECL LOCAL CONST robtarget pBU_10_280={X 4561.73,Y 1706.17,Z 2380.01,A -123.764337111,B -65.675108404,C 129.333923411,S 0,T 2,E1 9,E2 9,E3 9,E4 9,E5 9,E6 9}
DECL LOCAL CONST robtarget pBU_10_290={X 4562.88,Y 1707.86,Z 2375.48,A -123.552403204,B -66.209434357,C 129.138101867,S 0,T 2,E1 9,E2 9,E3 9,E4 9,E5 9,E6 9}
DECL LOCAL CONST robtarget pBU_10_300={X 4564.03,Y 1709.54,Z 2370.91,A -123.5556057,B -66.210691389,C 129.174596445,S 0,T 2,E1 9,E2 9,E3 9,E4 9,E5 9,E6 9}
DECL LOCAL CONST robtarget pBU_10_310={X 4565.15,Y 1711.22,Z 2366.33,A -123.5556057,B -66.210691389,C 129.174596445,S 0,T 2,E1 9,E2 9,E3 9,E4 9,E5 9,E6 9}
DECL LOCAL CONST robtarget pBU_10_320={X 4566.26,Y 1712.89,Z 2361.75,A -123.5556057,B -66.210691389,C 129.174596445,S 0,T 2,E1 9,E2 9,E3 9,E4 9,E5 9,E6 9}
DECL LOCAL CONST robtarget pBU_10_330={X 4567.34,Y 1714.49,Z 2357.22,A -124.559470087,B -66.84637583,C 130.0574949,S 0,T 2,E1 9,E2 9,E3 9,E4 9,E5 9,E6 9}
DECL LOCAL CONST robtarget pBU_10_340={X 4568.43,Y 1716.1,Z 2352.63,A -124.369430525,B -66.908881964,C 129.8827164,S 0,T 2,E1 9,E2 9,E3 9,E4 9,E5 9,E6 9}
DECL LOCAL CONST robtarget pBU_10_350={X 4569.51,Y 1717.72,Z 2348.01,A -124.178733963,B -66.9711601,C 129.707201101,S 0,T 2,E1 9,E2 9,E3 9,E4 9,E5 9,E6 9}
DECL LOCAL CONST robtarget pBU_10_360={X 4570.55,Y 1719.34,Z 2343.39,A -123.974299577,B -67.030064589,C 129.234271319,S 0,T 2,E1 9,E2 9,E3 9,E4 9,E5 9,E6 9}
DECL LOCAL CONST robtarget pBU_10_370={X 4571.61,Y 1720.95,Z 2338.78,A -123.780221019,B -67.091610388,C 129.055527299,S 0,T 2,E1 9,E2 9,E3 9,E4 9,E5 9,E6 9}
DECL LOCAL CONST robtarget pBU_10_380={X 4570.94,Y 1723.2,Z 2425.65,A -137.243549488,B -63.806471962,C 150.687158396,S 0,T 0,E1 9000000000,E2 9000000000,E3 9000000000,E4 9000000000,E5 9000000000,E6 9000000000}
DECL LOCAL CONST robtarget pBU_10_390={X 4573.67,Y 1724.13,Z 2329.64,A -125.083734872,B -67.992779327,C 130.257617015,S 0,T 2,E1 9,E2 9,E3 9,E4 9,E5 9,E6 9}
DECL LOCAL CONST robtarget pBU_10_400={X 4574.71,Y 1725.66,Z 2324.99,A -124.885021966,B -68.0555289,C 130.073287224,S 0,T 2,E1 9,E2 9,E3 9,E4 9,E5 9,E6 9}
DECL LOCAL CONST robtarget pBU_10_410={X 4575.74,Y 1727.19,Z 2320.34,A -124.685125097,B -68.118116236,C 129.887910971,S 0,T 2,E1 9,E2 9,E3 9,E4 9,E5 9,E6 9}
DECL LOCAL CONST robtarget pBU_10_420={X 4576.73,Y 1728.72,Z 2315.68,A -124.469945913,B -68.180032237,C 129.429232624,S 0,T 2,E1 9,E2 9,E3 9,E4 9,E5 9,E6 9}
DECL LOCAL CONST robtarget pBU_10_430={X 4577.73,Y 1730.24,Z 2311.03,A -124.267055983,B -68.241655373,C 129.240811197,S 0,T 2,E1 9,E2 9,E3 9,E4 9,E5 9,E6 9}
DECL LOCAL CONST robtarget pBU_10_440={X 4578.73,Y 1731.78,Z 2306.37,A -124.063099494,B -68.303179481,C 129.051387365,S 0,T 2,E1 9,E2 9,E3 9,E4 9,E5 9,E6 9}
DECL LOCAL CONST robtarget pBU_10_450={X 4579.72,Y 1733.31,Z 2301.71,A -123.858174143,B -68.364314863,C 128.860900359,S 0,T 2,E1 9,E2 9,E3 9,E4 9,E5 9,E6 9}
DECL LOCAL CONST robtarget pBU_10_460={X 4580.68,Y 1734.77,Z 2297.12,A -125.075223316,B -69.048146523,C 130.002657301,S 0,T 2,E1 9,E2 9,E3 9,E4 9,E5 9,E6 9}
DECL LOCAL CONST robtarget pBU_10_470={X 4581.66,Y 1736.23,Z 2292.43,A -124.865992995,B -69.110537088,C 129.807140769,S 0,T 2,E1 9,E2 9,E3 9,E4 9,E5 9,E6 9}
DECL LOCAL CONST robtarget pBU_10_480={X 4609.39,Y 1776.37,Z 2242.74,A -154.356798247,B -68.626216501,C 166.242566988,S 0,T 0,E1 9000000000,E2 9000000000,E3 9000000000,E4 9000000000,E5 9000000000,E6 9000000000}
DECL LOCAL CONST robtarget pBU_10_490={X 4583.54,Y 1739.12,Z 2283.13,A -125.861879255,B -69.827537102,C 130.512943514,S 0,T 2,E1 9,E2 9,E3 9,E4 9,E5 9,E6 9}
DECL LOCAL CONST robtarget pBU_10_500={X 4584.21,Y 1740.54,Z 2278.29,A -124.478249804,B -69.362941377,C 126.299527896,S 0,T 2,E1 9,E2 9,E3 9,E4 9,E5 9,E6 9}
DECL LOCAL CONST robtarget pBU_10_510={X 4585.46,Y 1742.06,Z 2273.67,A -122.680473715,B -69.728064393,C 127.7610917,S 0,T 2,E1 9,E2 9,E3 9,E4 9,E5 9,E6 9}
DECL LOCAL CONST robtarget pBU_10_520={X 4586.4,Y 1743.5,Z 2268.98,A -122.680473715,B -69.728064393,C 127.7610917,S 0,T 2,E1 9,E2 9,E3 9,E4 9,E5 9,E6 9}
DECL LOCAL CONST robtarget pBU_10_530={X 4587.28,Y 1744.88,Z 2264.33,A -123.803718331,B -70.405594439,C 128.577423274,S 0,T 2,E1 9,E2 9,E3 9,E4 9,E5 9,E6 9}
DECL LOCAL CONST robtarget pBU_10_540={X 4588.19,Y 1746.27,Z 2259.61,A -123.528508467,B -70.478674076,C 128.318064674,S 0,T 2,E1 9,E2 9,E3 9,E4 9,E5 9,E6 9}
DECL LOCAL CONST robtarget pBU_10_550={X 4589.1,Y 1747.66,Z 2254.9,A -123.251712289,B -70.551318253,C 128.057178229,S 0,T 2,E1 9,E2 9,E3 9,E4 9,E5 9,E6 9}
DECL LOCAL CONST robtarget pBU_10_560={X 4590.4,Y 1750.35,Z 2245.35,A -123.139101326,B -70.755611582,C 123.159952772,S 0,T 2,E1 9,E2 9,E3 9,E4 9,E5 9,E6 9}
DECL LOCAL CONST robtarget pBU_10_570={X 4591.28,Y 1751.72,Z 2240.63,A -122.839692883,B -70.819617693,C 122.877131621,S 0,T 2,E1 9,E2 9,E3 9,E4 9,E5 9,E6 9}
DECL LOCAL CONST robtarget pBU_10_580={X 4617.65,Y 1790.07,Z 2193.14,A -154.35763063,B -68.626346017,C 166.243421585,S 0,T 0,E1 9000000000,E2 9000000000,E3 9000000000,E4 9000000000,E5 9000000000,E6 9000000000}
DECL LOCAL CONST robtarget pBU_10_590={X 4593.48,Y 1754.51,Z 2231.32,A -123.440476672,B -71.393248011,C 128.010432442,S 0,T 2,E1 9,E2 9,E3 9,E4 9,E5 9,E6 9}
DECL LOCAL CONST robtarget pBU_10_600={X 4594.34,Y 1755.84,Z 2226.58,A -123.149071545,B -71.465306899,C 127.734169276,S 0,T 2,E1 9,E2 9,E3 9,E4 9,E5 9,E6 9}
DECL LOCAL CONST robtarget pBU_10_610={X 4595.18,Y 1757.17,Z 2221.84,A -122.844868674,B -71.534918948,C 127.341312772,S 0,T 2,E1 9,E2 9,E3 9,E4 9,E5 9,E6 9}
DECL LOCAL CONST robtarget pBU_10_620={X 4596.02,Y 1758.5,Z 2217.08,A -122.54863853,B -71.605979691,C 127.060241367,S 0,T 2,E1 9,E2 9,E3 9,E4 9,E5 9,E6 9}
DECL LOCAL CONST robtarget pBU_10_630={X 4596.85,Y 1759.82,Z 2212.37,A -122.981308963,B -71.974768074,C 127.47225324,S 0,T 2,E1 9,E2 9,E3 9,E4 9,E5 9,E6 9}
DECL LOCAL CONST robtarget pBU_10_640={X 4597.68,Y 1761.11,Z 2207.62,A -122.679091776,B -72.046046371,C 127.184752682,S 0,T 2,E1 9,E2 9,E3 9,E4 9,E5 9,E6 9}
DECL LOCAL CONST robtarget pBU_10_650={X 4598.49,Y 1762.41,Z 2202.85,A -122.360468942,B -72.114735538,C 126.755635267,S 0,T 2,E1 9,E2 9,E3 9,E4 9,E5 9,E6 9}
DECL LOCAL CONST robtarget pBU_10_660={X 4599.3,Y 1763.71,Z 2198.09,A -122.052261169,B -72.184789891,C 126.462321287,S 0,T 2,E1 9,E2 9,E3 9,E4 9,E5 9,E6 9}
DECL LOCAL CONST robtarget pBU_10_670={X 4600.1,Y 1765,Z 2193.32,A -121.742279114,B -72.254440542,C 126.167174198,S 0,T 2,E1 9,E2 9,E3 9,E4 9,E5 9,E6 9}
DECL LOCAL CONST robtarget pBU_10_680={X 4631.02,Y 1807.95,Z 2101.47,A -154.35613629,B -68.626139077,C 171.776211436,S 0,T 0,E1 9000000000,E2 9000000000,E3 9000000000,E4 9000000000,E5 9000000000,E6 9000000000}
DECL LOCAL CONST robtarget pBU_10_690={X 4601.69,Y 1767.51,Z 2183.82,A -122.152487943,B -72.812523449,C 126.557841894,S 0,T 2,E1 9,E2 9,E3 9,E4 9,E5 9,E6 9}
DECL LOCAL CONST robtarget pBU_10_700={X 4602.47,Y 1768.76,Z 2179.05,A -121.831613436,B -72.882287293,C 126.251222594,S 0,T 2,E1 9,E2 9,E3 9,E4 9,E5 9,E6 9}
DECL LOCAL CONST robtarget pBU_10_710={X 4603.25,Y 1770.01,Z 2174.26,A -121.508329057,B -72.951680509,C 125.942230018,S 0,T 2,E1 9,E2 9,E3 9,E4 9,E5 9,E6 9}
DECL LOCAL CONST robtarget pBU_10_720={X 4603.99,Y 1771.25,Z 2169.48,A -121.162319585,B -73.019479067,C 125.406173456,S 0,T 2,E1 9,E2 9,E3 9,E4 9,E5 9,E6 9}
DECL LOCAL CONST robtarget pBU_10_730={X 4604.75,Y 1772.5,Z 2164.7,A -120.833219232,B -73.087257352,C 125.091358944,S 0,T 2,E1 9,E2 9,E3 9,E4 9,E5 9,E6 9}
DECL LOCAL CONST robtarget pBU_10_740={X 4605.51,Y 1773.75,Z 2159.91,A -120.50093366,B -73.154593576,C 124.773391533,S 0,T 2,E1 9,E2 9,E3 9,E4 9,E5 9,E6 9}
DECL LOCAL CONST robtarget pBU_10_750={X 4606.25,Y 1775,Z 2155.12,A -120.166442823,B -73.221313866,C 124.453193839,S 0,T 2,E1 9,E2 9,E3 9,E4 9,E5 9,E6 9}
DECL LOCAL CONST robtarget pBU_10_760={X 4606.98,Y 1776.22,Z 2150.39,A -120.930847481,B -73.731709739,C 125.184624433,S 0,T 2,E1 9,E2 9,E3 9,E4 9,E5 9,E6 9}
DECL LOCAL CONST robtarget pBU_10_770={X 4607.71,Y 1777.42,Z 2145.59,A -120.586560991,B -73.799226616,C 124.854037971,S 0,T 2,E1 9,E2 9,E3 9,E4 9,E5 9,E6 9}
DECL LOCAL CONST robtarget pBU_10_780={X 4639.52,Y 1825.79,Z 2010.72,A -154.354378772,B -68.625994237,C 171.775264239,S 0,T -1,E1 9000000000,E2 9000000000,E3 9000000000,E4 9000000000,E5 9000000000,E6 9000000000}
DECL LOCAL CONST robtarget pBU_10_790={X 4609.14,Y 1779.82,Z 2135.99,A -120.239275363,B -73.866091127,C 124.520435258,S 0,T 2,E1 9,E2 9,E3 9,E4 9,E5 9,E6 9}
DECL LOCAL CONST robtarget pBU_10_800={X 4609.45,Y 1780.95,Z 2131.12,A -120.433397897,B -73.931336204,C 120.789228201,S 0,T 2,E1 9,E2 9,E3 9,E4 9,E5 9,E6 9}
DECL LOCAL CONST robtarget pBU_10_810={X 4610.15,Y 1782.14,Z 2126.31,A -120.433397897,B -73.931336204,C 120.789228201,S 0,T 2,E1 9,E2 9,E3 9,E4 9,E5 9,E6 9}
DECL LOCAL CONST robtarget pBU_10_820={X 4611.22,Y 1783.39,Z 2121.59,A -120.505457546,B -74.180360571,C 124.569441407,S 0,T 2,E1 9,E2 9,E3 9,E4 9,E5 9,E6 9}
DECL LOCAL CONST robtarget pBU_10_830={X 4611.9,Y 1784.58,Z 2116.78,A -120.148205364,B -74.246889462,C 124.225686833,S 0,T 2,E1 9,E2 9,E3 9,E4 9,E5 9,E6 9}
DECL LOCAL CONST robtarget pBU_10_840={X 4612.58,Y 1785.76,Z 2111.97,A -119.788030526,B -74.312919664,C 123.878916563,S 0,T 2,E1 9,E2 9,E3 9,E4 9,E5 9,E6 9}
DECL LOCAL CONST robtarget pBU_10_850={X 4613.23,Y 1786.91,Z 2107.17,A -119.840599629,B -74.557306954,C 123.929395704,S 0,T 2,E1 9,E2 9,E3 9,E4 9,E5 9,E6 9}
DECL LOCAL CONST robtarget pBU_10_860={X 4613.9,Y 1788.07,Z 2102.35,A -119.471882386,B -74.622816628,C 123.573966421,S 0,T 2,E1 9,E2 9,E3 9,E4 9,E5 9,E6 9}
DECL LOCAL CONST robtarget pBU_10_870={X 4614.54,Y 1789.21,Z 2097.55,A -119.618649358,B -74.910603304,C 123.532510861,S 0,T 2,E1 9,E2 9,E3 9,E4 9,E5 9,E6 9}
DECL LOCAL CONST robtarget pBU_10_880={X 4644.98,Y 1835.95,Z 1939.77,A -154.355439831,B -68.626341903,C 171.776154982,S 0,T -1,E1 9000000000,E2 9000000000,E3 9000000000,E4 9000000000,E5 9000000000,E6 9000000000}
DECL LOCAL CONST robtarget pBU_10_890={X 4615.44,Y 1791.43,Z 2087.82,A -118.515534743,B -74.929499657,C 118.791261192,S 0,T 2,E1 9,E2 9,E3 9,E4 9,E5 9,E6 9}
DECL LOCAL CONST robtarget pBU_10_900={X 4616.45,Y 1792.63,Z 2083.06,A -118.472190025,B -75.103015361,C 122.425098646,S 0,T 2,E1 9,E2 9,E3 9,E4 9,E5 9,E6 9}
DECL LOCAL CONST robtarget pBU_10_910={X 4617.07,Y 1793.77,Z 2078.23,A -118.083832714,B -75.165873962,C 122.049695786,S 0,T 2,E1 9,E2 9,E3 9,E4 9,E5 9,E6 9}
DECL LOCAL CONST robtarget pBU_10_920={X 4617.68,Y 1794.89,Z 2073.4,A -117.692122032,B -75.228072458,C 121.670963618,S 0,T 2,E1 9,E2 9,E3 9,E4 9,E5 9,E6 9}
DECL LOCAL CONST robtarget pBU_10_930={X 4618.28,Y 1796.01,Z 2068.58,A -117.701905485,B -75.468586327,C 121.679661235,S 0,T 2,E1 9,E2 9,E3 9,E4 9,E5 9,E6 9}
DECL LOCAL CONST robtarget pBU_10_940={X 4618.86,Y 1797.1,Z 2063.76,A -117.822733212,B -75.760402265,C 121.610251029,S 0,T 2,E1 9,E2 9,E3 9,E4 9,E5 9,E6 9}
DECL LOCAL CONST robtarget pBU_10_950={X 4619.13,Y 1798.14,Z 2058.86,A -117.139054808,B -75.765927969,C 117.921200348,S 0,T 2,E1 9,E2 9,E3 9,E4 9,E5 9,E6 9}
DECL LOCAL CONST robtarget pBU_10_960={X 4619.72,Y 1799.24,Z 2054.02,A -116.714152586,B -75.820722427,C 117.509297036,S 0,T 2,E1 9,E2 9,E3 9,E4 9,E5 9,E6 9}
DECL LOCAL CONST robtarget pBU_10_970={X 4620.29,Y 1800.33,Z 2049.17,A -116.28589841,B -75.874759906,C 117.094061724,S 0,T 2,E1 9,E2 9,E3 9,E4 9,E5 9,E6 9}
DECL LOCAL CONST robtarget pBU_10_980={X 4648.02,Y 1842.8,Z 1895.65,A -154.353846337,B -68.625947161,C 171.774310233,S 0,T -1,E1 9000000000,E2 9000000000,E3 9000000000,E4 9000000000,E5 9000000000,E6 9000000000}
DECL LOCAL CONST robtarget pBU_10_990={X 4621.73,Y 1802.56,Z 2039.53,A -115.740045985,B -76.060260682,C 119.590171287,S 0,T 2,E1 9,E2 9,E3 9,E4 9,E5 9,E6 9}
DECL LOCAL CONST robtarget pBU_10_1000={X 4622.28,Y 1803.65,Z 2034.67,A -115.312992632,B -76.118198901,C 119.175637052,S 0,T 2,E1 9,E2 9,E3 9,E4 9,E5 9,E6 9}
DECL LOCAL CONST robtarget pBU_10_1010={X 4622.81,Y 1804.69,Z 2029.86,A -115.722294091,B -76.555370601,C 119.570413156,S 0,T 2,E1 9,E2 9,E3 9,E4 9,E5 9,E6 9}
DECL LOCAL CONST robtarget pBU_10_1020={X 4623.34,Y 1805.74,Z 2025,A -115.279341427,B -76.613105932,C 119.139526404,S 0,T 2,E1 9,E2 9,E3 9,E4 9,E5 9,E6 9}
DECL LOCAL CONST robtarget pBU_10_1030={X 4623.87,Y 1806.79,Z 2020.13,A -114.833217341,B -76.670088393,C 118.70549273,S 0,T 2,E1 9,E2 9,E3 9,E4 9,E5 9,E6 9}
DECL LOCAL CONST robtarget pBU_10_1040={X 4624.59,Y 1807.89,Z 2015.31,A -114.62205692,B -76.764180834,C 120.52126844,S 0,T 2,E1 9,E2 9,E3 9,E4 9,E5 9,E6 9}
DECL LOCAL CONST robtarget pBU_10_1050={X 4625.1,Y 1808.93,Z 2010.45,A -114.176651231,B -76.82361877,C 120.087589288,S 0,T 2,E1 9,E2 9,E3 9,E4 9,E5 9,E6 9}
DECL LOCAL CONST robtarget pBU_10_1060={X 4625.6,Y 1809.97,Z 2005.58,A -113.727905293,B -76.88229222,C 119.650635673,S 0,T 2,E1 9,E2 9,E3 9,E4 9,E5 9,E6 9}
DECL LOCAL CONST robtarget pBU_10_1070={X 4625.88,Y 1810.97,Z 2000.67,A -113.010494461,B -76.890025622,C 116.931004107,S 0,T 2,E1 9,E2 9,E3 9,E4 9,E5 9,E6 9}
DECL LOCAL CONST robtarget pBU_10_1080={X 4665.26,Y 1850.8,Z 1851.49,A -154.354240746,B -68.625298041,C 171.775442193,S 0,T -1,E1 9000000000,E2 9000000000,E3 9000000000,E4 9000000000,E5 9000000000,E6 9000000000}
DECL LOCAL CONST robtarget pBU_10_1090={X 4626.81,Y 1813.01,Z 1990.98,A -113.046493962,B -77.466892739,C 116.777802388,S 0,T 2,E1 9,E2 9,E3 9,E4 9,E5 9,E6 9}
DECL LOCAL CONST robtarget pBU_10_1100={X 4627.73,Y 1815.01,Z 1981.22,A -112.559949947,B -77.519522655,C 116.302699872,S 0,T 2,E1 9,E2 9,E3 9,E4 9,E5 9,E6 9}
DECL LOCAL CONST robtarget pBU_10_1110={X 4628.16,Y 1815.99,Z 1976.37,A -112.652422832,B -77.85257734,C 116.214406096,S 0,T 2,E1 9,E2 9,E3 9,E4 9,E5 9,E6 9}
DECL LOCAL CONST robtarget pBU_10_1120={X 4628.16,Y 1816.91,Z 1971.41,A -111.32895153,B -77.733722358,C 110.681164853,S 0,T 2,E1 9,E2 9,E3 9,E4 9,E5 9,E6 9}
DECL LOCAL CONST robtarget pBU_10_1130={X 4628.58,Y 1817.9,Z 1966.53,A -110.808731408,B -77.774837949,C 110.172668395,S 0,T 2,E1 9,E2 9,E3 9,E4 9,E5 9,E6 9}
DECL LOCAL CONST robtarget pBU_10_1140={X 4629.44,Y 1818.95,Z 1961.72,A -111.126273662,B -78.004555108,C 114.72208099,S 0,T 2,E1 9,E2 9,E3 9,E4 9,E5 9,E6 9}
DECL LOCAL CONST robtarget pBU_10_1150={X 4629.85,Y 1819.92,Z 1956.83,A -110.60885521,B -78.053350564,C 114.215848282,S 0,T 2,E1 9,E2 9,E3 9,E4 9,E5 9,E6 9}
DECL LOCAL CONST robtarget pBU_10_1160={X 4630.25,Y 1820.88,Z 1951.96,A -110.572649976,B -78.34027154,C 114.178316726,S 0,T 2,E1 9,E2 9,E3 9,E4 9,E5 9,E6 9}
DECL LOCAL CONST robtarget pBU_10_1170={X 4630.64,Y 1821.83,Z 1947.07,A -110.038703869,B -78.387987314,C 113.655360183,S 0,T 2,E1 9,E2 9,E3 9,E4 9,E5 9,E6 9}
DECL LOCAL CONST robtarget pBU_10_1180={X 4631.01,Y 1822.77,Z 1942.17,A -110.036155523,B -78.391277508,C 113.581562877,S 0,T 2,E1 9,E2 9,E3 9,E4 9,E5 9,E6 9}
DECL LOCAL CONST robtarget pBU_10_1190={X 4631.38,Y 1823.71,Z 1937.31,A -112.716709517,B -78.494433758,C 116.207474388,S 0,T 2,E1 9,E2 9,E3 9,E4 9,E5 9,E6 9}
DECL LOCAL CONST robtarget pBU_10_1200={X 4631.75,Y 1824.62,Z 1932.42,A -112.716709517,B -78.494433758,C 116.207474388,S 0,T 2,E1 9,E2 9,E3 9,E4 9,E5 9,E6 9}
DECL LOCAL CONST robtarget pBU_10_1210={X 4632.1,Y 1825.54,Z 1927.5,A -112.099627318,B -78.553968452,C 115.602588163,S 0,T 2,E1 9,E2 9,E3 9,E4 9,E5 9,E6 9}
DECL LOCAL CONST robtarget pBU_10_1220={X 4632.43,Y 1826.46,Z 1922.6,A -111.483770112,B -78.615550631,C 114.905069799,S 0,T 2,E1 9,E2 9,E3 9,E4 9,E5 9,E6 9}
DECL LOCAL CONST robtarget pBU_10_1230={X 4632.76,Y 1827.37,Z 1917.72,A -111.44964306,B -78.924855545,C 114.873228369,S 0,T 2,E1 9,E2 9,E3 9,E4 9,E5 9,E6 9}
DECL LOCAL CONST robtarget pBU_10_1240={X 4633.08,Y 1828.26,Z 1912.81,A -110.802081031,B -78.981534121,C 114.237713769,S 0,T 2,E1 9,E2 9,E3 9,E4 9,E5 9,E6 9}
DECL LOCAL CONST robtarget pBU_10_1250={X 4633.4,Y 1829.15,Z 1907.9,A -110.154804489,B -79.040166688,C 113.55638096,S 0,T 2,E1 9,E2 9,E3 9,E4 9,E5 9,E6 9}
DECL LOCAL CONST robtarget pBU_10_1260={X 4633.7,Y 1830.01,Z 1903.01,A -110.11746924,B -79.364735667,C 113.520548461,S 0,T 2,E1 9,E2 9,E3 9,E4 9,E5 9,E6 9}
DECL LOCAL CONST robtarget pBU_10_1270={X 4633.99,Y 1830.88,Z 1898.1,A -110.11746924,B -79.364735667,C 113.520548461,S 0,T 2,E1 9,E2 9,E3 9,E4 9,E5 9,E6 9}
DECL LOCAL CONST robtarget pBU_10_1280={X 4634.26,Y 1831.74,Z 1893.17,A -107.857881421,B -79.53869199,C 111.21184059,S 0,T 2,E1 9,E2 9,E3 9,E4 9,E5 9,E6 9}
DECL LOCAL CONST robtarget pBU_10_1290={X 4634.53,Y 1832.61,Z 1888.26,A -107.857881421,B -79.53869199,C 111.21184059,S 0,T 2,E1 9,E2 9,E3 9,E4 9,E5 9,E6 9}
DECL LOCAL CONST robtarget pBU_10_1300={X 4634.14,Y 1841.79,Z 1886.39,A -90.110888534,B -23.07321147,C 94.976440734,S 0,T 2,E1 9,E2 9,E3 9,E4 9,E5 9,E6 9}
DECL LOCAL CONST robtarget pBU_10_1310={X 4634.1,Y 1843.08,Z 1886.03,A -89.452064388,B -6.768922585,C 93.761798777,S 0,T 3,E1 9,E2 9,E3 9,E4 9,E5 9,E6 9}
DECL LOCAL CONST robtarget pBU_10_1320={X 4633.9,Y 1871.85,Z 1882.64,A -89.452188789,B -6.768977658,C 93.761861491,S 0,T 3,E1 9,E2 9,E3 9,E4 9,E5 9,E6 9}
DECL LOCAL CONST robtarget pBU_10_1330={X 4633.64,Y 1899.65,Z 1879.34,A -89.452188789,B -6.768977658,C 93.761861491,S 0,T 3,E1 9,E2 9,E3 9,E4 9,E5 9,E6 9}
DECL LOCAL CONST robtarget pBU_10_1340={X 4633.49,Y 1914.55,Z 1877.57,A -89.452188789,B -6.768977658,C 93.761861491,S 0,T 3,E1 9,E2 9,E3 9,E4 9,E5 9,E6 9}
DECL LOCAL CONST robtarget p10={X 2505.3,Y 2062.25,Z 2399.93,A 86.616635862,B 60.211133036,C 175.832740204,S 0,T 1,E1 9000000000,E2 9000000000,E3 9000000000,E4 9000000000,E5 9000000000,E6 9000000000}
DECL LOCAL CONST robtarget p20={X 2489.44,Y 1703.55,Z 2728.16,A 88.608864708,B 55.401177104,C 177.337461062,S 0,T 1,E1 9,E2 9,E3 9,E4 9,E5 9,E6 9}
DECL LOCAL CONST robtarget p30={X 2415.63,Y 1934.31,Z 983.93,A 120.286276929,B 85.413417508,C -143.534400119,S -1,T 2,E1 9000000000,E2 9000000000,E3 9000000000,E4 9000000000,E5 9000000000,E6 9000000000}
DECL LOCAL CONST robtarget p40={X 2417.28,Y 1981.56,Z 1017.17,A -70.187776328,B -81.641573913,C 160.56188346,S -1,T 2,E1 9,E2 9,E3 9,E4 9,E5 9,E6 9}
DECL LOCAL CONST robtarget p50={X 2414.8,Y 1730.47,Z 809.79,A 90.739978994,B -74.940283289,C -0.766162504,S -1,T 2,E1 9,E2 9,E3 9,E4 9,E5 9,E6 9}
DECL LOCAL CONST robtarget p60={X 2429.01,Y 1851.74,Z 850.95,A -49.899124586,B -87.315456165,C 146.389979584,S -1,T 2,E1 9000000000,E2 9000000000,E3 9000000000,E4 9000000000,E5 9000000000,E6 9000000000}
DECL LOCAL CONST robtarget p70={X 2743,Y 2224.31,Z 508.05,A 41.759129948,B 29.022966295,C 138.933142778,S -1,T 2,E1 9,E2 9,E3 9,E4 9,E5 9,E6 9}
DECL LOCAL CONST robtarget p80={X 3318.82,Y 1995.61,Z 1479.35,A -3.460137833,B 6.529066826,C 105.857693309,S 0,T 1,E1 9000000000,E2 9000000000,E3 9000000000,E4 9000000000,E5 9000000000,E6 9000000000}
DECL LOCAL CONST robtarget p90={X 3519.79,Y 1929.52,Z 1825.58,A -12.79564882,B -0.09621703,C 125.994167077,S 0,T 2,E1 9000000000,E2 9000000000,E3 9000000000,E4 9000000000,E5 9000000000,E6 9000000000}
DECL LOCAL CONST robtarget p110={X 4482.15,Y 1973.9,Z 1921.59,A 4.241791574,B -8.726187444,C 137.999367145,S 0,T 2,E1 9000000000,E2 9000000000,E3 9000000000,E4 9000000000,E5 9000000000,E6 9000000000}
DECL LOCAL CONST robtarget p120={X 4759.46,Y 2072.81,Z 2247.11,A 23.94048432,B 4.060784007,C 99.753198373,S 0,T 2,E1 9000000000,E2 9000000000,E3 9000000000,E4 9000000000,E5 9000000000,E6 9000000000}
DECL LOCAL CONST robtarget p130={X 4785.25,Y 2092.03,Z 1530.22,A -156.595861328,B 10.562996242,C -86.833679467,S 0,T -1,E1 9000000000,E2 9000000000,E3 9000000000,E4 9000000000,E5 9000000000,E6 9000000000}
DECL LOCAL CONST robtarget p140={X 4607.44,Y 2013.18,Z 1778.8,A -168.527765875,B -6.775822645,C -54.11970535,S 0,T -1,E1 9000000000,E2 9000000000,E3 9000000000,E4 9000000000,E5 9000000000,E6 9000000000}
DECL LOCAL CONST robtarget p150={X 3558.58,Y 1855.54,Z 1861.07,A -164.075710483,B 2.729812313,C -96.479847187,S 0,T 1,E1 9,E2 9,E3 9,E4 9,E5 9,E6 9}
DECL LOCAL CONST robtarget p160={X 3484.22,Y 2003.88,Z 1894.77,A -164.075710483,B 2.729812313,C -96.479847187,S 0,T 1,E1 9,E2 9,E3 9,E4 9,E5 9,E6 9}
DECL LOCAL CONST robtarget p170={X 4099.19,Y 2494.46,Z 2088.48,A 83.178996202,B 82.970847298,C 47.100231889,S 0,T 1,E1 9,E2 9,E3 9,E4 9,E5 9,E6 9}
DECL LOCAL CONST robtarget p180={X 4215.39,Y 2305.24,Z 2070.47,A 81.444933298,B 82.859619197,C 61.379488014,S 0,T 2,E1 9,E2 9,E3 9,E4 9,E5 9,E6 9}
DECL LOCAL CONST robtarget p190={X 4053.57,Y 2601.33,Z 2059.42,A -173.539511395,B 33.568659279,C 149.515275649,S 0,T 2,E1 9,E2 9,E3 9,E4 9,E5 9,E6 9}
DECL LOCAL CONST robtarget p200={X 4858.78,Y 2629.69,Z 2195.24,A -0.181244728,B 59.957463563,C -35.608218585,S 0,T -1,E1 9000000000,E2 9000000000,E3 9000000000,E4 9000000000,E5 9000000000,E6 9000000000}
DECL LOCAL CONST robtarget p210={X 4776.82,Y 2677.42,Z 2671.94,A 26.742420318,B 14.25317702,C -27.761358864,S 0,T -1,E1 9000000000,E2 9000000000,E3 9000000000,E4 9000000000,E5 9000000000,E6 9000000000}
DECL LOCAL CONST robtarget p220={X 4579.11,Y 1666.83,Z 2540.45,A -110.830044036,B -51.447136147,C 128.137983887,S 0,T 0,E1 9000000000,E2 9000000000,E3 9000000000,E4 9000000000,E5 9000000000,E6 9000000000}
DECL LOCAL CONST robtarget p230={X 4788.1,Y 2016.04,Z 1859.9,A -147.232772059,B -68.287327142,C 172.288606756,S 0,T -1,E1 9000000000,E2 9000000000,E3 9000000000,E4 9000000000,E5 9000000000,E6 9000000000}
DECL LOCAL CONST robtarget p240={X 4249.97,Y 2395.18,Z 1755.93,A -97.208193251,B -6.560109183,C 97.373221983,S 0,T 3,E1 9,E2 9,E3 9,E4 9,E5 9,E6 9}
DECL LOCAL CONST robtarget p250={X 3872.38,Y 2284.69,Z 1873.6,A -175.243256978,B -69.683819183,C 170.966369622,S 0,T -1,E1 9000000000,E2 9000000000,E3 9000000000,E4 9000000000,E5 9000000000,E6 9000000000}
DECL LOCAL CONST robtarget p260={X 3909.51,Y 2374.1,Z 1853.84,A -156.399131548,B -8.112967833,C 161.158991085,S 0,T 2,E1 9,E2 9,E3 9,E4 9,E5 9,E6 9}
DECL LOCAL CONST robtarget p270={X 2643.68,Y 2727.2,Z 1817.69,A -179.937928616,B 2.081727724,C 125.507100931,S 0,T 3,E1 9,E2 9,E3 9,E4 9,E5 9,E6 9}
DECL LOCAL CONST robtarget p280={X 1835.78,Y 2582.57,Z 1309.18,A 162.497592429,B -9.128699681,C 158.833933743,S 0,T 2,E1 9000000000,E2 9000000000,E3 9000000000,E4 9000000000,E5 9000000000,E6 9000000000}
DECL LOCAL CONST robtarget p100={X 3744.03,Y 1927.32,Z 1823.88,A -1.55075597,B -2.251567006,C 138.489141697,S 0,T 2,E1 9000000000,E2 9000000000,E3 9000000000,E4 9000000000,E5 9000000000,E6 9000000000}
DECL LOCAL CONST robtarget p290={X 3634.72,Y 1912.13,Z 1804.48,A -1.551022739,B -2.251616943,C 138.489342502,S 0,T 2,E1 9000000000,E2 9000000000,E3 9000000000,E4 9000000000,E5 9000000000,E6 9000000000}
DECL LOCAL CONST robtarget p300={X 1810.63,Y 3362.05,Z 1659.51,A -58.146635262,B 8.552027442,C 29.508687971,S -1,T 1,E1 9000000000,E2 9000000000,E3 9000000000,E4 9000000000,E5 9000000000,E6 9000000000}
DECL LOCAL CONST robtarget p310={X 4838.09,Y 2030.32,Z 2332.45,A 12.392322579,B -74.444114346,C 22.472401812,S 0,T 0,E1 9000000000,E2 9000000000,E3 9000000000,E4 9000000000,E5 9000000000,E6 9000000000}
